; generated by PrusaSlicer 2.3.0-rc2+linux-x64-GTK3 on 2020-12-30 at 13:33:36 UTC

; 

; external perimeters extrusion width = 0.50mm
; perimeters extrusion width = 0.50mm
; infill extrusion width = 0.50mm
; solid infill extrusion width = 0.50mm
; top infill extrusion width = 0.50mm
; first layer extrusion width = 0.50mm

; external perimeters extrusion width = 0.50mm
; perimeters extrusion width = 0.50mm
; infill extrusion width = 0.50mm
; solid infill extrusion width = 0.50mm
; top infill extrusion width = 0.50mm
; first layer extrusion width = 0.50mm

; external perimeters extrusion width = 0.50mm
; perimeters extrusion width = 0.50mm
; infill extrusion width = 0.50mm
; solid infill extrusion width = 0.50mm
; top infill extrusion width = 0.50mm
; first layer extrusion width = 0.50mm

START_PRINT T_BED=110 T_EXTRUDER=260
; Filament gcode
;LAYER_CHANGE
;Z:0.25
;HEIGHT:0.25
G1 Z0.250 F30000.000
G1 E-0.50000 F2100.000
G92 E0
G1 X91.002 Y86.274 F30000.000
G1 E0.50000 F1500.000
M204 S20000
;TYPE:External perimeter
;WIDTH:0.5
G1 F7200.000
G1 X91.082 Y86.452 E0.50904
G1 X91.113 Y86.641 E0.51795
G1 X91.098 Y86.825 E0.52652
G1 X91.047 Y87.002 E0.53503
G1 X90.959 Y87.179 E0.54423
G1 X90.712 Y87.494 E0.56281
G1 X90.267 Y87.914 E0.59118
G1 X87.713 Y90.461 E0.75853
G1 X87.358 Y90.876 E0.78385
G1 X87.218 Y91.002 E0.79260
G1 X87.016 Y91.114 E0.80328
G1 X86.748 Y91.160 E0.81590
G1 X86.544 Y91.134 E0.82544
G1 X86.204 Y90.985 E0.84265
G1 X85.864 Y90.695 E0.86342
G1 X84.810 Y89.589 E0.93431
G1 X84.604 Y89.329 E0.94971
G1 X84.365 Y88.971 E0.96962
G1 X84.163 Y88.538 E0.99182
G1 X84.058 Y88.071 E1.01404
G1 X84.048 Y87.623 E1.03481
G1 X84.132 Y87.113 E1.05880
G1 X84.215 Y86.844 E1.07186
G1 X84.383 Y86.456 E1.09147
G1 X84.694 Y85.952 E1.11894
G1 X84.909 Y85.678 E1.13512
G1 X85.152 Y85.416 E1.15170
G1 X85.595 Y85.058 E1.17809
G1 X85.934 Y84.889 E1.19568
G1 X86.217 Y84.788 E1.20963
G1 X86.572 Y84.592 E1.22844
G1 X86.953 Y84.443 E1.24743
G1 X87.329 Y84.354 E1.26532
G1 X87.661 Y84.326 E1.28081
G1 X88.015 Y84.248 E1.29762
G1 X88.428 Y84.265 E1.31678
G1 X88.801 Y84.372 E1.33477
G1 X89.149 Y84.567 E1.35327
G1 X89.510 Y84.834 E1.37411
G1 X89.911 Y85.196 E1.39917
G1 X90.478 Y85.774 E1.43674
G1 X90.886 Y86.122 E1.46162
G1 X90.965 Y86.227 E1.46770
G1 X91.196 Y86.269 F30000.000
G1 E0.96770 F2100.000
G92 E0
G1 X87.696 Y83.624 F30000.000
G1 E0.50000 F1500.000
G1 F7200.000
G1 X87.335 Y84.003 E0.52428
G1 X87.172 Y84.140 E0.53418
G1 X86.980 Y84.249 E0.54442
G1 X86.767 Y84.326 E0.55492
G1 X86.449 Y84.365 E0.56978
G1 X85.853 Y84.280 E0.59773
G1 X85.705 Y84.231 E0.60498
G1 X85.481 Y84.098 E0.61704
G1 X85.297 Y83.914 E0.62913
G1 X85.155 Y83.698 E0.64108
G1 X85.097 Y83.551 E0.64845
G1 X85.055 Y83.297 E0.66037
G1 X85.063 Y83.035 E0.67254
G1 X85.201 Y82.661 E0.69105
G1 X85.539 Y82.264 E0.71521
G1 X85.704 Y82.113 E0.72558
G1 X86.294 Y81.794 E0.75671
G1 X86.488 Y81.756 E0.76589
G1 X86.742 Y81.744 E0.77770
G1 X87.001 Y81.800 E0.78998
G1 X87.249 Y81.909 E0.80253
G1 X87.541 Y82.154 E0.82024
G1 X87.701 Y82.373 E0.83281
G1 X87.847 Y82.731 E0.85073
G1 X87.872 Y83.053 E0.86572
G1 X87.811 Y83.377 E0.88104
G1 X87.721 Y83.569 E0.89086
G1 X87.867 Y83.985 F30000.000
G1 E0.39086 F2100.000
G92 E0
G1 X85.817 Y81.239 F30000.000
G1 E0.50000 F1500.000
G1 F7200.000
G1 X85.756 Y81.441 E0.50978
G1 X85.626 Y81.705 E0.52345
G1 X85.473 Y81.854 E0.53336
G1 X85.333 Y81.938 E0.54094
G1 X85.122 Y82.029 E0.55157
G1 X84.921 Y82.152 E0.56250
G1 X84.332 Y82.422 E0.59257
G1 X84.087 Y82.503 E0.60456
G1 X83.657 Y82.575 E0.62477
G1 X83.580 Y82.957 E0.64284
G1 X83.327 Y83.879 E0.68722
G1 X83.170 Y84.279 E0.70715
G1 X83.006 Y84.516 E0.72052
G1 X82.794 Y84.690 E0.73324
G1 X82.512 Y84.783 E0.74701
G1 X82.222 Y84.768 E0.76047
G1 X81.949 Y84.666 E0.77397
G1 X81.771 Y84.534 E0.78427
G1 X81.611 Y84.303 E0.79732
G1 X81.542 Y84.052 E0.80938
G1 X81.536 Y83.852 E0.81865
G1 X81.589 Y83.647 E0.82849
G1 X81.724 Y83.394 E0.84180
G1 X81.809 Y83.108 E0.85564
G1 X81.780 Y83.020 E0.85994
G1 X81.610 Y83.088 E0.86842
G1 X81.583 Y82.952 E0.87488
G1 X81.317 Y83.037 E0.88782
G1 X81.152 Y83.129 E0.89658
G1 X80.924 Y83.206 E0.90774
G1 X80.622 Y83.176 E0.92181
G1 X80.378 Y83.075 E0.93409
G1 X80.175 Y82.880 E0.94716
G1 X80.073 Y82.606 E0.96069
G1 X80.095 Y82.279 E0.97590
G1 X80.186 Y82.098 E0.98532
G1 X80.317 Y81.920 E0.99555
G1 X80.485 Y81.767 E1.00610
G1 X80.692 Y81.625 E1.01776
G1 X81.234 Y81.407 E1.04486
G1 X81.994 Y81.200 E1.08139
G1 X82.135 Y81.118 E1.08893
G1 X82.197 Y81.005 E1.09496
G1 X82.510 Y79.747 E1.15507
G1 X82.608 Y79.465 E1.16892
G1 X82.711 Y79.282 E1.17868
G1 X82.914 Y79.054 E1.19283
G1 X83.174 Y78.893 E1.20700
G1 X83.412 Y78.840 E1.21834
G1 X83.573 Y78.841 E1.22577
G1 X83.763 Y78.887 E1.23484
G1 X84.017 Y79.021 E1.24816
G1 X84.231 Y79.243 E1.26248
G1 X84.347 Y79.515 E1.27619
G1 X84.359 Y79.785 E1.28873
G1 X84.311 Y79.974 E1.29776
G1 X84.221 Y80.183 E1.30835
G1 X84.092 Y80.350 E1.31811
G1 X84.028 Y80.579 E1.32912
G1 X84.108 Y80.785 E1.33940
G1 X84.205 Y80.821 E1.34419
G1 X84.532 Y80.712 E1.36021
G1 X84.662 Y80.615 E1.36770
G1 X84.921 Y80.526 E1.38042
G1 X85.208 Y80.517 E1.39372
G1 X85.450 Y80.591 E1.40547
G1 X85.622 Y80.715 E1.41530
G1 X85.742 Y80.887 E1.42505
G1 X85.804 Y81.180 E1.43894
G1 X85.991 Y81.358 F30000.000
G1 E0.93894 F2100.000
G92 E0
G1 X84.400 Y77.863 F30000.000
G1 E0.50000 F1500.000
G1 F7200.000
G1 X84.202 Y77.884 E0.50924
G1 X84.021 Y77.857 E0.51774
G1 X83.851 Y77.795 E0.52614
G1 X83.473 Y77.579 E0.54635
G1 X83.355 Y77.534 E0.55218
G1 X83.244 Y77.517 E0.55741
G1 X83.122 Y77.526 E0.56310
G1 X82.973 Y77.568 E0.57027
G1 X82.414 Y77.818 E0.59869
G1 X82.017 Y77.958 E0.61821
G1 X81.884 Y78.029 E0.62518
G1 X81.804 Y78.150 E0.63193
G1 X81.559 Y78.777 E0.66317
G1 X80.548 Y80.953 E0.77448
G1 X80.403 Y81.175 E0.78678
G1 X79.950 Y81.654 E0.81735
G1 X79.719 Y81.830 E0.83081
G1 X79.518 Y81.896 E0.84063
G1 X79.236 Y81.868 E0.85379
G1 X78.997 Y81.728 E0.86663
G1 X78.855 Y81.597 E0.87560
G1 X78.728 Y81.431 E0.88532
G1 X78.627 Y81.190 E0.89740
G1 X78.594 Y80.987 E0.90693
G1 X78.603 Y80.795 E0.91586
G1 X78.651 Y80.606 E0.92493
G1 X78.778 Y80.344 E0.93845
G1 X79.395 Y79.528 E0.98589
G1 X79.678 Y78.885 E1.01846
G1 X79.638 Y78.874 E1.02037
G1 X79.097 Y79.158 E1.04876
G1 X78.423 Y79.677 E1.08820
G1 X78.182 Y79.805 E1.10083
G1 X77.952 Y79.887 E1.11218
G1 X77.636 Y79.945 E1.12707
G1 X77.349 Y79.915 E1.14045
G1 X77.100 Y79.807 E1.15306
G1 X76.905 Y79.604 E1.16611
G1 X76.828 Y79.337 E1.17902
G1 X76.842 Y79.055 E1.19210
G1 X76.958 Y78.822 E1.20419
G1 X77.135 Y78.553 E1.21913
G1 X77.572 Y78.210 E1.24491
G1 X78.158 Y77.851 E1.27679
G1 X78.635 Y77.595 E1.30191
G1 X80.366 Y76.773 E1.39080
G1 X81.952 Y76.049 E1.47171
G1 X82.676 Y75.757 E1.50789
G1 X83.042 Y75.655 E1.52551
G1 X83.310 Y75.619 E1.53807
G1 X83.684 Y75.638 E1.55542
G1 X84.009 Y75.727 E1.57105
G1 X84.447 Y75.939 E1.59365
G1 X84.774 Y76.185 E1.61262
G1 X84.904 Y76.334 E1.62182
G1 X85.008 Y76.509 E1.63123
G1 X85.084 Y76.793 E1.64489
G1 X85.064 Y77.084 E1.65840
G1 X84.920 Y77.445 E1.67642
G1 X84.738 Y77.669 E1.68982
G1 X84.577 Y77.789 E1.69914
G1 X84.456 Y77.840 E1.70525
G1 X84.346 Y78.054 F30000.000
G1 X83.242 Y77.968
;TYPE:Perimeter
G1 F7200.000
G1 X83.662 Y78.201 E1.72755
G1 X83.910 Y78.291 E1.73977
G1 X84.193 Y78.334 E1.75305
G1 X84.512 Y78.299 E1.76796
G1 X84.800 Y78.180 E1.78241
G1 X85.050 Y77.993 E1.79688
G1 X85.310 Y77.673 E1.81602
G1 X85.504 Y77.184 E1.84045
G1 X85.534 Y76.749 E1.86064
G1 X85.423 Y76.334 E1.88059
G1 X85.267 Y76.072 E1.89474
G1 X85.080 Y75.856 E1.90800
G1 X84.680 Y75.556 E1.93116
G1 X84.166 Y75.307 E1.95768
G1 X83.755 Y75.195 E1.97746
G1 X83.291 Y75.171 E1.99900
G1 X82.951 Y75.217 E2.01491
G1 X82.532 Y75.334 E2.03509
G1 X81.776 Y75.638 E2.07290
G1 X80.177 Y76.368 E2.15444
G1 X78.434 Y77.197 E2.24399
G1 X77.936 Y77.464 E2.27021
G1 X77.550 Y77.700 E2.29120
G1 X77.557 Y77.616 E2.29511
G1 X77.436 Y77.237 E2.31357
G1 X77.237 Y76.945 E2.32998
G1 X77.584 Y76.944 E2.34606
G1 X78.503 Y76.831 E2.38904
G1 X79.078 Y76.706 E2.41635
G1 X79.446 Y76.553 E2.43482
G1 X79.761 Y76.330 E2.45274
G1 X79.960 Y76.119 E2.46620
G1 X80.121 Y75.880 E2.47956
G1 X80.268 Y75.518 E2.49767
G1 X80.311 Y75.164 E2.51423
G1 X80.240 Y74.753 E2.53359
G1 X80.042 Y74.403 E2.55222
G1 X79.859 Y74.201 E2.56489
G1 X79.473 Y73.859 E2.58881
G1 X78.880 Y73.283 E2.62717
G1 X79.914 Y73.433 E2.67565
G1 X80.679 Y73.580 E2.71181
G1 X81.715 Y73.851 E2.76147
G1 X82.748 Y74.208 E2.81218
G1 X83.303 Y74.438 E2.84006
G1 X83.872 Y74.704 E2.86919
G1 X84.411 Y74.986 E2.89741
G1 X85.431 Y75.605 E2.95276
G1 X86.354 Y76.276 E3.00570
G1 X86.825 Y76.665 E3.03403
G1 X87.506 Y77.295 E3.07708
G1 X88.167 Y77.994 E3.12169
G1 X103.654 Y95.491 E4.20574
G1 X103.799 Y95.692 E4.21723
G1 X103.849 Y95.793 E4.22244
G1 X103.906 Y96.061 E4.23516
G1 X103.880 Y96.279 E4.24535
G1 X103.842 Y96.387 E4.25064
G1 X103.780 Y96.507 E4.25695
G1 X103.662 Y96.668 E4.26620
G1 X102.124 Y98.218 E4.36751
G1 X102.148 Y97.822 E4.38593
G1 X102.106 Y97.365 E4.40721
G1 X101.999 Y96.923 E4.42832
G1 X101.885 Y96.622 E4.44323
G1 X101.745 Y96.340 E4.45786
G1 X101.552 Y96.035 E4.47460
G1 X101.341 Y95.765 E4.49050
G1 X100.990 Y95.406 E4.51380
G1 X100.638 Y95.120 E4.53481
G1 X100.377 Y94.954 E4.54919
G1 X99.997 Y94.774 E4.56867
G1 X99.716 Y94.686 E4.58234
G1 X99.435 Y94.631 E4.59562
G1 X99.069 Y94.612 E4.61264
G1 X98.618 Y94.669 E4.63372
G1 X98.335 Y94.757 E4.64751
G1 X97.984 Y94.922 E4.66547
G1 X97.722 Y95.205 E4.68338
G1 X97.575 Y95.483 E4.69796
G1 X97.501 Y95.781 E4.71223
G1 X97.494 Y96.066 E4.72542
G1 X97.547 Y96.366 E4.73956
G1 X97.703 Y96.729 E4.75793
G1 X97.877 Y96.966 E4.77153
G1 X98.078 Y97.159 E4.78446
G1 X98.315 Y97.311 E4.79754
G1 X98.586 Y97.413 E4.81099
G1 X98.860 Y97.452 E4.82383
G1 X99.076 Y97.450 E4.83385
G1 X99.232 Y97.591 E4.84362
G1 X99.331 Y97.773 E4.85321
G1 X99.351 Y97.917 E4.85996
G1 X99.335 Y98.014 E4.86454
G1 X99.261 Y98.193 E4.87353
G1 X99.136 Y98.392 E4.88441
G1 X98.749 Y98.837 E4.91178
G1 X98.390 Y99.149 E4.93386
G1 X98.123 Y99.320 E4.94854
G1 X97.923 Y99.393 E4.95840
G1 X97.813 Y99.401 E4.96356
G1 X97.720 Y99.381 E4.96795
G1 X97.554 Y99.293 E4.97665
G1 X97.495 Y99.229 E4.98070
G1 X97.364 Y98.704 E5.00582
G1 X97.227 Y98.350 E5.02343
G1 X97.006 Y98.002 E5.04255
G1 X96.670 Y97.742 E5.06226
G1 X96.363 Y97.625 E5.07748
G1 X96.056 Y97.585 E5.09184
G1 X95.747 Y97.624 E5.10629
G1 X95.629 Y97.667 E5.11214
G1 X95.566 Y97.239 E5.13220
G1 X95.293 Y96.830 E5.15501
G1 X95.095 Y96.629 E5.16810
G1 X94.863 Y96.438 E5.18204
G1 X95.044 Y96.281 E5.19314
G1 X97.000 Y94.301 E5.32225
G1 X97.481 Y93.884 E5.35180
G1 X97.752 Y93.490 E5.37395
G1 X97.840 Y93.149 E5.39032
G1 X97.834 Y92.814 E5.40584
G1 X97.705 Y92.432 E5.42454
G1 X97.534 Y92.160 E5.43945
G1 X97.257 Y91.883 E5.45761
G1 X97.007 Y91.730 E5.47120
G1 X96.723 Y91.627 E5.48523
G1 X96.346 Y91.600 E5.50279
G1 X96.007 Y91.669 E5.51884
G1 X95.733 Y91.789 E5.53270
G1 X95.344 Y92.079 E5.55522
G1 X94.799 Y92.654 E5.59196
G1 X92.951 Y94.504 E5.71329
G1 X92.628 Y94.196 E5.73401
G1 X92.252 Y93.949 E5.75486
G1 X91.891 Y93.802 E5.77294
G1 X91.526 Y93.785 E5.78988
G1 X91.587 Y93.394 E5.80827
G1 X91.461 Y92.937 E5.83024
G1 X91.770 Y92.867 E5.84498
G1 X92.052 Y92.703 E5.86009
G1 X92.336 Y92.451 E5.87769
G1 X92.527 Y92.149 E5.89428
G1 X92.620 Y91.693 E5.91590
G1 X92.570 Y91.445 E5.92761
G1 X92.786 Y91.596 E5.93984
G1 X93.034 Y91.708 E5.95243
G1 X93.312 Y91.773 E5.96569
G1 X93.609 Y91.773 E5.97947
G1 X93.910 Y91.701 E5.99383
G1 X94.191 Y91.558 E6.00847
G1 X94.493 Y91.290 E6.02720
G1 X94.669 Y91.044 E6.04121
G1 X94.794 Y90.783 E6.05466
G1 X94.882 Y90.427 E6.07166
G1 X94.892 Y90.114 E6.08618
G1 X94.828 Y89.738 E6.10386
G1 X94.734 Y89.466 E6.11722
G1 X94.565 Y89.130 E6.13466
G1 X94.381 Y88.848 E6.15029
G1 X93.976 Y88.382 E6.17892
G1 X93.502 Y87.976 E6.20791
G1 X93.010 Y87.695 E6.23415
G1 X92.591 Y87.553 E6.25471
G1 X92.276 Y87.494 E6.26958
G1 X91.707 Y87.482 E6.29598
G1 X91.207 Y87.586 E6.31964
G1 X91.338 Y87.419 E6.32948
G1 X91.465 Y87.164 E6.34268
G1 X91.539 Y86.907 E6.35510
G1 X91.562 Y86.623 E6.36830
G1 X91.513 Y86.321 E6.38249
G1 X91.387 Y86.044 E6.39659
G1 X91.212 Y85.814 E6.41003
G1 X90.783 Y85.448 E6.43621
G1 X90.220 Y84.874 E6.47350
G1 X89.793 Y84.488 E6.50019
G1 X89.392 Y84.191 E6.52335
G1 X88.974 Y83.957 E6.54557
G1 X88.506 Y83.823 E6.56814
G1 X88.106 Y83.801 E6.58674
G1 X88.239 Y83.515 E6.60137
G1 X88.322 Y83.077 E6.62205
G1 X88.286 Y82.626 E6.64303
G1 X88.094 Y82.154 E6.66672
G1 X87.870 Y81.847 E6.68433
G1 X87.487 Y81.526 E6.70750
G1 X87.140 Y81.373 E6.72510
G1 X86.780 Y81.295 E6.74218
G1 X86.434 Y81.311 E6.75824
G1 X86.250 Y81.348 E6.76695
G1 X86.277 Y81.257 E6.77133
G1 X86.159 Y80.706 E6.79748
G1 X85.944 Y80.397 E6.81494
G1 X85.650 Y80.186 E6.83174
G1 X85.268 Y80.068 E6.85032
G1 X84.840 Y80.082 E6.87017
G1 X84.736 Y80.117 E6.87528
G1 X84.808 Y79.830 E6.88902
G1 X84.789 Y79.414 E6.90835
G1 X84.609 Y78.993 E6.92960
G1 X84.288 Y78.660 E6.95106
G1 X83.922 Y78.467 E6.97028
G1 X83.628 Y78.395 E6.98431
G1 X83.365 Y78.393 E6.99652
G1 X83.003 Y78.474 E7.01372
G1 X82.624 Y78.709 E7.03437
G1 X82.346 Y79.021 E7.05377
G1 X82.199 Y79.281 E7.06764
G1 X82.082 Y79.620 E7.08428
G1 X81.790 Y80.793 E7.14034
G1 X81.011 Y81.016 E7.17793
G1 X81.970 Y78.953 E7.28347
G1 X82.198 Y78.367 E7.31264
G1 X82.579 Y78.233 E7.33135
G1 X83.183 Y77.973 E7.36186
G1 E6.86186 F2100.000
G92 E0
G1 X76.286 Y78.601 F30000.000
G1 E0.50000 F1500.000
;TYPE:External perimeter
G1 F7200.000
G1 X76.102 Y78.581 E0.50857
G1 X75.932 Y78.536 E0.51676
G1 X75.754 Y78.444 E0.52604
G1 X75.420 Y78.196 E0.54534
G1 X74.060 Y76.845 E0.63427
G1 X73.931 Y76.690 E0.64363
G1 X73.804 Y76.452 E0.65614
G1 X73.763 Y76.256 E0.66542
G1 X73.772 Y76.053 E0.67488
G1 X73.890 Y75.739 E0.69040
G1 X74.074 Y75.496 E0.70457
G1 X74.341 Y75.282 E0.72044
G1 X74.617 Y75.156 E0.73451
G1 X75.166 Y75.030 E0.76064
G1 X76.036 Y74.907 E0.80142
G1 X76.492 Y74.891 E0.82260
G1 X76.923 Y74.921 E0.84261
G1 X77.045 Y74.770 E0.85160
G1 X77.158 Y74.752 E0.85690
G1 X77.020 Y74.670 E0.86437
G1 X77.019 Y74.451 E0.87451
G1 X76.923 Y74.429 E0.87907
G1 X76.758 Y74.301 E0.88875
G1 X76.527 Y74.022 E0.90557
G1 X76.407 Y73.761 E0.91890
G1 X76.398 Y73.499 E0.93106
G1 X76.456 Y73.318 E0.93986
G1 X76.816 Y72.939 E0.96410
G1 X76.974 Y72.852 E0.97247
G1 X77.177 Y72.803 E0.98215
G1 X77.335 Y72.816 E0.98953
G1 X77.534 Y72.891 E0.99936
G1 X77.780 Y73.078 E1.01370
G1 X78.117 Y73.265 E1.03159
G1 X78.428 Y73.484 E1.04922
G1 X78.686 Y73.705 E1.06500
G1 X79.167 Y74.184 E1.09650
G1 X79.544 Y74.519 E1.11990
G1 X79.679 Y74.667 E1.12915
G1 X79.814 Y74.905 E1.14188
G1 X79.860 Y75.175 E1.15458
G1 X79.832 Y75.406 E1.16535
G1 X79.725 Y75.669 E1.17853
G1 X79.610 Y75.839 E1.18805
G1 X79.467 Y75.991 E1.19777
G1 X79.228 Y76.160 E1.21132
G1 X78.944 Y76.279 E1.22563
G1 X78.429 Y76.391 E1.25008
G1 X77.556 Y76.497 E1.29087
G1 X77.101 Y76.499 E1.31199
G1 X76.735 Y76.461 E1.32905
G1 X76.388 Y76.518 E1.34536
G1 X76.311 Y76.596 E1.35045
G1 X76.343 Y76.745 E1.35755
G1 X76.613 Y76.998 E1.37470
G1 X76.735 Y77.067 E1.38120
G1 X76.918 Y77.257 E1.39346
G1 X77.029 Y77.429 E1.40291
G1 X77.105 Y77.668 E1.41455
G1 X77.084 Y77.919 E1.42626
G1 X76.915 Y78.195 E1.44128
G1 X76.803 Y78.318 E1.44902
G1 X76.474 Y78.543 E1.46749
G1 X76.343 Y78.583 E1.47383
G1 X76.209 Y78.769 F30000.000
G1 E0.97383 F2100.000
G92 E0
G1 X73.367 Y75.862 F30000.000
G1 E0.50000 F1500.000
;TYPE:Perimeter
G1 F7200.000
G1 X73.482 Y75.112 E0.53519
G1 X73.601 Y74.532 E0.56267
G1 X73.727 Y74.034 E0.58649
G1 X73.784 Y73.906 E0.59301
G1 X73.858 Y73.818 E0.59831
G1 X74.056 Y73.720 E0.60856
G1 X74.498 Y73.609 E0.62969
G1 X75.998 Y73.285 E0.70090
G1 X75.949 Y73.436 E0.70827
G1 X75.964 Y73.865 E0.72820
G1 X76.146 Y74.261 E0.74842
G1 X76.303 Y74.451 E0.75985
G1 X75.997 Y74.461 E0.77404
G1 X75.084 Y74.591 E0.81681
G1 X74.472 Y74.731 E0.84595
G1 X74.105 Y74.900 E0.86469
G1 X73.752 Y75.182 E0.88567
G1 X73.495 Y75.522 E0.90542
G1 X73.388 Y75.806 E0.91951
G1 X73.319 Y76.311 F30000.000
G1 F7200.000
G1 X73.380 Y76.606 E0.93349
G1 X73.559 Y76.941 E0.95111
G1 X73.731 Y77.147 E0.96357
G1 X75.128 Y78.536 E1.05496
G1 X75.517 Y78.824 E1.07742
G1 X75.770 Y78.955 E1.09061
