; generated by PrusaSlicer 2.2.0+linux-x64 on 2020-07-21 at 12:28:14 UTC

; 

; external perimeters extrusion width = 0.45mm
; perimeters extrusion width = 0.45mm
; infill extrusion width = 0.45mm
; solid infill extrusion width = 0.45mm
; top infill extrusion width = 0.40mm
; support material extrusion width = 0.35mm
; first layer extrusion width = 0.42mm

M201 X1000 Y1000 Z200 E6000 ; sets maximum accelerations, mm/sec^2
M203 X100 Y100 Z10 E120 ; sets maximum feedrates, mm/sec
M204 P1250 R1250 T1250 ; sets acceleration (P, T) and retract acceleration (R), mm/sec^2
M205 X8.00 Y8.00 Z0.40 E1.50 ; sets the jerk limits, mm/sec
M205 S0 T0 ; sets the minimum extruding and travel feed rate, mm/sec
M107
; ------------------- START GCODE -------------------
M862.3 P "WEIRDBEAR" ; printer model check
G90 ; use absolute coordinates
M83 ; extruder relative mode

M117 Parking extruder
G28 ; Home
G0 X0 Y100 F2500 ; XY parking
M400 ;
G0 Z50 F420 ; Z parking
M400 ;

; then preheat (PRUSA SLICER ONLY)
M104 S240 ; set extruder temp
M140 S85 ; set bed temp
M190 S85 ; wait for bed temp
M109 S240 ; wait for extruder temp

M400 ; wait for complete
M300 S440 P500 ; play sound
M0 S30 Wait for clean nozzle ; wait for user to clean nozzle
M400 ;

G28 ; home
G29 ; mesh bed leveling

M211 S0 ; Disable software endtop to allow nozzel move to y=-1
G0 Y-1 F2500.0 ; go outside print area
M400 ;
G0 Z0.3 F420.0 ; Lower Z
M400 ;
G92 E0.0 ; reset extruder distance position
G1 X190.0 E9.0 F1000.0 ; intro line
G1 X150.0 E21.5 F1000.0 ; intro line

M400 ;
G0 Z2.0 F420 ; lift the extruder a bit
M400 ;
G0 Y0 ; move to Y0
M211 S1 ; re-enable software endstop
G92 E0.0 ; reset extruder distance position
G21 ; set units to millimeters
G90 ; use absolute coordinates
M83 ; use relative distances for extrusion
M900 K0.046 ; Linear advance
;BEFORE_LAYER_CHANGE
G92 E0.0
;0.2


G1 E-1.40000 F2100.00000
G1 Z0.200 F10800.000
;AFTER_LAYER_CHANGE
;0.2
G1 Z0.400
G1 X108.386 Y77.619
G1 Z0.200
G1 E1.40000 F2100.00000
M204 S1000
G1 F900.000
G1 X108.954 Y77.004 E0.02625
G1 X109.680 Y76.587 E0.02625
G1 X110.498 Y76.408 E0.02625
G1 X139.329 Y76.403 E0.90397
G1 X140.258 Y76.564 E0.02955
G1 X141.077 Y77.029 E0.02955
G1 X141.692 Y77.743 E0.02955
G1 X142.031 Y78.623 E0.02955
G1 X142.083 Y79.152 E0.01669
G1 X142.057 Y90.251 E0.34799
G1 X131.427 Y133.252 E1.38884
G1 X130.974 Y134.267 E0.03486
G1 X130.296 Y135.117 E0.03410
G1 X129.415 Y135.781 E0.03457
G1 X128.445 Y136.188 E0.03300
G1 X127.336 Y136.353 E0.03516
G1 X122.744 Y136.354 E0.14398
G1 X121.554 Y136.188 E0.03768
G1 X120.584 Y135.780 E0.03299
G1 X119.704 Y135.117 E0.03453
G1 X119.025 Y134.265 E0.03415
G1 X118.574 Y133.252 E0.03478
G1 X107.989 Y90.497 E1.38104
G1 X107.917 Y89.887 E0.01924
G1 X107.917 Y79.149 E0.33669
G1 X108.031 Y78.373 E0.02460
G1 X108.361 Y77.673 E0.02424
G1 X108.699 Y77.834 F10800.000
G1 F900.000
G1 X109.197 Y77.292 E0.02309
G1 X109.828 Y76.935 E0.02272
G1 X110.540 Y76.784 E0.02284
G1 X139.329 Y76.780 E0.90265
G1 X140.143 Y76.924 E0.02590
G1 X140.858 Y77.337 E0.02590
G1 X141.389 Y77.970 E0.02590
G1 X141.670 Y78.747 E0.02590
G1 X141.681 Y90.216 E0.35962
G1 X131.064 Y133.149 E1.38666
G1 X130.648 Y134.076 E0.03187
G1 X130.022 Y134.857 E0.03138
G1 X129.216 Y135.460 E0.03156
G1 X128.309 Y135.835 E0.03078
G1 X127.318 Y135.976 E0.03138
G1 X122.740 Y135.977 E0.14355
G1 X121.660 Y135.826 E0.03419
G1 X120.772 Y135.454 E0.03018
G1 X119.967 Y134.847 E0.03162
G1 X119.346 Y134.067 E0.03126
G1 X118.932 Y133.135 E0.03197
G1 X108.355 Y90.405 E1.38020
G1 X108.294 Y89.884 E0.01645
G1 X108.294 Y79.150 E0.33657
G1 X108.393 Y78.477 E0.02130
G1 X108.673 Y77.888 E0.02045
G1 F8640.000
G1 X109.197 Y77.292 E-0.18333
G1 X109.828 Y76.935 E-0.16733
G1 X110.540 Y76.784 E-0.16820
G1 X114.053 Y76.783 E-0.81114
G1 E-0.07000 F2100.00000
G1 Z0.400 F10800.000
G1 X115.873 Y81.984
G1 Z0.200
G1 E1.40000 F2100.00000
G1 F900.000
G1 X115.873 Y85.175 E0.08148
G1 X116.192 Y84.303 E0.02370
G1 X116.380 Y84.172 E0.00586
G1 X116.380 Y82.122 E0.05233
G1 X116.887 Y82.122 E0.01295
G1 X116.887 Y84.167 E0.05220
G1 X117.394 Y84.167 E0.01295
G1 X117.394 Y82.122 E0.05220
G1 X117.901 Y82.122 E0.01295
G1 X117.901 Y84.696 E0.06572
G1 X118.213 Y86.909 F10800.000
G1 F900.000
G1 X118.213 Y89.871 E0.09288
G1 X120.475 Y89.871 F10800.000
G1 F900.000
G1 X120.475 Y79.157 E0.33592
G1 X119.721 Y79.157 E0.02365
G1 X119.721 Y89.701 E0.33060
G1 X118.967 Y89.701 E0.02365
G1 X118.967 Y79.157 E0.33060
G1 X118.213 Y79.157 E0.02365
G1 X118.213 Y81.780 E0.08224
G1 X117.458 Y81.780 E0.02365
G1 X117.458 Y79.157 E0.08224
G1 X116.704 Y79.157 E0.02365
G1 X116.704 Y81.780 E0.08224
G1 X115.950 Y81.780 E0.02365
G1 X115.950 Y79.157 E0.08224
G1 X115.196 Y79.157 E0.02365
G1 X115.196 Y89.701 E0.33060
G1 X115.950 Y89.701 E0.02365
G1 X115.950 Y86.909 E0.08756
G1 X114.442 Y89.871 F10800.000
G1 F900.000
G1 X114.442 Y79.157 E0.33592
G1 X113.688 Y79.157 E0.02365
G1 X113.688 Y89.701 E0.33060
G1 X112.933 Y89.701 E0.02365
G1 X112.933 Y79.157 E0.33060
G1 X112.179 Y79.157 E0.02365
G1 X112.179 Y89.701 E0.33060
G1 X111.425 Y89.701 E0.02365
G1 X111.425 Y79.157 E0.33060
G1 X110.671 Y79.157 E0.02365
G1 X110.671 Y89.871 E0.33592
G1 F8640.000
G1 X110.671 Y84.111 E-1.33000
G1 E-0.07000 F2100.00000
G1 Z0.400 F10800.000
G1 X134.050 Y89.871
G1 Z0.200
G1 E1.40000 F2100.00000
G1 F900.000
G1 X134.050 Y86.909 E0.09288
G1 X134.127 Y86.874 F10800.000
G1 F900.000
G1 X134.127 Y82.122 E0.12135
G1 X133.620 Y82.122 E0.01295
G1 X133.620 Y84.172 E0.05233
G1 X133.113 Y84.167 E0.01295
G1 X133.113 Y82.122 E0.05220
G1 X132.606 Y82.122 E0.01295
G1 X132.606 Y84.167 E0.05220
G1 X132.099 Y84.167 E0.01295
G1 X132.099 Y81.984 E0.05573
G1 X129.525 Y84.501 F10800.000
G1 F900.000
G1 X129.525 Y79.157 E0.16756
G1 X130.279 Y79.157 E0.02365
G1 X130.279 Y84.332 E0.16224
G1 X131.033 Y84.332 E0.02365
G1 X131.033 Y79.157 E0.16224
G1 X131.787 Y79.157 E0.02365
G1 X131.787 Y81.780 E0.08224
G1 X132.542 Y81.780 E0.02365
G1 X132.542 Y79.157 E0.08224
G1 X133.296 Y79.157 E0.02365
G1 X133.296 Y81.780 E0.08224
G1 X134.050 Y81.780 E0.02365
G1 X134.050 Y79.157 E0.08224
G1 X134.804 Y79.157 E0.02365
G1 X134.804 Y89.701 E0.33060
G1 X135.558 Y89.701 E0.02365
G1 X135.558 Y79.157 E0.33060
G1 X136.312 Y79.157 E0.02365
G1 X136.312 Y89.701 E0.33060
G1 X137.067 Y89.701 E0.02365
G1 X137.067 Y79.157 E0.33060
G1 X137.821 Y79.157 E0.02365
G1 X137.821 Y89.701 E0.33060
G1 X138.575 Y89.701 E0.02365
G1 X138.575 Y79.157 E0.33060
G1 X139.329 Y79.157 E0.02365
G1 X139.329 Y89.871 E0.33592
G1 F8640.000
G1 X139.329 Y84.111 E-1.33000
G1 E-0.07000 F2100.00000
G1 Z0.400 F10800.000
G1 X128.017 Y115.953
G1 Z0.200
G1 E1.40000 F2100.00000
G1 F900.000
G1 X128.017 Y108.584 E0.23107
G1 X127.869 Y108.133 E0.01488
G1 X127.754 Y107.877 E0.00879
G1 X127.505 Y107.454 E0.01539
G1 X127.262 Y107.137 E0.01251
G1 X127.262 Y116.862 E0.30491
G1 X126.905 Y117.227 E0.01601
G1 X126.508 Y117.530 E0.01566
G1 X126.508 Y106.470 E0.34679
G1 X126.216 Y106.294 E0.01069
G1 X125.754 Y106.087 E0.01587
G1 X125.754 Y117.912 E0.37075
G1 X125.436 Y118.013 E0.01048
G1 X125.000 Y118.100 E0.01393
G1 X125.000 Y105.900 E0.38253
G1 X124.675 Y105.868 E0.01024
G1 X124.325 Y105.868 E0.01096
G1 X124.246 Y105.874 E0.00250
G1 X124.246 Y118.125 E0.38412
G1 X123.838 Y118.075 E0.01289
G1 X123.492 Y117.993 E0.01115
G1 X123.492 Y106.007 E0.37580
G1 X123.036 Y106.172 E0.01519
G1 X122.738 Y106.320 E0.01045
G1 X122.738 Y117.679 E0.35616
G1 X122.312 Y117.404 E0.01590
G1 X121.983 Y117.121 E0.01359
G1 X121.983 Y106.878 E0.32117
G1 X121.705 Y107.174 E0.01276
G1 X121.534 Y107.397 E0.00879
G1 X121.381 Y107.631 E0.00879
G1 X121.229 Y107.913 E0.01004
G1 X121.229 Y116.445 E0.26751
G1 F8640.000
G1 X121.229 Y110.685 E-1.33000
G1 E-0.07000 F2100.00000
G1 Z0.400 F10800.000
G1 X120.346 Y117.307
G1 Z0.200
G1 E1.40000 F2100.00000
G1 F900.000
G1 X120.019 Y116.752 E0.02019
G1 X119.854 Y116.386 E0.01259
G1 X119.719 Y116.016 E0.01237
G1 X119.595 Y115.538 E0.01548
G1 X119.501 Y114.902 E0.02016
G1 X119.486 Y114.517 E0.01206
G1 X119.498 Y109.112 E0.16948
G1 X119.617 Y108.349 E0.02421
G1 X119.852 Y107.612 E0.02424
G1 X120.197 Y106.920 E0.02424
G1 X120.644 Y106.290 E0.02424
G1 X121.180 Y105.739 E0.02411
G1 X121.707 Y105.335 E0.02080
G1 X122.147 Y105.070 E0.01610
G1 X122.843 Y104.765 E0.02385
G1 X123.591 Y104.566 E0.02424
G1 X124.354 Y104.486 E0.02408
G1 X125.013 Y104.511 E0.02066
G1 X125.415 Y104.569 E0.01272
G1 X125.896 Y104.683 E0.01553
G1 X126.503 Y104.902 E0.02023
G1 X126.869 Y105.080 E0.01276
G1 X127.293 Y105.335 E0.01551
G1 X127.805 Y105.727 E0.02021
G1 X128.095 Y106.004 E0.01258
G1 X128.359 Y106.296 E0.01234
G1 X128.654 Y106.692 E0.01550
G1 X128.981 Y107.247 E0.02019
G1 X129.146 Y107.613 E0.01259
G1 X129.281 Y107.984 E0.01237
G1 X129.405 Y108.462 E0.01548
G1 X129.499 Y109.098 E0.02016
G1 X129.514 Y109.482 E0.01206
G1 X129.502 Y114.888 E0.16948
G1 X129.383 Y115.650 E0.02421
G1 X129.148 Y116.387 E0.02424
G1 X128.803 Y117.079 E0.02424
G1 X128.356 Y117.710 E0.02424
G1 X127.820 Y118.261 E0.02411
G1 X127.293 Y118.664 E0.02080
G1 X126.853 Y118.929 E0.01610
G1 X126.157 Y119.235 E0.02385
G1 X125.409 Y119.433 E0.02424
G1 X124.646 Y119.514 E0.02408
G1 X123.987 Y119.488 E0.02066
G1 X123.585 Y119.430 E0.01272
G1 X123.104 Y119.316 E0.01553
G1 X122.497 Y119.097 E0.02023
G1 X122.131 Y118.920 E0.01276
G1 X121.707 Y118.664 E0.01551
G1 X121.195 Y118.272 E0.02021
G1 X120.905 Y117.996 E0.01258
G1 X120.641 Y117.703 E0.01234
G1 X120.382 Y117.355 E0.01361
G1 X120.684 Y117.130 F10800.000
G1 F900.000
G1 X120.354 Y116.579 E0.02013
G1 X120.203 Y116.244 E0.01150
G1 X120.080 Y115.904 E0.01136
G1 X119.965 Y115.462 E0.01430
G1 X119.877 Y114.867 E0.01889
G1 X119.863 Y114.510 E0.01117
G1 X119.875 Y109.142 E0.16834
G1 X119.985 Y108.436 E0.02240
G1 X120.202 Y107.755 E0.02242
G1 X120.521 Y107.115 E0.02242
G1 X120.935 Y106.532 E0.02242
G1 X121.432 Y106.021 E0.02233
G1 X121.920 Y105.647 E0.01927
G1 X122.320 Y105.406 E0.01468
G1 X122.968 Y105.122 E0.02218
G1 X123.659 Y104.938 E0.02242
G1 X124.367 Y104.864 E0.02231
G1 X124.979 Y104.887 E0.01919
G1 X125.344 Y104.940 E0.01158
G1 X125.789 Y105.045 E0.01433
G1 X126.357 Y105.250 E0.01893
G1 X126.689 Y105.412 E0.01160
G1 X127.080 Y105.647 E0.01432
G1 X127.559 Y106.014 E0.01892
G1 X127.825 Y106.267 E0.01149
G1 X128.067 Y106.536 E0.01135
G1 X128.340 Y106.902 E0.01431
G1 X128.646 Y107.421 E0.01890
G1 X128.797 Y107.755 E0.01150
G1 X128.920 Y108.096 E0.01136
G1 X129.035 Y108.537 E0.01430
G1 X129.123 Y109.133 E0.01889
G1 X129.137 Y109.489 E0.01117
G1 X129.125 Y114.858 E0.16834
G1 X129.015 Y115.564 E0.02240
G1 X128.798 Y116.245 E0.02242
G1 X128.479 Y116.885 E0.02242
G1 X128.065 Y117.468 E0.02242
G1 X127.568 Y117.978 E0.02233
G1 X127.080 Y118.352 E0.01927
G1 X126.680 Y118.594 E0.01468
G1 X126.032 Y118.878 E0.02218
G1 X125.341 Y119.061 E0.02241
G1 X124.633 Y119.136 E0.02231
G1 X124.021 Y119.112 E0.01919
G1 X123.656 Y119.060 E0.01158
G1 X123.211 Y118.954 E0.01433
G1 X122.643 Y118.749 E0.01893
G1 X122.311 Y118.588 E0.01160
G1 X121.920 Y118.352 E0.01432
G1 X121.441 Y117.985 E0.01892
G1 X121.175 Y117.733 E0.01149
G1 X120.933 Y117.464 E0.01135
G1 X120.720 Y117.178 E0.01119
G1 X121.022 Y116.952 F10800.000
G1 F900.000
G1 X120.689 Y116.405 E0.02007
G1 X120.553 Y116.102 E0.01040
G1 X120.440 Y115.792 E0.01035
G1 X120.335 Y115.387 E0.01312
G1 X120.253 Y114.831 E0.01761
G1 X120.240 Y114.504 E0.01029
G1 X120.252 Y109.171 E0.16719
G1 X120.353 Y108.523 E0.02058
G1 X120.552 Y107.897 E0.02059
G1 X120.846 Y107.309 E0.02059
G1 X121.226 Y106.774 E0.02059
G1 X121.683 Y106.304 E0.02056
G1 X122.132 Y105.959 E0.01775
G1 X122.494 Y105.741 E0.01325
G1 X123.093 Y105.479 E0.02050
G1 X123.728 Y105.310 E0.02059
G1 X124.379 Y105.242 E0.02055
G1 X124.944 Y105.263 E0.01772
G1 X125.273 Y105.311 E0.01043
G1 X125.681 Y105.407 E0.01313
G1 X126.210 Y105.598 E0.01763
G1 X126.509 Y105.743 E0.01044
G1 X126.868 Y105.959 E0.01313
G1 X127.314 Y106.301 E0.01762
G1 X127.554 Y106.530 E0.01040
G1 X127.775 Y106.775 E0.01035
G1 X128.025 Y107.111 E0.01312
G1 X128.311 Y107.595 E0.01762
G1 X128.447 Y107.897 E0.01040
G1 X128.560 Y108.208 E0.01035
G1 X128.665 Y108.613 E0.01312
G1 X128.747 Y109.168 E0.01761
G1 X128.760 Y109.496 E0.01029
G1 X128.748 Y114.828 E0.16719
G1 X128.647 Y115.477 E0.02058
G1 X128.448 Y116.103 E0.02059
G1 X128.154 Y116.690 E0.02059
G1 X127.774 Y117.226 E0.02059
G1 X127.317 Y117.696 E0.02056
G1 X126.868 Y118.040 E0.01775
G1 X126.506 Y118.258 E0.01325
G1 X125.907 Y118.521 E0.02050
G1 X125.272 Y118.689 E0.02059
G1 X124.621 Y118.758 E0.02055
G1 X124.056 Y118.736 E0.01772
G1 X123.727 Y118.689 E0.01043
G1 X123.319 Y118.592 E0.01313
G1 X122.790 Y118.402 E0.01763
G1 X122.491 Y118.256 E0.01044
G1 X122.132 Y118.040 E0.01313
G1 X121.686 Y117.698 E0.01762
G1 X121.446 Y117.470 E0.01040
G1 X121.225 Y117.224 E0.01035
G1 X121.058 Y117.000 E0.00877
G1 X120.623 Y116.980 F10800.000
G1 F8640.000
G1 X120.689 Y116.405 E-0.16163
G1 X120.553 Y116.102 E-0.07661
G1 X120.440 Y115.792 E-0.07624
G1 X120.335 Y115.387 E-0.09660
G1 X120.253 Y114.831 E-0.12970
G1 X120.240 Y114.504 E-0.07576
G1 X120.247 Y111.414 E-0.71346
G1 E-0.07000 F2100.00000
G1 Z0.400 F10800.000
G1 X126.614 Y93.792
G1 Z0.200
G1 E1.40000 F2100.00000
G1 F900.000
G1 X126.614 Y85.709 E0.25343
G1 X132.620 Y85.709 E0.18831
G1 X132.636 Y85.753 E0.00144
G1 X132.636 Y105.153 E0.60829
G1 X127.888 Y132.078 E0.85725
G1 X127.838 Y132.246 E0.00549
G1 X127.734 Y132.414 E0.00619
G1 X127.628 Y132.513 E0.00455
G1 X127.435 Y132.606 E0.00672
G1 X127.197 Y132.636 E0.00754
G1 X122.803 Y132.636 E0.13776
G1 X122.565 Y132.606 E0.00754
G1 X122.372 Y132.513 E0.00672
G1 X122.266 Y132.414 E0.00455
G1 X122.162 Y132.246 E0.00619
G1 X122.112 Y132.078 E0.00549
G1 X117.364 Y105.153 E0.85725
G1 X117.364 Y93.792 E0.35621
G1 X126.554 Y93.792 E0.28815
G1 X126.237 Y93.415 F10800.000
G1 F900.000
G1 X126.237 Y85.332 E0.25343
G1 X132.884 Y85.332 E0.20839
G1 X133.013 Y85.686 E0.01180
G1 X133.013 Y105.186 E0.61142
G1 X128.257 Y132.156 E0.85868
G1 X128.177 Y132.416 E0.00854
G1 X128.036 Y132.642 E0.00833
G1 X127.852 Y132.817 E0.00797
G1 X127.629 Y132.940 E0.00799
G1 X127.516 Y132.976 E0.00371
G1 X127.220 Y133.013 E0.00936
G1 X122.780 Y133.013 E0.13922
G1 X122.484 Y132.976 E0.00936
G1 X122.371 Y132.940 E0.00371
G1 X122.148 Y132.817 E0.00799
G1 X121.964 Y132.642 E0.00797
G1 X121.823 Y132.416 E0.00833
G1 X121.743 Y132.156 E0.00854
G1 X116.987 Y105.186 E0.85868
G1 X116.987 Y85.686 E0.61142
G1 X117.013 Y85.615 E0.00236
G1 X117.013 Y93.415 E0.24456
G1 X126.177 Y93.415 E0.28734
G1 X125.860 Y93.038 F10800.000
G1 F900.000
G1 X125.860 Y84.955 E0.25343
G1 X133.147 Y84.955 E0.22848
G1 X133.390 Y85.619 E0.02216
G1 X133.390 Y105.219 E0.61455
G1 X128.626 Y132.234 E0.86011
G1 X128.515 Y132.587 E0.01159
G1 X128.339 Y132.870 E0.01047
G1 X128.218 Y133.003 E0.00561
G1 X127.935 Y133.212 E0.01105
G1 X127.598 Y133.346 E0.01137
G1 X127.243 Y133.390 E0.01119
G1 X122.757 Y133.390 E0.14068
G1 X122.402 Y133.346 E0.01119
G1 X122.232 Y133.292 E0.00561
G1 X121.924 Y133.122 E0.01105
G1 X121.661 Y132.870 E0.01139
G1 X121.485 Y132.587 E0.01047
G1 X121.374 Y132.234 E0.01159
G1 X116.610 Y105.219 E0.86011
G1 X116.610 Y85.619 E0.61455
G1 X116.853 Y84.955 E0.02216
G1 X117.390 Y84.955 E0.01684
G1 X117.390 Y93.038 E0.25343
G1 X125.800 Y93.038 E0.26369
G1 X126.247 Y93.138 F10800.000
G1 F8640.000
G1 X125.843 Y87.278 E-1.33000
G1 E-0.07000 F2100.00000
G1 Z0.400 F10800.000
G1 X132.523 Y86.588
G1 Z0.200
G1 E1.40000 F2100.00000
G1 F900.000
G1 X131.927 Y85.992 E0.02652
G1 X131.392 Y85.992 E0.01685
G1 X132.353 Y86.954 E0.04280
G1 X132.353 Y87.489 E0.01685
G1 X130.856 Y85.992 E0.06664
G1 X130.321 Y85.992 E0.01685
G1 X132.353 Y88.024 E0.09047
G1 X132.353 Y88.560 E0.01685
G1 X129.785 Y85.992 E0.11431
G1 X129.250 Y85.992 E0.01685
G1 X132.353 Y89.095 E0.13814
G1 X132.353 Y89.631 E0.01685
G1 X128.715 Y85.992 E0.16198
G1 X128.179 Y85.992 E0.01685
G1 X132.353 Y90.166 E0.18582
G1 X132.353 Y90.701 E0.01685
G1 X127.644 Y85.992 E0.20965
G1 X127.108 Y85.992 E0.01685
G1 X132.353 Y91.237 E0.23349
G1 X132.353 Y91.772 E0.01685
G1 X126.897 Y86.316 E0.24290
G1 X126.897 Y86.851 E0.01685
G1 X132.353 Y92.308 E0.24290
G1 X132.353 Y92.843 E0.01685
