;FLAVOR:Marlin
;TIME:1898
;Filament used: 1.40118m
;Layer height: 0.15
;Generated with Cura_SteamEngine master
M140 S60
M105
M190 S60
M104 S200
M105
M109 S200
M82 ;absolute extrusion mode
; Ender 3 Custom Start G-code
G28 ; Home all axes
G92 E0 ; Reset Extruder
G1 Z2.0 F3000 ; Move Z Axis up little to prevent scratching of Heat Bed
G1 X0.1 Y20 Z0.3 F5000.0 ; Move to start position
G1 X0.1 Y200.0 Z0.3 F1500.0 E15 ; Draw the first line
G1 X0.4 Y200.0 Z0.3 F5000.0 ; Move to side a little
G1 X0.4 Y20 Z0.3 F1500.0 E30 ; Draw the second line
G92 E0 ; Reset Extruder
G1 Z2.0 F3000 ; Move Z Axis up little to prevent scratching of Heat Bed
; End of custom start GCode
G92 E0
G1 F2400 E-5
;LAYER_COUNT:67
;LAYER:0
M107
M204 S5000
M205 X30 Y30
G0 F3600 X98.535 Y93.014 Z0.2
M204 S500
M205 X20 Y20
;TYPE:SKIRT
G1 F2400 E0
G1 F1800 X98.764 Y92.785 E0.01077
G1 X99.297 Y92.308 E0.03456
G1 X99.88 Y91.894 E0.05834
G1 X100.506 Y91.547 E0.08215
G1 X101.166 Y91.272 E0.10593
G1 X101.853 Y91.073 E0.12972
G1 X102.558 Y90.952 E0.15351
G1 X103.289 Y90.91 E0.17786
G1 X131.71 Y90.91 E1.12315
G1 X132.424 Y90.95 E1.14694
G1 X133.129 Y91.069 E1.17072
G1 X133.817 Y91.267 E1.19453
G1 X134.478 Y91.54 E1.21831
G1 X135.105 Y91.884 E1.2421
G1 X135.689 Y92.297 E1.26589
G1 X136.235 Y92.785 E1.29025
G1 X136.465 Y93.015 E1.30107
G1 X136.942 Y93.548 E1.32486
G1 X137.356 Y94.131 E1.34864
G1 X137.703 Y94.757 E1.37244
G1 X137.978 Y95.417 E1.39622
G1 X138.177 Y96.104 E1.42001
G1 X138.298 Y96.809 E1.4438
G1 X138.34 Y97.54 E1.46816
G1 X138.34 Y137.457 E2.7958
G1 X138.3 Y138.171 E2.81959
G1 X138.181 Y138.876 E2.84337
G1 X137.983 Y139.564 E2.86718
G1 X137.71 Y140.225 E2.89097
G1 X137.366 Y140.852 E2.91475
G1 X136.953 Y141.436 E2.93854
G1 X136.537 Y141.909 E2.95949
G1 X136.322 Y142.131 E2.96977
G1 X135.797 Y142.617 E2.99357
G1 X135.22 Y143.04 E3.01736
G1 X134.6 Y143.397 E3.04116
G1 X133.944 Y143.682 E3.06495
G1 X133.261 Y143.892 E3.08871
G1 X132.558 Y144.025 E3.11251
G1 X131.727 Y144.079 E3.14021
G1 X103.291 Y144.09 E4.08599
G1 X102.577 Y144.05 E4.10978
G1 X101.872 Y143.931 E4.13356
G1 X101.184 Y143.734 E4.15736
G1 X100.523 Y143.462 E4.18113
G1 X99.896 Y143.117 E4.20494
G1 X99.312 Y142.704 E4.22873
G1 X98.773 Y142.225 E4.25271
G1 X98.544 Y141.997 E4.26346
G1 X98.067 Y141.465 E4.28722
G1 X97.651 Y140.883 E4.31102
G1 X97.303 Y140.258 E4.33481
G1 X97.027 Y139.598 E4.3586
G1 X96.826 Y138.912 E4.38238
G1 X96.704 Y138.207 E4.40618
G1 X96.66 Y137.462 E4.431
G1 X96.66 Y97.539 E5.75884
G1 X96.7 Y96.825 E5.78263
G1 X96.819 Y96.12 E5.80641
G1 X97.017 Y95.432 E5.83022
G1 X97.29 Y94.771 E5.85401
G1 X97.634 Y94.144 E5.87779
G1 X98.047 Y93.56 E5.90158
G1 X98.535 Y93.014 E5.92594
M204 S5000
M205 X30 Y30
G0 F3600 X98.817 Y93.296
M204 S500
M205 X20 Y20
G1 F1800 X99.046 Y93.067 E5.93671
G1 X99.563 Y92.607 E5.95973
G1 X100.13 Y92.209 E5.98277
G1 X100.739 Y91.879 E6.00581
G1 X101.382 Y91.621 E6.02885
G1 X102.05 Y91.439 E6.05188
G1 X102.735 Y91.336 E6.07492
G1 X103.289 Y91.31 E6.09336
G1 X131.71 Y91.31 E7.03865
G1 X132.401 Y91.35 E7.06167
G1 X133.084 Y91.469 E7.08473
G1 X133.747 Y91.667 E7.10774
G1 X134.384 Y91.939 E7.13078
G1 X134.985 Y92.283 E7.15381
G1 X135.543 Y92.694 E7.17686
G1 X135.953 Y93.067 E7.1953
G1 X136.183 Y93.297 E7.20612
G1 X136.643 Y93.814 E7.22913
G1 X137.041 Y94.381 E7.25217
G1 X137.371 Y94.99 E7.27521
G1 X137.629 Y95.633 E7.29826
G1 X137.811 Y96.301 E7.32128
G1 X137.914 Y96.986 E7.34432
G1 X137.94 Y97.54 E7.36277
G1 X137.94 Y137.457 E8.69041
G1 X137.9 Y138.148 E8.71344
G1 X137.781 Y138.831 E8.73649
G1 X137.583 Y139.494 E8.75951
G1 X137.311 Y140.131 E8.78255
G1 X136.967 Y140.732 E8.80558
G1 X136.556 Y141.29 E8.82863
G1 X136.25 Y141.631 E8.84387
G1 X136.035 Y141.853 E8.85415
G1 X135.525 Y142.322 E8.87719
G1 X134.965 Y142.729 E8.90022
G1 X134.362 Y143.069 E8.92324
G1 X133.723 Y143.337 E8.94629
G1 X133.058 Y143.529 E8.96931
G1 X132.375 Y143.644 E8.99234
G1 X131.727 Y143.679 E9.01393
G1 X103.291 Y143.69 E9.95971
G1 X102.6 Y143.65 E9.98273
G1 X101.918 Y143.531 E10.00576
G1 X101.254 Y143.334 E10.0288
G1 X100.617 Y143.062 E10.05183
G1 X100.016 Y142.718 E10.07487
G1 X99.458 Y142.308 E10.0979
G1 X99.056 Y141.942 E10.11598
G1 X98.827 Y141.714 E10.12673
G1 X98.365 Y141.198 E10.14976
G1 X97.966 Y140.632 E10.1728
G1 X97.634 Y140.024 E10.19584
G1 X97.375 Y139.382 E10.21886
G1 X97.192 Y138.714 E10.2419
G1 X97.087 Y138.029 E10.26495
G1 X97.06 Y137.462 E10.28383
G1 X97.06 Y97.539 E11.61167
G1 X97.1 Y96.848 E11.63469
G1 X97.219 Y96.165 E11.65775
G1 X97.417 Y95.502 E11.68077
G1 X97.689 Y94.865 E11.7038
G1 X98.033 Y94.264 E11.72683
G1 X98.444 Y93.706 E11.74989
G1 X98.817 Y93.296 E11.76832
M204 S5000
M205 X30 Y30
G0 F3600 X99.1 Y93.579
M204 S500
M205 X20 Y20
G1 F1800 X99.329 Y93.35 E11.77909
G1 X99.83 Y92.906 E11.80136
G1 X100.38 Y92.525 E11.82361
G1 X100.971 Y92.212 E11.84585
G1 X101.595 Y91.972 E11.86809
G1 X102.244 Y91.808 E11.89036
G1 X102.908 Y91.723 E11.91262
G1 X103.289 Y91.71 E11.9253
G1 X131.71 Y91.71 E12.87059
G1 X132.378 Y91.75 E12.89284
G1 X133.036 Y91.869 E12.91508
G1 X133.676 Y92.066 E12.93736
G1 X134.287 Y92.338 E12.9596
G1 X134.861 Y92.681 E12.98184
G1 X135.391 Y93.09 E13.00411
G1 X135.67 Y93.35 E13.01679
G1 X135.9 Y93.58 E13.02761
G1 X136.344 Y94.081 E13.04988
G1 X136.725 Y94.631 E13.07213
G1 X137.038 Y95.222 E13.09437
G1 X137.278 Y95.846 E13.11661
G1 X137.442 Y96.495 E13.13887
G1 X137.527 Y97.159 E13.16114
G1 X137.54 Y97.54 E13.17382
G1 X137.54 Y137.457 E14.50146
G1 X137.5 Y138.125 E14.52372
G1 X137.381 Y138.783 E14.54596
G1 X137.184 Y139.423 E14.56823
G1 X136.912 Y140.034 E14.59048
G1 X136.569 Y140.608 E14.61272
G1 X135.963 Y141.353 E14.64466
G1 X135.748 Y141.575 E14.65494
G1 X135.254 Y142.027 E14.67721
G1 X134.711 Y142.417 E14.69944
G1 X134.124 Y142.739 E14.72171
G1 X133.504 Y142.989 E14.74395
G1 X132.858 Y143.163 E14.7662
G1 X132.196 Y143.259 E14.78845
G1 X131.727 Y143.279 E14.80406
G1 X103.291 Y143.29 E15.74984
G1 X102.623 Y143.25 E15.7721
G1 X101.965 Y143.131 E15.79434
G1 X101.326 Y142.934 E15.81658
G1 X100.714 Y142.663 E15.83884
G1 X100.139 Y142.32 E15.86111
G1 X99.61 Y141.912 E15.88333
G1 X99.338 Y141.658 E15.89571
G1 X99.109 Y141.43 E15.90646
G1 X98.664 Y140.931 E15.9287
G1 X98.281 Y140.382 E15.95096
G1 X97.967 Y139.791 E15.97322
G1 X97.726 Y139.167 E15.99547
G1 X97.561 Y138.519 E16.01771
G1 X97.474 Y137.856 E16.03995
G1 X97.46 Y137.462 E16.05306
G1 X97.46 Y97.539 E17.38091
G1 X97.5 Y96.871 E17.40316
G1 X97.619 Y96.213 E17.4254
G1 X97.816 Y95.573 E17.44768
G1 X98.088 Y94.962 E17.46992
G1 X98.431 Y94.388 E17.49216
G1 X98.84 Y93.858 E17.51443
G1 X99.1 Y93.579 E17.52711
M204 S5000
M205 X30 Y30
G0 F3600 X99.383 Y93.862
M204 S500
M205 X20 Y20
G1 F1800 X99.612 Y93.633 E17.53788
G1 X100.095 Y93.206 E17.55933
G1 X100.628 Y92.843 E17.58077
G1 X101.201 Y92.548 E17.60221
G1 X101.806 Y92.326 E17.62364
G1 X102.434 Y92.181 E17.64508
G1 X103.289 Y92.11 E17.67362
G1 X131.71 Y92.11 E18.6189
G1 X132.353 Y92.15 E18.64033
G1 X132.987 Y92.269 E18.66178
G1 X133.601 Y92.466 E18.68323
G1 X134.186 Y92.737 E18.70468
G1 X134.733 Y93.079 E18.72613
G1 X135.387 Y93.633 E18.75464
G1 X135.617 Y93.863 E18.76546
G1 X136.044 Y94.346 E18.7869
G1 X136.407 Y94.879 E18.80835
G1 X136.702 Y95.452 E18.82978
G1 X136.924 Y96.057 E18.85122
G1 X137.069 Y96.685 E18.87266
G1 X137.14 Y97.54 E18.90119
G1 X137.14 Y137.457 E20.22884
G1 X137.1 Y138.1 E20.25026
G1 X136.981 Y138.734 E20.27172
G1 X136.784 Y139.348 E20.29317
G1 X136.513 Y139.933 E20.31461
G1 X136.171 Y140.48 E20.33607
G1 X135.675 Y141.075 E20.36183
G1 X135.46 Y141.297 E20.37211
G1 X134.984 Y141.731 E20.39353
G1 X134.458 Y142.103 E20.41496
G1 X133.889 Y142.407 E20.43642
G1 X133.287 Y142.639 E20.45788
G1 X132.662 Y142.794 E20.47929
G1 X131.727 Y142.879 E20.51052
G1 X103.291 Y142.89 E21.4563
G1 X102.648 Y142.85 E21.47773
G1 X102.014 Y142.731 E21.49919
G1 X101.4 Y142.535 E21.52062
G1 X100.815 Y142.264 E21.54207
G1 X100.268 Y141.923 E21.56351
G1 X99.62 Y141.375 E21.59173
G1 X99.391 Y141.147 E21.60248
G1 X98.963 Y140.665 E21.62392
G1 X98.599 Y140.133 E21.64536
G1 X98.302 Y139.561 E21.6668
G1 X98.079 Y138.956 E21.68824
G1 X97.933 Y138.328 E21.70969
G1 X97.86 Y137.462 E21.73859
G1 X97.86 Y97.539 E23.06644
G1 X97.9 Y96.896 E23.08786
G1 X98.019 Y96.262 E23.10932
G1 X98.216 Y95.648 E23.13077
G1 X98.487 Y95.063 E23.15221
G1 X98.829 Y94.516 E23.17367
G1 X99.383 Y93.862 E23.20217
M204 S5000
M205 X30 Y30
G0 F3600 X103.25 Y97.616
M204 S500
M205 X20 Y20
;TYPE:SUPPORT
G1 F1800 X103.366 Y97.5 E23.20763
G1 X107.65 Y97.5 E23.35012
G1 X107.65 Y137.5 E24.68052
G1 X103.366 Y137.5 E24.82301
G1 X103.25 Y137.384 E24.82847
G1 X103.25 Y97.616 E26.15115
M204 S5000
M205 X30 Y30
G0 F3600 X104.013 Y97.66
M204 S500
M205 X20 Y20
G1 F1800 X104.013 Y137.34 E27.47092
M204 S5000
M205 X30 Y30
G0 F3600 X103.409 Y136.017
M204 S500
M205 X20 Y20
G1 F1800 X107.489 Y136.017 E27.60662
M204 S5000
M205 X30 Y30
G0 F3600 X106.68 Y137.34
M204 S500
M205 X20 Y20
G1 F1800 X106.68 Y97.66 E28.92638
M204 S5000
M205 X30 Y30
G0 F3600 X107.49 Y98.679
M204 S500
M205 X20 Y20
G1 F1800 X103.41 Y98.679 E29.06208
M204 S5000
M205 X30 Y30
G0 F3600 X103.41 Y101.346
M204 S500
M205 X20 Y20
G1 F1800 X107.49 Y101.346 E29.19778
M204 S5000
M205 X30 Y30
G0 F3600 X107.49 Y104.013
M204 S500
M205 X20 Y20
G1 F1800 X103.41 Y104.013 E29.33348
M204 S5000
M205 X30 Y30
G0 F3600 X103.41 Y106.68
M204 S500
M205 X20 Y20
G1 F1800 X107.49 Y106.68 E29.46919
M204 S5000
M205 X30 Y30
G0 F3600 X107.49 Y109.347
M204 S500
M205 X20 Y20
G1 F1800 X103.41 Y109.347 E29.60489
M204 S5000
M205 X30 Y30
G0 F3600 X103.41 Y112.014
M204 S500
M205 X20 Y20
G1 F1800 X107.49 Y112.014 E29.74059
M204 S5000
M205 X30 Y30
G0 F3600 X107.49 Y114.681
M204 S500
M205 X20 Y20
G1 F1800 X103.41 Y114.681 E29.87629
M204 S5000
M205 X30 Y30
G0 F3600 X103.41 Y117.348
M204 S500
M205 X20 Y20
G1 F1800 X107.49 Y117.348 E30.01199
M204 S5000
M205 X30 Y30
G0 F3600 X107.489 Y120.015
M204 S500
M205 X20 Y20
G1 F1800 X103.409 Y120.015 E30.14769
M204 S5000
M205 X30 Y30
G0 F3600 X103.409 Y122.682
M204 S500
M205 X20 Y20
G1 F1800 X107.489 Y122.682 E30.28339
M204 S5000
M205 X30 Y30
G0 F3600 X107.489 Y125.349
M204 S500
M205 X20 Y20
G1 F1800 X103.409 Y125.349 E30.41909
M204 S5000
M205 X30 Y30
G0 F3600 X103.409 Y128.016
M204 S500
M205 X20 Y20
G1 F1800 X107.489 Y128.016 E30.5548
M204 S5000
M205 X30 Y30
G0 F3600 X107.489 Y130.683
M204 S500
M205 X20 Y20
G1 F1800 X103.409 Y130.683 E30.6905
M204 S5000
M205 X30 Y30
G0 F3600 X103.409 Y133.35
M204 S500
M205 X20 Y20
G1 F1800 X107.489 Y133.35 E30.8262
M204 S5000
M205 X30 Y30
G1 F2400 E25.8262
G0 F3600 X107.889 Y137.657
G0 X108.393 Y138.161
G0 X110.637 Y138.161
G0 X111.38 Y137.5
M204 S500
M205 X20 Y20
G1 F2400 E30.8262
G1 F1800 X111.38 Y97.5 E32.1566
G1 X123.42 Y97.5 E32.55706
G1 X123.42 Y137.5 E33.88746
G1 X111.38 Y137.5 E34.28791
M204 S5000
M205 X30 Y30
G0 F3600 X112.014 Y137.34
M204 S500
M205 X20 Y20
G1 F1800 X112.014 Y97.66 E35.60768
M204 S5000
M205 X30 Y30
G0 F3600 X111.54 Y98.679
M204 S500
M205 X20 Y20
G1 F1800 X123.26 Y98.679 E35.99748
M204 S5000
M205 X30 Y30
G0 F3600 X122.682 Y97.66
M204 S500
M205 X20 Y20
G1 F1800 X122.682 Y137.34 E37.31725
M204 S5000
M205 X30 Y30
G0 F3600 X123.259 Y136.017
M204 S500
M205 X20 Y20
G1 F1800 X111.539 Y136.017 E37.70706
M204 S5000
M205 X30 Y30
G0 F3600 X111.539 Y133.35
M204 S500
M205 X20 Y20
G1 F1800 X123.259 Y133.35 E38.09686
M204 S5000
M205 X30 Y30
G0 F3600 X123.259 Y130.683
M204 S500
M205 X20 Y20
G1 F1800 X111.539 Y130.683 E38.48667
M204 S5000
M205 X30 Y30
G0 F3600 X111.539 Y128.016
M204 S500
M205 X20 Y20
G1 F1800 X123.259 Y128.016 E38.87648
M204 S5000
M205 X30 Y30
G0 F3600 X123.259 Y125.349
M204 S500
M205 X20 Y20
G1 F1800 X111.539 Y125.349 E39.26629
M204 S5000
M205 X30 Y30
G0 F3600 X111.539 Y122.682
M204 S500
M205 X20 Y20
G1 F1800 X123.259 Y122.682 E39.6561
M204 S5000
M205 X30 Y30
G0 F3600 X123.259 Y120.015
M204 S500
M205 X20 Y20
G1 F1800 X111.539 Y120.015 E40.04591
M204 S5000
M205 X30 Y30
G0 F3600 X111.54 Y117.348
M204 S500
M205 X20 Y20
G1 F1800 X123.26 Y117.348 E40.43572
M204 S5000
M205 X30 Y30
G0 F3600 X123.26 Y114.681
M204 S500
M205 X20 Y20
G1 F1800 X111.54 Y114.681 E40.82553
M204 S5000
M205 X30 Y30
G0 F3600 X111.54 Y112.014
M204 S500
M205 X20 Y20
G1 F1800 X123.26 Y112.014 E41.21533
M204 S5000
M205 X30 Y30
G0 F3600 X123.26 Y109.347
M204 S500
M205 X20 Y20
G1 F1800 X111.54 Y109.347 E41.60514
M204 S5000
M205 X30 Y30
G0 F3600 X111.54 Y106.68
M204 S500
M205 X20 Y20
G1 F1800 X123.26 Y106.68 E41.99495
M204 S5000
M205 X30 Y30
G0 F3600 X123.26 Y104.013
M204 S500
M205 X20 Y20
G1 F1800 X111.54 Y104.013 E42.38476
M204 S5000
M205 X30 Y30
G0 F3600 X111.54 Y101.346
M204 S500
M205 X20 Y20
G1 F1800 X123.26 Y101.346 E42.77457
M204 S5000
M205 X30 Y30
G0 F3600 X120.015 Y97.66
M204 S500
M205 X20 Y20
G1 F1800 X120.015 Y137.34 E44.09433
M204 S5000
M205 X30 Y30
G0 F3600 X117.348 Y137.34
M204 S500
M205 X20 Y20
G1 F1800 X117.348 Y97.66 E45.41409
M204 S5000
M205 X30 Y30
G0 F3600 X114.681 Y97.66
M204 S500
M205 X20 Y20
G1 F1800 X114.681 Y137.34 E46.73386
M204 S5000
M205 X30 Y30
G1 F2400 E41.73386
G0 F3600 X124.163 Y138.161
G0 X126.407 Y138.161
G0 X127.15 Y137.5
M204 S500
M205 X20 Y20
G1 F2400 E46.73386
G1 F1800 X127.15 Y97.5 E48.06426
G1 X131.634 Y97.5 E48.2134
G1 X131.75 Y97.616 E48.21886
G1 X131.75 Y137.384 E49.54155
G1 X131.634 Y137.5 E49.547
G1 X127.15 Y137.5 E49.69614
M204 S5000
M205 X30 Y30
G0 F3600 X128.016 Y137.34
M204 S500
M205 X20 Y20
G1 F1800 X128.016 Y97.66 E51.0159
M204 S5000
M205 X30 Y30
G0 F3600 X127.31 Y98.679
M204 S500
M205 X20 Y20
G1 F1800 X131.59 Y98.679 E51.15826
M204 S5000
M205 X30 Y30
G0 F3600 X130.683 Y97.66
M204 S500
M205 X20 Y20
G1 F1800 X130.683 Y137.34 E52.47802
M204 S5000
M205 X30 Y30
G0 F3600 X131.59 Y136.017
M204 S500
M205 X20 Y20
G1 F1800 X127.309 Y136.017 E52.6204
M204 S5000
M205 X30 Y30
G0 F3600 X127.309 Y133.35
M204 S500
M205 X20 Y20
G1 F1800 X131.59 Y133.35 E52.76279
M204 S5000
M205 X30 Y30
G0 F3600 X131.59 Y130.683
M204 S500
M205 X20 Y20
G1 F1800 X127.309 Y130.683 E52.90518
M204 S5000
M205 X30 Y30
G0 F3600 X127.309 Y128.016
M204 S500
M205 X20 Y20
G1 F1800 X131.59 Y128.016 E53.04756
M204 S5000
M205 X30 Y30
G0 F3600 X131.59 Y125.349
M204 S500
M205 X20 Y20
G1 F1800 X127.309 Y125.349 E53.18995
M204 S5000
M205 X30 Y30
G0 F3600 X127.309 Y122.682
M204 S500
M205 X20 Y20
G1 F1800 X131.59 Y122.682 E53.33234
M204 S5000
M205 X30 Y30
G0 F3600 X131.59 Y120.015
M204 S500
M205 X20 Y20
G1 F1800 X127.309 Y120.015 E53.47472
M204 S5000
M205 X30 Y30
G0 F3600 X127.31 Y117.348
M204 S500
M205 X20 Y20
G1 F1800 X131.59 Y117.348 E53.61708
M204 S5000
M205 X30 Y30
G0 F3600 X131.59 Y114.681
M204 S500
M205 X20 Y20
G1 F1800 X127.31 Y114.681 E53.75943
M204 S5000
M205 X30 Y30
G0 F3600 X127.31 Y112.014
M204 S500
M205 X20 Y20
G1 F1800 X131.59 Y112.014 E53.90178
M204 S5000
M205 X30 Y30
G0 F3600 X131.59 Y109.347
M204 S500
M205 X20 Y20
G1 F1800 X127.31 Y109.347 E54.04414
M204 S5000
M205 X30 Y30
G0 F3600 X127.31 Y106.68
M204 S500
M205 X20 Y20
G1 F1800 X131.59 Y106.68 E54.18649
M204 S5000
M205 X30 Y30
G0 F3600 X131.59 Y104.013
M204 S500
M205 X20 Y20
G1 F1800 X127.31 Y104.013 E54.32884
M204 S5000
M205 X30 Y30
G0 F3600 X127.31 Y101.346
M204 S500
M205 X20 Y20
G1 F1800 X131.59 Y101.346 E54.4712
M204 S5000
M205 X30 Y30
G1 F2400 E49.4712
;MESH:smoother-diode-mounter.stl
G0 F3600 X126.407 Y96.839
G0 X124.163 Y96.839
G0 X111.145 Y101.346
G0 X109.86 Y101.346
G0 X109.81 Y136.83
G0 X109.88 Y136.9
M204 S500
M205 X20 Y20
;TYPE:WALL-INNER
G1 F2400 E54.4712
G1 F1800 X109.15 Y136.9 E54.49548
G1 X109.15 Y98.1 E55.78597
G1 X109.88 Y98.1 E55.81025
G1 X109.88 Y136.9 E57.10074
M204 S5000
M205 X30 Y30
G0 F3600 X110.28 Y137.3
M204 S500
M205 X20 Y20
;TYPE:WALL-OUTER
G1 F1800 X108.75 Y137.3 E57.15163
G1 X108.75 Y97.7 E58.46873
G1 X110.28 Y97.7 E58.51962
G1 X110.28 Y137.3 E59.83672
M204 S5000
M205 X30 Y30
G0 F3600 X110.08 Y137.3
G0 X109.566 Y136.719
M204 S500
M205 X20 Y20
;TYPE:SKIN
G1 F1800 X109.329 Y136.482 E59.84787
M204 S5000
M205 X30 Y30
G0 F3600 X109.699 Y136.287
M204 S500
M205 X20 Y20
G1 F1800 X109.329 Y135.916 E59.8653
M204 S5000
M205 X30 Y30
G0 F3600 X109.699 Y135.721
M204 S500
M205 X20 Y20
G1 F1800 X109.329 Y135.35 E59.88272
M204 S5000
