;FLAVOR:Marlin
;TIME:2152
;Filament used: 1.52049m
;Layer height: 0.15
;Generated with Cura_SteamEngine master
M140 S60
M105
M190 S60
M104 S200
M105
M109 S200
M82 ;absolute extrusion mode
; Ender 3 Custom Start G-code
G28 ; Home all axes
G92 E0 ; Reset Extruder
G1 Z2.0 F3000 ; Move Z Axis up little to prevent scratching of Heat Bed
G1 X0.1 Y20 Z0.3 F5000.0 ; Move to start position
G1 X0.1 Y200.0 Z0.3 F1500.0 E15 ; Draw the first line
G1 X0.4 Y200.0 Z0.3 F5000.0 ; Move to side a little
G1 X0.4 Y20 Z0.3 F1500.0 E30 ; Draw the second line
G92 E0 ; Reset Extruder
G1 Z2.0 F3000 ; Move Z Axis up little to prevent scratching of Heat Bed
; End of custom start GCode
G92 E0
G1 F2400 E-5
;LAYER_COUNT:106
;LAYER:0
M107
M204 S5000
M205 X30 Y30
G0 F3600 X87.698 Y106.521 Z0.2
M204 S500
M205 X20 Y20
;TYPE:SKIRT
G1 F2400 E0
G1 F1800 X88.28 Y106.105 E0.02379
G1 X88.954 Y105.732 E0.04942
G1 X91.046 Y104.734 E0.12651
G1 X91.708 Y104.462 E0.15031
G1 X92.396 Y104.266 E0.17411
G1 X92.975 Y104.164 E0.19366
G1 X95.431 Y103.844 E0.27604
G1 X100.789 Y102.918 E0.45689
G1 X102.943 Y102.457 E0.53015
G1 X103.649 Y102.346 E0.55392
G1 X104.072 Y102.318 E0.56802
G1 X106.932 Y102.224 E0.6632
G1 X112.22 Y101.821 E0.83959
G1 X117.481 Y101.118 E1.01612
G1 X122.74 Y100.111 E1.19422
G1 X125.194 Y99.532 E1.27808
G1 X129.455 Y98.363 E1.42504
G1 X130.027 Y98.234 E1.44454
G1 X138.2 Y96.778 E1.72065
G1 X138.91 Y96.692 E1.74444
G1 X139.327 Y96.679 E1.75832
G1 X140.655 Y96.68 E1.80249
G1 X141.369 Y96.721 E1.82627
G1 X142.074 Y96.84 E1.85005
G1 X142.761 Y97.038 E1.87383
G1 X143.422 Y97.312 E1.89763
G1 X144.181 Y97.742 E1.92665
G1 X146.822 Y99.489 E2.03196
G1 X147.396 Y99.916 E2.05576
G1 X147.918 Y100.405 E2.07955
G1 X148.382 Y100.949 E2.10333
G1 X148.783 Y101.541 E2.12711
G1 X149.116 Y102.175 E2.15093
G1 X149.375 Y102.841 E2.1747
G1 X149.559 Y103.533 E2.19851
G1 X149.664 Y104.24 E2.22229
G1 X149.691 Y104.832 E2.242
G1 X149.69 Y106.218 E2.2881
G1 X149.662 Y106.815 E2.30797
G1 X149.381 Y109.79 E2.40736
G1 X149.091 Y115.134 E2.58537
G1 X149.105 Y120.419 E2.76115
G1 X149.422 Y125.789 E2.94007
G1 X149.673 Y128.528 E3.03155
G1 X149.695 Y129.363 E3.05933
G1 X149.652 Y130.458 E3.09578
G1 X149.584 Y131.17 E3.11957
G1 X149.437 Y131.87 E3.14336
G1 X149.213 Y132.549 E3.16714
G1 X148.914 Y133.199 E3.19093
G1 X148.545 Y133.812 E3.21473
G1 X148.11 Y134.379 E3.2385
G1 X147.614 Y134.895 E3.2623
G1 X146.777 Y135.552 E3.2977
G1 X144.183 Y137.26 E3.40099
G1 X143.564 Y137.62 E3.42481
G1 X142.909 Y137.908 E3.44861
G1 X142.227 Y138.121 E3.47237
G1 X141.524 Y138.257 E3.49619
G1 X140.687 Y138.315 E3.52409
G1 X139.332 Y138.32 E3.56916
G1 X138.617 Y138.283 E3.59298
G1 X138.124 Y138.209 E3.60956
G1 X132.122 Y137.079 E3.81269
G1 X130.16 Y136.783 E3.87869
G1 X129.46 Y136.637 E3.90247
G1 X128.571 Y136.327 E3.93378
G1 X122.468 Y133.684 E4.15499
G1 X117.468 Y131.861 E4.332
G1 X112.405 Y130.333 E4.50789
G1 X107.2 Y129.077 E4.68598
G1 X104.701 Y128.588 E4.77068
G1 X99.439 Y127.784 E4.94772
G1 X94.119 Y127.276 E5.12547
G1 X91.378 Y127.129 E5.21677
G1 X90.667 Y127.051 E5.24056
G1 X89.969 Y126.894 E5.26435
G1 X89.293 Y126.66 E5.28815
G1 X88.648 Y126.352 E5.31192
G1 X88.04 Y125.974 E5.33573
G1 X87.479 Y125.53 E5.35953
G1 X86.971 Y125.027 E5.3833
G1 X86.522 Y124.47 E5.4071
G1 X86.138 Y123.867 E5.43088
G1 X85.824 Y123.224 E5.45468
G1 X85.583 Y122.551 E5.47845
G1 X85.419 Y121.854 E5.50227
G1 X85.334 Y121.144 E5.52605
G1 X85.321 Y120.746 E5.5393
G1 X85.31 Y111.516 E5.84629
G1 X85.349 Y110.801 E5.8701
G1 X85.468 Y110.096 E5.89388
G1 X85.664 Y109.408 E5.91768
G1 X85.936 Y108.747 E5.94145
G1 X86.28 Y108.12 E5.96524
G1 X86.692 Y107.535 E5.98904
G1 X87.167 Y107 E6.01283
G1 X87.698 Y106.521 E6.03662
M204 S5000
M205 X30 Y30
G0 F3600 X88.088 Y106.725
M204 S500
M205 X20 Y20
G1 F1800 X88.663 Y106.339 E6.05965
G1 X89.127 Y106.093 E6.07712
G1 X91.219 Y105.095 E6.15421
G1 X91.86 Y104.833 E6.17724
G1 X92.527 Y104.647 E6.20027
G1 X93.026 Y104.56 E6.21712
G1 X95.528 Y104.234 E6.30104
G1 X100.838 Y103.316 E6.48027
G1 X103.026 Y102.848 E6.55469
G1 X103.711 Y102.742 E6.57775
G1 X104.085 Y102.718 E6.59021
G1 X106.93 Y102.624 E6.68489
G1 X112.284 Y102.216 E6.86348
G1 X117.538 Y101.514 E7.03978
G1 X122.815 Y100.504 E7.21848
G1 X125.307 Y99.916 E7.30364
G1 X129.561 Y98.749 E7.45036
G1 X130.097 Y98.628 E7.46863
G1 X138.27 Y97.172 E7.74475
G1 X138.957 Y97.09 E7.76776
G1 X139.327 Y97.079 E7.78007
G1 X140.655 Y97.08 E7.82424
G1 X141.346 Y97.12 E7.84726
G1 X142.028 Y97.24 E7.87029
G1 X142.692 Y97.438 E7.89334
G1 X143.328 Y97.711 E7.91636
G1 X143.96 Y98.076 E7.94063
G1 X146.601 Y99.823 E8.04595
G1 X147.156 Y100.238 E8.069
G1 X147.659 Y100.713 E8.09201
G1 X148.104 Y101.244 E8.11505
G1 X148.485 Y101.823 E8.13811
G1 X148.796 Y102.441 E8.16112
G1 X149.034 Y103.091 E8.18414
G1 X149.196 Y103.765 E8.2072
G1 X149.279 Y104.452 E8.23021
G1 X149.291 Y104.831 E8.24282
G1 X149.29 Y106.217 E8.28892
G1 X149.263 Y106.777 E8.30757
G1 X148.982 Y109.754 E8.40703
G1 X148.691 Y115.114 E8.58556
G1 X148.705 Y120.427 E8.76227
G1 X149.024 Y125.825 E8.94213
G1 X149.275 Y128.564 E9.03361
G1 X149.295 Y129.347 E9.05966
G1 X149.252 Y130.442 E9.09611
G1 X149.185 Y131.132 E9.11916
G1 X149.039 Y131.809 E9.1422
G1 X148.816 Y132.464 E9.16521
G1 X148.519 Y133.09 E9.18826
G1 X148.152 Y133.677 E9.21128
G1 X147.719 Y134.218 E9.23433
G1 X147.227 Y134.705 E9.25735
G1 X146.557 Y135.218 E9.28542
G1 X143.963 Y136.926 E9.38872
G1 X143.363 Y137.273 E9.41177
G1 X142.728 Y137.549 E9.4348
G1 X142.065 Y137.749 E9.45784
G1 X141.383 Y137.872 E9.48089
G1 X140.685 Y137.915 E9.50414
G1 X139.33 Y137.92 E9.54921
G1 X138.639 Y137.883 E9.57223
G1 X138.198 Y137.816 E9.58706
G1 X132.172 Y136.681 E9.79101
G1 X130.22 Y136.387 E9.85667
G1 X129.542 Y136.244 E9.87972
G1 X128.73 Y135.96 E9.90833
G1 X122.613 Y133.311 E10.13004
G1 X117.595 Y131.481 E10.30769
G1 X112.509 Y129.947 E10.48438
G1 X107.301 Y128.69 E10.66257
G1 X104.769 Y128.195 E10.74838
G1 X99.483 Y127.386 E10.92624
G1 X94.131 Y126.876 E11.10505
G1 X91.399 Y126.729 E11.19605
G1 X90.711 Y126.652 E11.21908
G1 X90.036 Y126.497 E11.24211
G1 X89.384 Y126.264 E11.26514
G1 X88.763 Y125.958 E11.28817
G1 X88.181 Y125.582 E11.31121
G1 X87.646 Y125.142 E11.33425
G1 X87.166 Y124.643 E11.35728
G1 X86.746 Y124.092 E11.38032
G1 X86.393 Y123.497 E11.40334
G1 X86.11 Y122.865 E11.42637
G1 X85.903 Y122.204 E11.4494
G1 X85.773 Y121.524 E11.47243
G1 X85.721 Y120.745 E11.4984
G1 X85.71 Y111.515 E11.80539
G1 X85.749 Y110.824 E11.82841
G1 X85.868 Y110.141 E11.85147
G1 X86.064 Y109.477 E11.87449
G1 X86.336 Y108.84 E11.89753
G1 X86.679 Y108.239 E11.92055
G1 X87.089 Y107.681 E11.94358
G1 X87.561 Y107.174 E11.96662
G1 X88.088 Y106.725 E11.98964
M204 S5000
M205 X30 Y30
G0 F3600 X87.954 Y107.355
M204 S500
M205 X20 Y20
G1 F1800 X88.476 Y106.936 E12.01191
G1 X89.299 Y106.454 E12.04363
G1 X91.391 Y105.456 E12.12072
G1 X92.011 Y105.204 E12.14298
G1 X92.656 Y105.028 E12.16522
G1 X93.078 Y104.957 E12.17945
G1 X95.574 Y104.632 E12.26317
G1 X100.916 Y103.709 E12.44348
G1 X103.11 Y103.239 E12.51811
G1 X104.098 Y103.118 E12.55121
G1 X106.95 Y103.024 E12.64612
G1 X112.316 Y102.615 E12.82511
G1 X117.615 Y101.907 E13.00293
G1 X122.886 Y100.898 E13.18142
G1 X125.421 Y100.3 E13.26805
G1 X129.667 Y99.135 E13.41449
G1 X130.167 Y99.022 E13.43154
G1 X138.34 Y97.566 E13.70766
G1 X139.326 Y97.479 E13.74058
G1 X140.654 Y97.48 E13.78475
G1 X141.322 Y97.52 E13.80701
G1 X141.98 Y97.64 E13.82925
G1 X142.619 Y97.838 E13.8515
G1 X143.231 Y98.11 E13.87378
G1 X143.74 Y98.409 E13.89341
G1 X146.381 Y100.156 E13.99873
G1 X146.916 Y100.558 E14.02099
G1 X147.399 Y101.021 E14.04324
G1 X147.823 Y101.538 E14.06548
G1 X148.183 Y102.102 E14.08774
G1 X148.473 Y102.705 E14.10999
G1 X148.689 Y103.338 E14.13224
G1 X148.828 Y103.992 E14.15447
G1 X148.891 Y104.831 E14.18246
G1 X148.89 Y106.217 E14.22856
G1 X148.865 Y106.74 E14.24597
G1 X148.583 Y109.721 E14.34556
G1 X148.291 Y115.111 E14.5251
G1 X148.305 Y120.451 E14.70271
G1 X148.623 Y125.826 E14.88179
G1 X148.877 Y128.601 E14.97448
G1 X148.896 Y129.332 E14.9988
G1 X148.853 Y130.427 E15.03524
G1 X148.787 Y131.092 E15.05747
G1 X148.641 Y131.746 E15.07976
G1 X148.42 Y132.377 E15.102
G1 X148.124 Y132.977 E15.12425
G1 X147.759 Y133.538 E15.14651
G1 X147.33 Y134.051 E15.16875
G1 X146.842 Y134.509 E15.19101
G1 X146.337 Y134.884 E15.21193
G1 X143.743 Y136.592 E15.31523
G1 X143.163 Y136.926 E15.33749
G1 X142.547 Y137.188 E15.35976
G1 X141.905 Y137.376 E15.38201
G1 X141.245 Y137.485 E15.40426
G1 X140.684 Y137.515 E15.42294
G1 X139.329 Y137.52 E15.46801
G1 X138.661 Y137.482 E15.49026
G1 X138.272 Y137.423 E15.50335
G1 X132.227 Y136.285 E15.70794
G1 X130.279 Y135.991 E15.77346
G1 X129.625 Y135.852 E15.7957
G1 X128.889 Y135.593 E15.82165
G1 X122.757 Y132.938 E16.0439
G1 X117.726 Y131.103 E16.22201
G1 X112.625 Y129.564 E16.39923
G1 X107.359 Y128.293 E16.5794
G1 X104.86 Y127.804 E16.6641
G1 X99.528 Y126.989 E16.8435
G1 X94.166 Y126.477 E17.02265
G1 X91.421 Y126.33 E17.11408
G1 X90.756 Y126.254 E17.13634
G1 X90.105 Y126.1 E17.15859
G1 X89.477 Y125.869 E17.18085
G1 X88.881 Y125.565 E17.2031
G1 X88.326 Y125.191 E17.22536
G1 X87.819 Y124.755 E17.2476
G1 X87.368 Y124.261 E17.26985
G1 X86.979 Y123.717 E17.29209
G1 X86.657 Y123.13 E17.31436
G1 X86.408 Y122.509 E17.33662
G1 X86.235 Y121.863 E17.35886
G1 X86.14 Y121.2 E17.38114
G1 X86.121 Y120.745 E17.39628
G1 X86.11 Y111.515 E17.70327
G1 X86.149 Y110.847 E17.72553
G1 X86.268 Y110.188 E17.7478
G1 X86.464 Y109.549 E17.77003
G1 X86.735 Y108.937 E17.79229
G1 X87.077 Y108.362 E17.81455
G1 X87.485 Y107.832 E17.83679
G1 X87.954 Y107.355 E17.85904
M204 S5000
M205 X30 Y30
G0 F3600 X88.346 Y107.543
M204 S500
M205 X20 Y20
G1 F1800 X88.862 Y107.157 E17.88047
G1 X89.471 Y106.815 E17.90371
G1 X91.563 Y105.817 E17.9808
G1 X92.161 Y105.576 E18.00224
G1 X92.784 Y105.411 E18.02368
G1 X93.13 Y105.354 E18.03534
G1 X95.625 Y105.029 E18.11903
G1 X100.99 Y104.102 E18.30011
G1 X103.194 Y103.63 E18.37508
G1 X104.111 Y103.518 E18.4058
G1 X106.972 Y103.424 E18.50101
G1 X112.361 Y103.013 E18.68077
G1 X117.674 Y102.303 E18.85905
G1 X122.978 Y101.287 E19.03867
G1 X125.489 Y100.696 E19.12447
G1 X129.773 Y99.52 E19.27223
G1 X130.237 Y99.416 E19.28804
G1 X138.41 Y97.96 E19.56416
G1 X139.326 Y97.879 E19.59474
G1 X140.654 Y97.88 E19.63891
G1 X141.297 Y97.92 E19.66034
G1 X141.931 Y98.04 E19.6818
G1 X142.545 Y98.237 E19.70325
G1 X143.129 Y98.509 E19.72468
G1 X143.519 Y98.743 E19.7398
G1 X146.16 Y100.49 E19.84512
G1 X146.674 Y100.878 E19.86654
G1 X147.137 Y101.327 E19.88799
G1 X147.541 Y101.83 E19.90945
G1 X147.879 Y102.379 E19.9309
G1 X148.146 Y102.965 E19.95231
G1 X148.339 Y103.581 E19.97378
G1 X148.455 Y104.215 E19.99522
G1 X148.491 Y104.831 E20.01574
G1 X148.49 Y106.217 E20.06184
G1 X148.467 Y106.702 E20.07799
G1 X148.183 Y109.711 E20.17852
G1 X147.891 Y115.09 E20.35769
G1 X147.905 Y120.458 E20.53623
G1 X148.226 Y125.884 E20.71701
G1 X148.478 Y128.637 E20.80896
G1 X148.496 Y129.316 E20.83155
G1 X148.453 Y130.411 E20.868
G1 X148.388 Y131.052 E20.88943
G1 X148.244 Y131.681 E20.91089
G1 X148.023 Y132.287 E20.93234
G1 X147.729 Y132.86 E20.95376
G1 X147.366 Y133.393 E20.97521
G1 X146.941 Y133.877 E20.99664
G1 X146.458 Y134.305 E21.0181
G1 X146.117 Y134.55 E21.03207
G1 X143.523 Y136.258 E21.13537
G1 X142.963 Y136.579 E21.15684
G1 X142.369 Y136.827 E21.17824
G1 X141.748 Y137.001 E21.19969
G1 X141.11 Y137.096 E21.22115
G1 X140.682 Y137.115 E21.2354
G1 X139.327 Y137.12 E21.28047
G1 X138.684 Y137.082 E21.30189
G1 X138.346 Y137.03 E21.31326
G1 X132.303 Y135.892 E21.51779
G1 X130.339 Y135.596 E21.58385
G1 X129.709 Y135.46 E21.60528
G1 X129.048 Y135.226 E21.62861
G1 X122.902 Y132.565 E21.85136
G1 X117.852 Y130.723 E22.03015
G1 X112.73 Y129.178 E22.20809
G1 X107.442 Y127.901 E22.38902
G1 X104.92 Y127.408 E22.47449
G1 X99.592 Y126.593 E22.65376
G1 X94.202 Y126.079 E22.83385
G1 X91.442 Y125.931 E22.92578
G1 X90.802 Y125.856 E22.94721
G1 X90.176 Y125.703 E22.96865
G1 X89.573 Y125.474 E22.9901
G1 X89.004 Y125.172 E23.01152
G1 X88.476 Y124.801 E23.03299
G1 X87.998 Y124.368 E23.05444
G1 X87.577 Y123.88 E23.07588
G1 X87.221 Y123.343 E23.0973
G1 X86.933 Y122.766 E23.11875
G1 X86.719 Y122.158 E23.14019
G1 X86.581 Y121.528 E23.16164
G1 X86.521 Y120.744 E23.18779
G1 X86.51 Y111.514 E23.49479
G1 X86.549 Y110.871 E23.51621
G1 X86.668 Y110.237 E23.53767
G1 X86.864 Y109.623 E23.5591
G1 X87.134 Y109.038 E23.58053
G1 X87.475 Y108.491 E23.60197
G1 X87.881 Y107.99 E23.62342
G1 X88.346 Y107.543 E23.64487
M204 S5000
M205 X30 Y30
G1 F2400 E18.64487
;MESH:dragchain-side.stl
G0 F3600 X92.314 Y110.835
G0 X92.314 Y112.114
G0 X93.1 Y119.988
G0 X93.2 Y119.988
M204 S500
M205 X20 Y20
;TYPE:WALL-INNER
G1 F2400 E23.64487
G1 F1800 X93.2 Y119.989 E23.64491
G1 X93.2 Y120.198 E23.65186
G1 X92.991 Y120.188 E23.6563
G1 X92.3 Y120.154 E23.67931
G1 X92.3 Y112.1 E23.94719
G1 X93.2 Y112.1 E23.97712
G1 X93.2 Y119.988 E24.23948
M204 S5000
M205 X30 Y30
G1 F2400 E19.23948
G0 F3600 X93.1 Y119.988
G0 X93.18 Y115.17
G0 X94.465 Y115.17
G0 X116.635 Y115.17
G0 X117.92 Y115.17
G0 X131.43 Y115.17
G0 X131.5 Y115.1
M204 S500
M205 X20 Y20
G1 F2400 E24.23948
G1 F1800 X136.479 Y115.1 E24.40508
G1 X136.564 Y115.136 E24.40815
G1 X136.6 Y115.221 E24.41122
G1 X136.6 Y119.779 E24.56282
G1 X136.564 Y119.864 E24.56589
G1 X136.479 Y119.9 E24.56896
G1 X131.5 Y119.9 E24.73457
G1 X131.5 Y129.372 E25.04961
G1 X142.7 Y129.374 E25.42212
G1 X142.7 Y129.866 E25.43848
G1 X140.478 Y131.33 E25.52699
G1 X139.823 Y131.33 E25.54877
G1 X139.623 Y129.875 E25.59762
G1 X131.265 Y129.875 E25.87561
G1 X131.119 Y129.815 E25.88086
G1 X131.06 Y129.673 E25.88597
G1 X131.05 Y124.737 E26.05015
G1 X131.05 Y118.9 E26.24428
G1 X118.8 Y118.9 E26.65172
G1 X118.8 Y120.181 E26.69433
G1 X118.11 Y120.219 E26.71731
G1 X117.9 Y120.23 E26.72431
G1 X117.9 Y120.02 E26.72876
G1 X117.9 Y120.019 E26.7288
G1 X117.9 Y110.9 E27.0321
G1 X104.54 Y110.9 E27.47645
G1 X104.54 Y109.343 E27.52824
G1 X104.583 Y109.296 E27.53036
G1 X126.989 Y109.296 E28.27558
G1 X129.084 Y110.1 E28.35022
G1 X131.06 Y110.1 E28.41594
G1 X131.06 Y105.327 E28.57469
G1 X131.119 Y105.185 E28.5798
G1 X131.265 Y105.125 E28.58505
G1 X139.623 Y105.125 E28.86304
G1 X139.823 Y103.67 E28.91189
G1 X140.478 Y103.67 E28.93368
G1 X142.7 Y105.134 E29.02218
G1 X142.7 Y105.626 E29.03854
G1 X131.5 Y105.628 E29.41106
G1 X131.5 Y115.1 E29.7261
M204 S5000
M205 X30 Y30
G0 F3600 X131.9 Y114.7
M204 S500
M205 X20 Y20
;TYPE:WALL-OUTER
G1 F1800 X136.559 Y114.7 E29.88106
G1 X136.871 Y114.829 E29.89229
G1 X137 Y115.141 E29.90351
G1 X137 Y119.859 E30.06044
G1 X136.871 Y120.171 E30.07166
G1 X136.559 Y120.3 E30.08289
G1 X131.9 Y120.3 E30.23785
G1 X131.9 Y128.972 E30.52628
G1 X143.1 Y128.974 E30.8988
G1 X143.1 Y130.081 E30.93562
G1 X140.598 Y131.73 E31.03528
G1 X139.474 Y131.73 E31.07267
G1 X139.274 Y130.275 E31.12152
G1 X131.185 Y130.275 E31.39056
G1 X130.814 Y130.122 E31.4039
G1 X130.66 Y129.751 E31.41726
G1 X130.66 Y127.221 E31.50141
G1 X130.65 Y124.737 E31.58403
G1 X130.65 Y119.3 E31.76487
G1 X119.2 Y119.3 E32.1457
G1 X119.2 Y120.559 E32.18757
G1 X117.919 Y120.63 E32.23024
G1 X117.5 Y120.629 E32.24418
G1 X117.5 Y111.3 E32.55446
G1 X94 Y111.3 E33.33607
G1 X94 Y110.7 E33.35603
G1 X104.14 Y110.7 E33.69329
G1 X104.14 Y109.188 E33.74358
G1 X104.407 Y108.896 E33.75674
G1 X127.062 Y108.896 E34.51025
G1 X129.158 Y109.7 E34.58491
G1 X130.66 Y109.7 E34.63487
G1 X130.66 Y105.249 E34.78291
G1 X130.814 Y104.878 E34.79627
G1 X131.185 Y104.725 E34.80962
G1 X139.274 Y104.725 E35.07866
G1 X139.474 Y103.27 E35.12751
G1 X140.598 Y103.27 E35.16489
G1 X143.1 Y104.919 E35.26456
G1 X143.1 Y106.026 E35.30138
G1 X131.9 Y106.028 E35.67389
G1 X131.9 Y114.7 E35.96232
M204 S5000
M205 X30 Y30
G0 F3600 X132.1 Y114.7
G1 F2400 E30.96232
G0 F3600 X132.1 Y115.2
G0 X118.772 Y118.872
G0 X117.913 Y120.215
G0 X116.635 Y120.215
G0 X94.452 Y121.514
G0 X92.162 Y121.413
G0 X92.055 Y120.548
G0 X91.969 Y120.449
G0 X92.179 Y120.549
M204 S500
M205 X20 Y20
G1 F2400 E35.96232
G1 F1800 X91.9 Y120.548 E35.9716
G1 X91.9 Y111.7 E36.26589
G1 X93.6 Y111.7 E36.32243
G1 X93.6 Y120.409 E36.61209
G1 X93.6 Y120.41 E36.61212
G1 X93.6 Y120.619 E36.61908
G1 X93.391 Y120.609 E36.62352
