;FLAVOR:Marlin
;TIME:2402
;Filament used: 1.1649m
;Layer height: 0.12
;Generated with Cura_SteamEngine master
M140 S60
M105
M190 S60
M104 S200
M105
M109 S200
M82 ;absolute extrusion mode
; Ender 3 Custom Start G-code
G28 ; Home all axes
G92 E0 ; Reset Extruder
G1 Z2.0 F3000 ; Move Z Axis up little to prevent scratching of Heat Bed
G1 X0.1 Y20 Z0.3 F5000.0 ; Move to start position
G1 X0.1 Y200.0 Z0.3 F1500.0 E15 ; Draw the first line
G1 X0.4 Y200.0 Z0.3 F5000.0 ; Move to side a little
G1 X0.4 Y20 Z0.3 F1500.0 E30 ; Draw the second line
G92 E0 ; Reset Extruder
G1 Z2.0 F3000 ; Move Z Axis up little to prevent scratching of Heat Bed
; End of custom start GCode
G92 E0
G1 F3600 E-10
;LAYER_COUNT:183
;LAYER:0
M107
M204 S5000
M205 X30 Y30
G0 F3600 X99.441 Y99.986 Z0.2
M204 S500
M205 X20 Y20
;TYPE:SKIRT
G1 F3600 E0
G1 F1500 X100.035 Y99.465 E0.02628
G1 X100.678 Y99.008 E0.05252
G1 X101.365 Y98.618 E0.07879
G1 X102.088 Y98.299 E0.10508
G1 X102.839 Y98.055 E0.13134
G1 X103.611 Y97.888 E0.15761
G1 X104.395 Y97.8 E0.18385
G1 X104.87 Y97.786 E0.19965
G1 X106.109 Y97.786 E0.24086
G1 X106.898 Y97.826 E0.26714
G1 X107.678 Y97.945 E0.29338
G1 X108.443 Y98.143 E0.31967
G1 X109.183 Y98.417 E0.34591
G1 X109.892 Y98.765 E0.37218
G1 X110.563 Y99.183 E0.39847
G1 X111.187 Y99.666 E0.42472
G1 X111.624 Y100.071 E0.44454
G1 X111.741 Y100.188 E0.45004
G1 X112.271 Y100.774 E0.47632
G1 X112.738 Y101.41 E0.50256
G1 X113.139 Y102.09 E0.52882
G1 X113.469 Y102.808 E0.5551
G1 X113.724 Y103.555 E0.58135
G1 X113.824 Y103.986 E0.59607
G1 X114.502 Y103.905 E0.61878
G1 X115.056 Y103.886 E0.63722
G1 X120.009 Y103.894 E0.80196
G1 X120.797 Y103.935 E0.8282
G1 X121.17 Y103.993 E0.84076
G1 X121.332 Y103.368 E0.86223
G1 X121.606 Y102.627 E0.88851
G1 X121.954 Y101.918 E0.91478
G1 X122.371 Y101.248 E0.94102
G1 X122.854 Y100.624 E0.96727
G1 X123.259 Y100.188 E0.98706
G1 X123.376 Y100.071 E0.99256
G1 X123.962 Y99.541 E1.01884
G1 X124.598 Y99.074 E1.04509
G1 X125.278 Y98.673 E1.07134
G1 X125.996 Y98.343 E1.09763
G1 X126.743 Y98.088 E1.12388
G1 X127.512 Y97.909 E1.15014
G1 X128.296 Y97.809 E1.17643
G1 X129.178 Y97.791 E1.20577
G1 X130.507 Y97.84 E1.25
G1 X131.294 Y97.909 E1.27628
G1 X132.07 Y98.057 E1.30255
G1 X132.826 Y98.283 E1.3288
G1 X133.556 Y98.585 E1.35507
G1 X134.252 Y98.958 E1.38134
G1 X134.907 Y99.4 E1.40762
G1 X135.513 Y99.906 E1.43388
G1 X136.065 Y100.47 E1.46012
G1 X136.754 Y101.375 E1.49796
G1 X138.464 Y103.998 E1.6021
G1 X138.861 Y104.681 E1.62837
G1 X139.188 Y105.4 E1.65465
G1 X139.439 Y106.148 E1.68089
G1 X139.614 Y106.918 E1.70715
G1 X139.71 Y107.702 E1.73342
G1 X139.73 Y108.258 E1.75193
G1 X139.73 Y109.487 E1.7928
G1 X139.69 Y110.276 E1.81908
G1 X139.571 Y111.056 E1.84532
G1 X139.373 Y111.821 E1.8716
G1 X139.099 Y112.561 E1.89785
G1 X138.751 Y113.27 E1.92412
G1 X138.333 Y113.941 E1.95041
G1 X138.126 Y114.205 E1.96157
G1 X138.103 Y114.35 E1.96645
G1 X137.903 Y115.114 E1.99272
G1 X137.493 Y116.148 E2.02972
G1 X137.262 Y116.627 E2.0474
G1 X137.2 Y116.74 E2.05169
G1 X137.2 Y120.963 E2.19215
G1 X137.396 Y121.645 E2.21575
G1 X137.536 Y122.422 E2.24201
G1 X137.6 Y123.417 E2.27517
G1 X137.6 Y123.869 E2.2902
G1 X137.56 Y124.658 E2.31648
G1 X137.441 Y125.438 E2.34272
G1 X137.4 Y125.596 E2.34815
G1 X137.4 Y126.118 E2.36551
G1 X137.36 Y126.907 E2.39179
G1 X137.241 Y127.687 E2.41803
G1 X137.043 Y128.452 E2.44432
G1 X136.769 Y129.192 E2.47056
G1 X136.421 Y129.901 E2.49683
G1 X136.003 Y130.572 E2.52312
G1 X135.52 Y131.196 E2.54937
G1 X135.115 Y131.633 E2.56919
G1 X134.964 Y131.784 E2.57629
G1 X134.378 Y132.314 E2.60257
G1 X133.742 Y132.781 E2.62881
G1 X133.062 Y133.182 E2.65507
G1 X132.344 Y133.512 E2.68135
G1 X131.597 Y133.767 E2.7076
G1 X130.828 Y133.946 E2.73386
G1 X130.044 Y134.046 E2.76015
G1 X129.449 Y134.069 E2.77996
G1 X127.651 Y134.069 E2.83976
G1 X126.862 Y134.029 E2.86603
G1 X126.082 Y133.91 E2.89228
G1 X125.317 Y133.712 E2.91856
G1 X124.577 Y133.438 E2.94481
G1 X123.868 Y133.09 E2.97107
G1 X123.197 Y132.672 E2.99737
G1 X122.573 Y132.189 E3.02361
G1 X122.136 Y131.784 E3.04343
G1 X121.985 Y131.633 E3.05053
G1 X121.455 Y131.047 E3.07681
G1 X120.988 Y130.411 E3.10306
G1 X120.587 Y129.731 E3.12931
G1 X120.257 Y129.013 E3.15559
G1 X120.002 Y128.266 E3.18185
G1 X119.823 Y127.497 E3.20811
G1 X119.723 Y126.713 E3.2344
G1 X119.7 Y126.118 E3.2542
G1 X119.7 Y123.617 E3.33738
G1 X119.74 Y122.828 E3.36366
G1 X119.859 Y122.048 E3.3899
G1 X119.897 Y121.899 E3.39502
G1 X119.896 Y121.436 E3.41042
G1 X115.1 Y121.436 E3.56993
G1 X115.1 Y121.907 E3.5856
G1 X115.193 Y122.329 E3.59997
G1 X115.284 Y123.114 E3.62625
G1 X115.3 Y123.617 E3.64299
G1 X115.3 Y126.118 E3.72618
G1 X115.26 Y126.907 E3.75245
G1 X115.141 Y127.687 E3.7787
G1 X114.943 Y128.452 E3.80498
G1 X114.669 Y129.192 E3.83122
G1 X114.321 Y129.901 E3.85749
G1 X113.903 Y130.572 E3.88379
G1 X113.42 Y131.196 E3.91003
G1 X113.015 Y131.633 E3.92985
G1 X112.864 Y131.784 E3.93695
G1 X112.278 Y132.314 E3.96323
G1 X111.642 Y132.781 E3.98947
G1 X110.962 Y133.182 E4.01573
G1 X110.244 Y133.512 E4.04201
G1 X109.497 Y133.767 E4.06827
G1 X108.728 Y133.946 E4.09453
G1 X107.944 Y134.046 E4.12081
G1 X107.349 Y134.069 E4.14062
G1 X105.551 Y134.069 E4.20042
G1 X104.762 Y134.029 E4.2267
G1 X103.982 Y133.91 E4.25294
G1 X103.217 Y133.712 E4.27922
G1 X102.477 Y133.438 E4.30547
G1 X101.768 Y133.09 E4.33174
G1 X101.097 Y132.672 E4.35803
G1 X100.473 Y132.189 E4.38428
G1 X100.036 Y131.784 E4.40409
G1 X99.885 Y131.633 E4.41119
G1 X99.355 Y131.047 E4.43747
G1 X98.888 Y130.411 E4.46372
G1 X98.487 Y129.731 E4.48997
G1 X98.157 Y129.013 E4.51626
G1 X97.902 Y128.266 E4.54251
G1 X97.723 Y127.497 E4.56877
G1 X97.623 Y126.713 E4.59506
G1 X97.6 Y126.118 E4.61486
G1 X97.6 Y125.579 E4.63279
G1 X97.523 Y125.248 E4.64409
G1 X97.423 Y124.464 E4.67038
G1 X97.4 Y123.869 E4.69018
G1 X97.4 Y123.417 E4.70522
G1 X97.44 Y122.628 E4.73149
G1 X97.559 Y121.848 E4.75774
G1 X97.757 Y121.083 E4.78402
G1 X97.8 Y120.967 E4.78813
G1 X97.8 Y116.775 E4.92756
G1 X97.458 Y116.06 E4.95392
G1 X97.274 Y115.596 E4.97052
G1 X97.021 Y114.848 E4.99679
G1 X96.875 Y114.213 E5.01846
G1 X96.733 Y114.035 E5.02603
G1 X96.306 Y113.371 E5.05229
G1 X95.948 Y112.668 E5.07853
G1 X95.663 Y111.931 E5.10481
G1 X95.454 Y111.17 E5.13106
G1 X95.323 Y110.391 E5.15733
G1 X95.271 Y109.39 E5.19067
G1 X95.287 Y108.106 E5.23338
G1 X95.336 Y107.318 E5.25964
G1 X95.466 Y106.539 E5.28591
G1 X95.673 Y105.777 E5.31217
G1 X95.956 Y105.04 E5.33843
G1 X96.313 Y104.335 E5.36471
G1 X96.641 Y103.81 E5.3853
G1 X98.425 Y101.193 E5.49064
G1 X98.902 Y100.563 E5.51692
G1 X99.441 Y99.986 E5.54319
M204 S5000
M205 X30 Y30
G0 F3600 X99.748 Y100.245
M204 S500
M205 X20 Y20
G1 F1500 X100.33 Y99.742 E5.56877
G1 X100.961 Y99.303 E5.59434
G1 X101.634 Y98.931 E5.61991
G1 X102.343 Y98.631 E5.64552
G1 X103.078 Y98.406 E5.67109
G1 X103.833 Y98.259 E5.69667
G1 X104.87 Y98.186 E5.73124
G1 X106.109 Y98.186 E5.77245
G1 X106.877 Y98.226 E5.79803
G1 X107.637 Y98.345 E5.82362
G1 X108.38 Y98.543 E5.84919
G1 X109.099 Y98.817 E5.87478
G1 X109.785 Y99.164 E5.90035
G1 X110.432 Y99.58 E5.92594
G1 X111.032 Y100.061 E5.95151
G1 X111.342 Y100.353 E5.96568
G1 X111.459 Y100.47 E5.97118
G1 X111.973 Y101.042 E5.99676
G1 X112.426 Y101.664 E6.02235
G1 X112.812 Y102.329 E6.04793
G1 X113.127 Y103.031 E6.07352
G1 X113.367 Y103.762 E6.09911
G1 X113.513 Y104.436 E6.12205
G1 X113.603 Y104.436 E6.12504
G1 X113.825 Y104.387 E6.1326
G1 X114.589 Y104.3 E6.15818
G1 X115.055 Y104.286 E6.17368
G1 X120.008 Y104.294 E6.33842
G1 X120.776 Y104.335 E6.364
G1 X121.41 Y104.436 E6.38535
G1 X121.493 Y104.436 E6.38811
G1 X121.534 Y104.174 E6.39693
G1 X121.732 Y103.431 E6.42251
G1 X122.005 Y102.712 E6.44809
G1 X122.352 Y102.025 E6.47369
G1 X122.769 Y101.379 E6.49926
G1 X123.25 Y100.779 E6.52484
G1 X123.541 Y100.47 E6.53895
G1 X123.658 Y100.353 E6.54446
G1 X124.23 Y99.839 E6.57004
G1 X124.852 Y99.386 E6.59563
G1 X125.517 Y99 E6.6212
G1 X126.219 Y98.685 E6.64679
G1 X126.95 Y98.445 E6.67238
G1 X127.701 Y98.282 E6.69794
G1 X128.466 Y98.198 E6.72354
G1 X129.164 Y98.191 E6.74676
G1 X130.493 Y98.24 E6.79099
G1 X131.259 Y98.308 E6.81657
G1 X132.014 Y98.456 E6.84216
G1 X132.749 Y98.681 E6.86772
G1 X133.457 Y98.981 E6.8933
G1 X134.131 Y99.353 E6.9189
G1 X134.762 Y99.793 E6.94449
G1 X135.343 Y100.296 E6.97005
G1 X135.87 Y100.856 E6.99562
G1 X136.419 Y101.594 E7.02622
G1 X138.129 Y104.217 E7.13036
G1 X138.515 Y104.882 E7.15593
G1 X138.83 Y105.584 E7.18153
G1 X139.07 Y106.314 E7.20708
G1 X139.233 Y107.066 E7.23268
G1 X139.318 Y107.831 E7.25828
G1 X139.33 Y108.258 E7.27249
G1 X139.33 Y109.487 E7.31336
G1 X139.29 Y110.255 E7.33894
G1 X139.171 Y111.015 E7.36453
G1 X138.973 Y111.758 E7.3901
G1 X138.699 Y112.477 E7.41569
G1 X138.352 Y113.163 E7.44126
G1 X137.936 Y113.81 E7.46685
G1 X137.744 Y114.05 E7.47707
G1 X137.703 Y114.307 E7.48572
G1 X137.504 Y115.05 E7.51131
G1 X137.132 Y115.974 E7.54444
G1 X136.901 Y116.453 E7.56212
G1 X136.8 Y116.638 E7.56913
G1 X136.8 Y121.048 E7.71581
G1 X136.919 Y121.397 E7.72808
G1 X137.09 Y122.147 E7.75366
G1 X137.183 Y122.911 E7.77926
G1 X137.2 Y123.417 E7.7961
G1 X137.2 Y123.869 E7.81113
G1 X137.16 Y124.637 E7.83671
G1 X137.041 Y125.397 E7.8623
G1 X137 Y125.551 E7.8676
G1 X137 Y126.118 E7.88646
G1 X136.96 Y126.886 E7.91203
G1 X136.841 Y127.646 E7.93762
G1 X136.643 Y128.389 E7.96319
G1 X136.369 Y129.108 E7.98879
G1 X136.022 Y129.794 E8.01436
G1 X135.606 Y130.441 E8.03994
G1 X135.125 Y131.041 E8.06552
G1 X134.833 Y131.351 E8.07968
G1 X134.682 Y131.502 E8.08678
G1 X134.11 Y132.016 E8.11236
G1 X133.488 Y132.469 E8.13795
G1 X132.823 Y132.855 E8.16353
G1 X132.121 Y133.17 E8.18912
G1 X131.39 Y133.41 E8.21471
G1 X130.639 Y133.573 E8.24027
G1 X129.874 Y133.657 E8.26587
G1 X129.449 Y133.669 E8.28001
G1 X127.651 Y133.669 E8.33981
G1 X126.883 Y133.629 E8.36539
G1 X126.123 Y133.51 E8.39097
G1 X125.38 Y133.312 E8.41655
G1 X124.661 Y133.038 E8.44214
G1 X123.975 Y132.691 E8.46771
G1 X123.328 Y132.275 E8.49329
G1 X122.728 Y131.794 E8.51887
G1 X122.418 Y131.502 E8.53303
G1 X122.267 Y131.351 E8.54014
G1 X121.753 Y130.779 E8.56571
G1 X121.3 Y130.157 E8.59131
G1 X120.914 Y129.492 E8.61688
G1 X120.599 Y128.79 E8.64247
G1 X120.359 Y128.059 E8.66806
G1 X120.196 Y127.308 E8.69362
G1 X120.112 Y126.543 E8.71922
G1 X120.1 Y126.118 E8.73336
G1 X120.1 Y123.617 E8.81654
G1 X120.14 Y122.849 E8.84212
G1 X120.259 Y122.089 E8.86771
G1 X120.298 Y121.944 E8.8727
G1 X120.295 Y121.036 E8.9029
G1 X114.7 Y121.036 E9.08899
G1 X114.7 Y121.909 E9.11803
G1 X114.702 Y121.916 E9.11827
G1 X114.839 Y122.672 E9.14382
G1 X114.9 Y123.617 E9.17532
G1 X114.9 Y126.118 E9.2585
G1 X114.86 Y126.886 E9.28408
G1 X114.741 Y127.646 E9.30967
G1 X114.543 Y128.389 E9.33524
G1 X114.269 Y129.108 E9.36084
G1 X113.922 Y129.794 E9.3864
G1 X113.506 Y130.441 E9.41199
G1 X113.025 Y131.041 E9.43757
G1 X112.733 Y131.351 E9.45173
G1 X112.582 Y131.502 E9.45883
G1 X112.01 Y132.016 E9.48441
G1 X111.388 Y132.469 E9.51
G1 X110.723 Y132.855 E9.53558
G1 X110.021 Y133.17 E9.56117
G1 X109.29 Y133.41 E9.58676
G1 X108.539 Y133.573 E9.61232
G1 X107.774 Y133.657 E9.63791
G1 X107.349 Y133.669 E9.65206
G1 X105.551 Y133.669 E9.71186
G1 X104.783 Y133.629 E9.73744
G1 X104.023 Y133.51 E9.76302
G1 X103.28 Y133.312 E9.7886
G1 X102.561 Y133.038 E9.81419
G1 X101.875 Y132.691 E9.83976
G1 X101.228 Y132.275 E9.86534
G1 X100.628 Y131.794 E9.89092
G1 X100.318 Y131.502 E9.90508
G1 X100.167 Y131.351 E9.91219
G1 X99.653 Y130.779 E9.93776
G1 X99.2 Y130.157 E9.96336
G1 X98.814 Y129.492 E9.98893
G1 X98.499 Y128.79 E10.01452
G1 X98.259 Y128.059 E10.04011
G1 X98.096 Y127.308 E10.06567
G1 X98.012 Y126.543 E10.09127
G1 X98 Y126.118 E10.10541
G1 X98 Y125.538 E10.1247
G1 X97.896 Y125.059 E10.141
G1 X97.812 Y124.294 E10.1666
G1 X97.8 Y123.869 E10.18074
G1 X97.8 Y123.417 E10.19577
G1 X97.84 Y122.649 E10.22135
G1 X97.959 Y121.889 E10.24694
G1 X98.157 Y121.146 E10.27251
G1 X98.2 Y121.033 E10.27653
G1 X98.2 Y116.703 E10.42055
G1 X97.83 Y115.913 E10.44957
G1 X97.646 Y115.449 E10.46617
G1 X97.4 Y114.72 E10.49176
G1 X97.246 Y114.036 E10.51508
G1 X97.047 Y113.786 E10.5257
G1 X96.633 Y113.137 E10.55131
G1 X96.289 Y112.45 E10.57686
G1 X96.018 Y111.73 E10.60245
G1 X95.823 Y110.986 E10.62803
G1 X95.707 Y110.225 E10.65363
G1 X95.671 Y109.395 E10.68127
G1 X95.687 Y108.111 E10.72398
G1 X95.736 Y107.343 E10.74957
G1 X95.865 Y106.585 E10.77515
G1 X96.072 Y105.844 E10.80073
G1 X96.355 Y105.129 E10.82631
G1 X96.71 Y104.447 E10.85188
G1 X96.972 Y104.035 E10.86812
G1 X98.756 Y101.418 E10.97346
G1 X99.221 Y100.806 E10.99903
G1 X99.748 Y100.245 E11.02463
M204 S5000
M205 X30 Y30
G0 F3600 X100.055 Y100.506
M204 S500
M205 X20 Y20
G1 F1500 X100.624 Y100.021 E11.0495
G1 X101.242 Y99.599 E11.07439
G1 X101.902 Y99.246 E11.09928
G1 X102.595 Y98.966 E11.12414
G1 X103.315 Y98.761 E11.14904
G1 X104.052 Y98.634 E11.17391
G1 X104.87 Y98.586 E11.20117
G1 X106.109 Y98.586 E11.24238
G1 X106.856 Y98.626 E11.26726
G1 X107.594 Y98.745 E11.29212
G1 X108.316 Y98.943 E11.31702
G1 X109.012 Y99.216 E11.34189
G1 X109.675 Y99.563 E11.36678
G1 X110.298 Y99.978 E11.39167
G1 X111.059 Y100.636 E11.42513
G1 X111.176 Y100.753 E11.43064
G1 X111.676 Y101.31 E11.45553
G1 X112.113 Y101.916 E11.48038
G1 X112.484 Y102.566 E11.50527
G1 X112.783 Y103.252 E11.53016
G1 X113.007 Y103.966 E11.55505
G1 X113.154 Y104.699 E11.57992
G1 X113.164 Y104.836 E11.58449
G1 X113.649 Y104.836 E11.60062
G1 X113.932 Y104.775 E11.61025
G1 X114.675 Y104.696 E11.6351
G1 X115.054 Y104.686 E11.64771
G1 X120.007 Y104.694 E11.81245
G1 X120.754 Y104.735 E11.83733
G1 X121.371 Y104.836 E11.85812
G1 X121.833 Y104.836 E11.87349
G1 X121.934 Y104.216 E11.89438
G1 X122.131 Y103.495 E11.91924
G1 X122.405 Y102.799 E11.94412
G1 X122.751 Y102.136 E11.96899
G1 X123.166 Y101.513 E11.99389
G1 X123.824 Y100.753 E12.02733
G1 X123.941 Y100.636 E12.03283
G1 X124.498 Y100.136 E12.05773
G1 X125.104 Y99.699 E12.08258
G1 X125.754 Y99.328 E12.10747
G1 X126.44 Y99.029 E12.13236
G1 X127.154 Y98.805 E12.15725
G1 X127.887 Y98.658 E12.18211
G1 X128.632 Y98.591 E12.20699
G1 X129.149 Y98.591 E12.22419
G1 X130.478 Y98.64 E12.26842
G1 X131.223 Y98.707 E12.2933
G1 X131.956 Y98.854 E12.31816
G1 X132.67 Y99.078 E12.34305
G1 X133.356 Y99.377 E12.36794
G1 X134.006 Y99.747 E12.39282
G1 X134.613 Y100.185 E12.41771
G1 X135.169 Y100.685 E12.44258
G1 X135.669 Y101.241 E12.46745
G1 X136.084 Y101.812 E12.49093
G1 X137.794 Y104.435 E12.59508
G1 X138.168 Y105.083 E12.61996
G1 X138.472 Y105.767 E12.64486
G1 X138.7 Y106.479 E12.66972
G1 X138.851 Y107.212 E12.69461
G1 X138.93 Y108.258 E12.7295
G1 X138.93 Y109.487 E12.77038
G1 X138.89 Y110.234 E12.79526
G1 X138.771 Y110.972 E12.82012
G1 X138.573 Y111.694 E12.84502
G1 X138.3 Y112.39 E12.86989
G1 X137.953 Y113.053 E12.89478
G1 X137.538 Y113.676 E12.91968
G1 X137.366 Y113.888 E12.92876
G1 X137.304 Y114.264 E12.94143
G1 X137.104 Y114.985 E12.96632
G1 X136.772 Y115.801 E12.99562
G1 X136.541 Y116.28 E13.0133
G1 X136.4 Y116.537 E13.02305
G1 X136.4 Y121.097 E13.17472
G1 X136.434 Y121.183 E13.1778
G1 X136.635 Y121.904 E13.20269
G1 X136.757 Y122.642 E13.22757
G1 X136.8 Y123.417 E13.25339
G1 X136.8 Y123.869 E13.26842
G1 X136.76 Y124.616 E13.2933
G1 X136.641 Y125.354 E13.31816
G1 X136.6 Y125.504 E13.32334
G1 X136.6 Y126.118 E13.34376
G1 X136.56 Y126.865 E13.36864
G1 X136.441 Y127.603 E13.3935
G1 X136.243 Y128.325 E13.4184
G1 X135.97 Y129.021 E13.44327
G1 X135.623 Y129.684 E13.46816
G1 X135.208 Y130.307 E13.49306
G1 X134.55 Y131.068 E13.52652
G1 X134.399 Y131.219 E13.53362
G1 X133.842 Y131.719 E13.55851
G1 X133.236 Y132.156 E13.58336
G1 X132.586 Y132.527 E13.60826
G1 X131.9 Y132.826 E13.63315
G1 X131.186 Y133.05 E13.65803
G1 X130.453 Y133.197 E13.6829
G1 X129.449 Y133.269 E13.71638
G1 X127.651 Y133.269 E13.77618
G1 X126.904 Y133.229 E13.80106
G1 X126.166 Y133.11 E13.82592
G1 X125.444 Y132.912 E13.85082
G1 X124.748 Y132.639 E13.87569
G1 X124.085 Y132.292 E13.90058
G1 X123.462 Y131.877 E13.92548
G1 X122.701 Y131.219 E13.95894
G1 X122.55 Y131.068 E13.96604
G1 X122.05 Y130.511 E13.99094
G1 X121.613 Y129.905 E14.01579
G1 X121.242 Y129.255 E14.04068
G1 X120.943 Y128.569 E14.06557
G1 X120.719 Y127.855 E14.09046
G1 X120.572 Y127.122 E14.11532
