;FLAVOR:Marlin
;TIME:2592
;Filament used: 1.30491m
;Layer height: 0.12
;Generated with Cura_SteamEngine master
M140 S60
M105
M190 S60
M104 S200
M105
M109 S200
M82 ;absolute extrusion mode
; Ender 3 Custom Start G-code
G28 ; Home all axes
G92 E0 ; Reset Extruder
G1 Z2.0 F3000 ; Move Z Axis up little to prevent scratching of Heat Bed
G1 X0.1 Y20 Z0.3 F5000.0 ; Move to start position
G1 X0.1 Y200.0 Z0.3 F1500.0 E15 ; Draw the first line
G1 X0.4 Y200.0 Z0.3 F5000.0 ; Move to side a little
G1 X0.4 Y20 Z0.3 F1500.0 E30 ; Draw the second line
G92 E0 ; Reset Extruder
G1 Z2.0 F3000 ; Move Z Axis up little to prevent scratching of Heat Bed
; End of custom start GCode
G92 E0
G1 F3600 E-10
;LAYER_COUNT:132
;LAYER:0
M107
M204 S5000
M205 X30 Y30
G0 F3600 X92.698 Y106.521 Z0.2
M204 S500
M205 X20 Y20
;TYPE:SKIRT
G1 F3600 E0
G1 F1500 X93.28 Y106.105 E0.02379
G1 X93.955 Y105.731 E0.04946
G1 X96.048 Y104.733 E0.12658
G1 X96.71 Y104.462 E0.15037
G1 X97.398 Y104.266 E0.17417
G1 X97.915 Y104.172 E0.19165
G1 X104.138 Y103.3 E0.40065
G1 X108.218 Y102.499 E0.53894
G1 X108.576 Y102.439 E0.55101
G1 X115.327 Y101.507 E0.77768
G1 X120.54 Y100.482 E0.95438
G1 X123.066 Y99.873 E1.04081
G1 X128.202 Y98.4 E1.21852
G1 X132.257 Y97.02 E1.36098
G1 X132.946 Y96.828 E1.38477
G1 X133.652 Y96.714 E1.40856
G1 X134.324 Y96.679 E1.43094
G1 X135.659 Y96.68 E1.47534
G1 X136.373 Y96.721 E1.49913
G1 X137.078 Y96.84 E1.52291
G1 X137.765 Y97.038 E1.54669
G1 X138.426 Y97.312 E1.57049
G1 X139.231 Y97.773 E1.60134
G1 X141.869 Y99.551 E1.70715
G1 X142.439 Y99.983 E1.73094
G1 X142.957 Y100.476 E1.75472
G1 X143.417 Y101.024 E1.77852
G1 X143.812 Y101.62 E1.8023
G1 X144.139 Y102.256 E1.82609
G1 X144.393 Y102.925 E1.84989
G1 X144.571 Y103.618 E1.87368
G1 X144.67 Y104.326 E1.89746
G1 X144.692 Y104.881 E1.91594
G1 X144.687 Y106.283 E1.96257
G1 X144.656 Y106.886 E1.98265
G1 X144.531 Y108.155 E2.02506
G1 X144.098 Y114.879 E2.24916
G1 X144.096 Y120.145 E2.42431
G1 X144.397 Y125.514 E2.60317
G1 X144.673 Y128.529 E2.70387
G1 X144.7 Y129.189 E2.72584
G1 X144.687 Y130.263 E2.76156
G1 X144.638 Y130.977 E2.78536
G1 X144.51 Y131.681 E2.80916
G1 X144.304 Y132.366 E2.83295
G1 X144.024 Y133.024 E2.85674
G1 X143.671 Y133.646 E2.88052
G1 X143.251 Y134.225 E2.90432
G1 X142.77 Y134.754 E2.9281
G1 X142.232 Y135.226 E2.9519
G1 X141.808 Y135.53 E2.96925
G1 X139.182 Y137.26 E3.07384
G1 X138.564 Y137.62 E3.09763
G1 X137.909 Y137.908 E3.12143
G1 X137.226 Y138.122 E3.14524
G1 X136.524 Y138.258 E3.16902
G1 X135.68 Y138.316 E3.19716
G1 X134.32 Y138.32 E3.24239
G1 X133.606 Y138.282 E3.26617
G1 X132.9 Y138.165 E3.28997
G1 X132.212 Y137.969 E3.31377
G1 X131.639 Y137.74 E3.33429
G1 X126.774 Y135.515 E3.51222
G1 X121.437 Y133.218 E3.70547
G1 X116.423 Y131.403 E3.88283
G1 X114.014 Y130.644 E3.96684
G1 X108.771 Y129.235 E4.14741
G1 X106.276 Y128.679 E4.23242
G1 X101.049 Y127.741 E4.40905
G1 X95.935 Y127.108 E4.58044
G1 X95.231 Y126.98 E4.60424
G1 X94.546 Y126.775 E4.62802
G1 X93.888 Y126.495 E4.65181
G1 X93.266 Y126.143 E4.67558
G1 X92.686 Y125.724 E4.69938
G1 X92.157 Y125.242 E4.72318
G1 X91.685 Y124.705 E4.74696
G1 X91.276 Y124.119 E4.77073
G1 X90.934 Y123.49 E4.79454
G1 X90.665 Y122.827 E4.81834
G1 X90.472 Y122.138 E4.84214
G1 X90.357 Y121.433 E4.86589
G1 X90.321 Y120.764 E4.88818
G1 X90.31 Y111.516 E5.19577
G1 X90.349 Y110.801 E5.21958
G1 X90.468 Y110.096 E5.24336
G1 X90.664 Y109.408 E5.26716
G1 X90.936 Y108.747 E5.29093
G1 X91.28 Y108.12 E5.31472
G1 X91.692 Y107.535 E5.33852
G1 X92.167 Y107 E5.36231
G1 X92.698 Y106.521 E5.3861
M204 S5000
M205 X30 Y30
G0 F3600 X93.088 Y106.725
M204 S500
M205 X20 Y20
G1 F1500 X93.663 Y106.339 E5.40913
G1 X94.128 Y106.092 E5.42664
G1 X96.221 Y105.094 E5.50377
G1 X96.862 Y104.833 E5.52678
G1 X97.529 Y104.647 E5.54982
G1 X97.971 Y104.568 E5.56475
G1 X104.196 Y103.696 E5.77382
G1 X108.295 Y102.891 E5.91275
G1 X108.631 Y102.835 E5.92408
G1 X115.405 Y101.9 E6.15152
G1 X120.619 Y100.875 E6.32826
G1 X123.151 Y100.264 E6.41489
G1 X128.339 Y98.776 E6.5944
G1 X132.386 Y97.399 E6.73659
G1 X133.053 Y97.214 E6.75961
G1 X133.738 Y97.107 E6.78267
G1 X134.323 Y97.079 E6.80215
G1 X135.658 Y97.08 E6.84655
G1 X136.35 Y97.12 E6.8696
G1 X137.032 Y97.24 E6.89263
G1 X137.696 Y97.438 E6.91568
G1 X138.332 Y97.711 E6.9387
G1 X139.007 Y98.105 E6.9647
G1 X141.645 Y99.883 E7.0705
G1 X142.196 Y100.302 E7.09353
G1 X142.695 Y100.782 E7.11656
G1 X143.136 Y101.317 E7.13962
G1 X143.511 Y101.899 E7.16264
G1 X143.818 Y102.52 E7.18568
G1 X144.05 Y103.172 E7.2087
G1 X144.206 Y103.847 E7.23174
G1 X144.292 Y104.879 E7.26619
G1 X144.287 Y106.281 E7.31282
G1 X144.258 Y106.847 E7.33167
G1 X144.133 Y108.121 E7.37425
G1 X143.698 Y114.869 E7.59915
G1 X143.696 Y120.15 E7.7748
G1 X143.999 Y125.545 E7.95452
G1 X144.275 Y128.566 E8.05542
G1 X144.3 Y129.185 E8.07602
G1 X144.287 Y130.259 E8.11175
G1 X144.238 Y130.949 E8.13475
G1 X144.111 Y131.63 E8.15779
G1 X143.905 Y132.292 E8.18085
G1 X143.625 Y132.925 E8.20387
G1 X143.274 Y133.522 E8.22691
G1 X142.857 Y134.074 E8.24992
G1 X142.378 Y134.575 E8.27297
G1 X141.588 Y135.196 E8.30639
G1 X138.962 Y136.926 E8.41098
G1 X138.363 Y137.273 E8.43401
G1 X137.727 Y137.549 E8.45707
G1 X137.064 Y137.75 E8.48011
G1 X136.383 Y137.872 E8.50312
G1 X135.679 Y137.916 E8.52658
G1 X134.319 Y137.92 E8.57182
G1 X133.627 Y137.882 E8.59487
G1 X132.945 Y137.765 E8.61788
G1 X132.28 Y137.569 E8.64094
G1 X131.806 Y137.376 E8.65796
G1 X126.936 Y135.149 E8.83607
G1 X121.595 Y132.85 E9.02947
G1 X116.559 Y131.027 E9.20761
G1 X114.098 Y130.251 E9.29343
G1 X108.87 Y128.846 E9.47349
G1 X106.388 Y128.293 E9.55806
G1 X101.094 Y127.343 E9.73695
G1 X95.984 Y126.711 E9.90821
G1 X95.303 Y126.586 E9.93124
G1 X94.641 Y126.384 E9.95426
G1 X94.006 Y126.107 E9.9773
G1 X93.408 Y125.758 E10.00033
G1 X92.853 Y125.343 E10.02338
G1 X92.351 Y124.867 E10.04639
G1 X91.906 Y124.336 E10.06943
G1 X91.526 Y123.757 E10.09247
G1 X91.214 Y123.139 E10.11549
G1 X90.976 Y122.488 E10.13854
G1 X90.815 Y121.815 E10.16156
G1 X90.732 Y121.127 E10.18461
G1 X90.721 Y120.763 E10.19672
G1 X90.71 Y111.515 E10.50431
G1 X90.749 Y110.824 E10.52733
G1 X90.868 Y110.141 E10.55039
G1 X91.064 Y109.477 E10.57342
G1 X91.336 Y108.84 E10.59645
G1 X91.679 Y108.239 E10.61947
G1 X92.089 Y107.681 E10.6425
G1 X92.561 Y107.174 E10.66554
G1 X93.088 Y106.725 E10.68857
M204 S5000
M205 X30 Y30
G0 F3600 X92.954 Y107.355
M204 S500
M205 X20 Y20
G1 F1500 X93.476 Y106.936 E10.71083
G1 X94.3 Y106.453 E10.7426
G1 X96.393 Y105.455 E10.81972
G1 X97.013 Y105.204 E10.84197
G1 X97.658 Y105.028 E10.8642
G1 X98.026 Y104.964 E10.87663
G1 X104.274 Y104.089 E11.08646
G1 X108.372 Y103.284 E11.22537
G1 X108.685 Y103.232 E11.23592
G1 X115.45 Y102.298 E11.46306
G1 X120.72 Y101.262 E11.6417
G1 X123.258 Y100.65 E11.72853
G1 X128.458 Y99.159 E11.90845
G1 X132.515 Y97.778 E12.05099
G1 X133.16 Y97.6 E12.07325
G1 X133.822 Y97.501 E12.09551
G1 X134.323 Y97.479 E12.11219
G1 X135.658 Y97.48 E12.15659
G1 X136.326 Y97.52 E12.17885
G1 X136.984 Y97.64 E12.2011
G1 X137.623 Y97.838 E12.22335
G1 X138.235 Y98.11 E12.24562
G1 X138.784 Y98.436 E12.26686
G1 X141.422 Y100.214 E12.37267
G1 X141.953 Y100.621 E12.39492
G1 X142.432 Y101.088 E12.41717
G1 X142.853 Y101.608 E12.43942
G1 X143.208 Y102.175 E12.46167
G1 X143.492 Y102.781 E12.48393
G1 X143.703 Y103.416 E12.50619
G1 X143.836 Y104.071 E12.52842
G1 X143.892 Y104.878 E12.55532
G1 X143.887 Y106.28 E12.60195
G1 X143.86 Y106.808 E12.61954
G1 X143.731 Y108.116 E12.66325
G1 X143.298 Y114.843 E12.88746
G1 X143.296 Y120.172 E13.0647
G1 X143.598 Y125.547 E13.24375
G1 X143.877 Y128.602 E13.34579
G1 X143.9 Y129.18 E13.36503
G1 X143.887 Y130.254 E13.40075
G1 X143.839 Y130.921 E13.42299
G1 X143.711 Y131.578 E13.44526
G1 X143.507 Y132.215 E13.4675
G1 X143.227 Y132.823 E13.48977
G1 X142.878 Y133.393 E13.512
G1 X142.462 Y133.918 E13.53427
G1 X141.988 Y134.389 E13.5565
G1 X141.368 Y134.862 E13.58244
G1 X138.742 Y136.592 E13.68703
G1 X138.162 Y136.926 E13.70929
G1 X137.547 Y137.189 E13.73154
G1 X136.904 Y137.376 E13.75381
G1 X136.244 Y137.486 E13.77606
G1 X135.677 Y137.516 E13.79495
G1 X134.317 Y137.52 E13.84018
G1 X133.65 Y137.482 E13.8624
G1 X132.991 Y137.365 E13.88466
G1 X132.351 Y137.169 E13.90693
G1 X131.972 Y137.013 E13.92056
G1 X127.082 Y134.776 E14.09941
G1 X121.738 Y132.476 E14.29291
G1 X116.675 Y130.644 E14.472
G1 X114.224 Y129.871 E14.55747
G1 X108.969 Y128.459 E14.73846
G1 X106.449 Y127.897 E14.82433
G1 X101.158 Y126.948 E15.00312
G1 X96.034 Y126.314 E15.17484
G1 X95.376 Y126.192 E15.1971
G1 X94.737 Y125.993 E15.21936
G1 X94.127 Y125.719 E15.2416
G1 X93.553 Y125.374 E15.26388
G1 X93.025 Y124.963 E15.28613
G1 X92.55 Y124.492 E15.30838
G1 X92.134 Y123.968 E15.33063
G1 X91.784 Y123.398 E15.35288
G1 X91.504 Y122.791 E15.37511
G1 X91.298 Y122.154 E15.39738
G1 X91.17 Y121.497 E15.41964
G1 X91.121 Y120.763 E15.44411
G1 X91.11 Y111.515 E15.7517
G1 X91.149 Y110.847 E15.77396
G1 X91.268 Y110.188 E15.79623
G1 X91.464 Y109.549 E15.81846
G1 X91.735 Y108.937 E15.84072
G1 X92.077 Y108.362 E15.86297
G1 X92.485 Y107.832 E15.88522
G1 X92.954 Y107.355 E15.90747
M204 S5000
M205 X30 Y30
G0 F3600 X93.346 Y107.543
M204 S500
M205 X20 Y20
G1 F1500 X93.862 Y107.157 E15.9289
G1 X94.472 Y106.814 E15.95218
G1 X96.565 Y105.816 E16.0293
G1 X97.163 Y105.575 E16.05074
G1 X98.082 Y105.36 E16.08213
G1 X104.333 Y104.484 E16.29208
G1 X108.449 Y103.676 E16.43159
G1 X108.74 Y103.628 E16.4414
G1 X115.531 Y102.691 E16.66941
G1 X120.79 Y101.657 E16.84767
G1 X123.354 Y101.038 E16.9354
G1 X128.571 Y99.542 E17.11591
G1 X132.644 Y98.156 E17.25901
G1 X133.266 Y97.987 E17.28044
G1 X133.904 Y97.896 E17.30188
G1 X134.323 Y97.879 E17.31583
G1 X135.658 Y97.88 E17.36023
G1 X136.301 Y97.92 E17.38166
G1 X136.935 Y98.04 E17.40312
G1 X137.549 Y98.237 E17.42457
G1 X138.133 Y98.509 E17.44599
G1 X138.56 Y98.768 E17.4626
G1 X141.198 Y100.546 E17.56841
G1 X141.71 Y100.939 E17.58988
G1 X142.168 Y101.392 E17.6113
G1 X142.567 Y101.898 E17.63274
G1 X142.901 Y102.45 E17.6542
G1 X143.163 Y103.039 E17.67564
G1 X143.351 Y103.655 E17.69706
G1 X143.461 Y104.29 E17.71849
G1 X143.492 Y104.877 E17.73804
G1 X143.487 Y106.279 E17.78467
G1 X143.462 Y106.769 E17.80099
G1 X143.333 Y108.082 E17.84487
G1 X142.898 Y114.832 E18.06985
G1 X142.896 Y120.177 E18.24762
G1 X143.201 Y125.606 E18.42848
G1 X143.478 Y128.639 E18.52977
G1 X143.5 Y129.175 E18.54762
G1 X143.487 Y130.249 E18.58334
G1 X143.439 Y130.892 E18.60479
G1 X143.312 Y131.524 E18.62623
G1 X143.108 Y132.135 E18.64765
G1 X142.83 Y132.717 E18.6691
G1 X142.481 Y133.26 E18.69057
G1 X142.069 Y133.755 E18.71199
G1 X141.598 Y134.195 E18.73343
G1 X141.148 Y134.528 E18.75205
G1 X138.522 Y136.258 E18.85664
G1 X137.962 Y136.579 E18.87811
G1 X137.368 Y136.828 E18.89953
G1 X136.747 Y137.001 E18.92097
G1 X136.109 Y137.097 E18.94243
G1 X135.676 Y137.116 E18.95685
G1 X134.316 Y137.12 E19.00208
G1 X133.673 Y137.082 E19.0235
G1 X133.039 Y136.965 E19.04495
G1 X132.138 Y136.649 E19.0767
G1 X127.227 Y134.403 E19.25632
G1 X121.895 Y132.108 E19.44939
G1 X116.812 Y130.268 E19.62919
G1 X114.335 Y129.487 E19.71557
G1 X109.041 Y128.065 E19.89789
G1 X106.533 Y127.506 E19.98335
G1 X101.224 Y126.553 E20.16275
G1 X96.083 Y125.917 E20.33505
G1 X95.449 Y125.798 E20.3565
G1 X94.835 Y125.602 E20.37794
G1 X94.25 Y125.331 E20.39938
G1 X93.703 Y124.99 E20.42082
G1 X93.202 Y124.584 E20.44227
G1 X92.755 Y124.119 E20.46372
G1 X92.37 Y123.603 E20.48514
G1 X92.051 Y123.043 E20.50657
G1 X91.804 Y122.447 E20.52803
G1 X91.632 Y121.826 E20.54946
G1 X91.539 Y121.188 E20.57091
G1 X91.521 Y120.762 E20.58509
G1 X91.51 Y111.514 E20.89268
G1 X91.549 Y110.871 E20.9141
G1 X91.668 Y110.237 E20.93556
G1 X91.864 Y109.623 E20.957
G1 X92.134 Y109.038 E20.97843
G1 X92.475 Y108.49 E20.99989
G1 X92.881 Y107.99 E21.02131
G1 X93.346 Y107.543 E21.04277
M204 S5000
M205 X30 Y30
G1 F3600 E11.04277
;MESH:dragchain-side.stl
G0 F3600 X97.314 Y110.835
G0 X97.314 Y112.114
G0 X98.1 Y120.002
G0 X98.2 Y120.002
M204 S500
M205 X20 Y20
;TYPE:WALL-INNER
G1 F3600 E21.04277
G1 F1500 X98.2 Y120.003 E21.0428
G1 X98.2 Y120.212 E21.04975
G1 X97.991 Y120.202 E21.0542
G1 X97.3 Y120.165 E21.07721
G1 X97.3 Y112.1 E21.34546
G1 X98.2 Y112.1 E21.37539
G1 X98.2 Y120.002 E21.63821
M204 S5000
M205 X30 Y30
G1 F3600 E11.63821
G0 F3600 X98.1 Y120.002
G0 X98.18 Y118.83
G0 X99.465 Y118.83
G0 X122.135 Y118.83
G0 X123.42 Y118.83
G0 X131.12 Y118.83
G0 X131.05 Y118.9
M204 S500
M205 X20 Y20
G1 F3600 E21.63821
G1 F1500 X124.3 Y118.9 E21.86272
G1 X124.3 Y120.166 E21.90483
G1 X123.609 Y120.203 E21.92784
G1 X123.4 Y120.214 E21.9348
G1 X123.4 Y120.005 E21.93923
G1 X123.4 Y120.004 E21.93927
G1 X123.4 Y110.9 E22.24207
G1 X110.04 Y110.9 E22.68642
G1 X110.04 Y109.511 E22.73262
G1 X110.04 Y109.343 E22.73821
G1 X110.083 Y109.296 E22.74033
G1 X110.251 Y109.296 E22.74592
G1 X127 Y109.3 E23.30299
G1 X129.084 Y110.1 E23.37724
G1 X131.06 Y110.1 E23.44296
G1 X131.06 Y105.327 E23.60171
G1 X131.119 Y105.185 E23.60682
G1 X131.265 Y105.125 E23.61207
G1 X134.623 Y105.125 E23.72376
G1 X134.823 Y103.67 E23.77261
G1 X135.478 Y103.67 E23.79439
G1 X137.7 Y105.134 E23.8829
G1 X137.7 Y105.626 E23.89926
G1 X131.5 Y105.627 E24.10547
G1 X131.5 Y114.981 E24.41659
G1 X131.6 Y115.221 E24.42524
G1 X131.599 Y119.783 E24.57697
G1 X131.5 Y120.018 E24.58545
G1 X131.5 Y129.372 E24.89657
G1 X137.7 Y129.374 E25.10278
G1 X137.7 Y129.866 E25.11914
G1 X135.478 Y131.33 E25.20765
G1 X134.823 Y131.33 E25.22943
G1 X134.623 Y129.875 E25.27828
G1 X131.265 Y129.875 E25.38997
G1 X131.119 Y129.815 E25.39522
G1 X131.06 Y129.673 E25.40033
G1 X131.05 Y124.737 E25.5645
G1 X131.05 Y118.9 E25.75864
M204 S5000
M205 X30 Y30
G0 F3600 X131.12 Y118.83
G0 X131.16 Y109.7
G0 X130.66 Y109.7
M204 S500
M205 X20 Y20
;TYPE:WALL-OUTER
G1 F1500 X130.66 Y105.249 E25.90668
G1 X130.814 Y104.878 E25.92004
G1 X131.185 Y104.725 E25.93339
G1 X134.274 Y104.725 E26.03613
G1 X134.474 Y103.27 E26.08498
G1 X135.598 Y103.27 E26.12237
G1 X138.1 Y104.919 E26.22203
G1 X138.1 Y106.026 E26.25885
G1 X131.9 Y106.027 E26.46506
G1 X131.9 Y114.901 E26.76021
G1 X132 Y115.141 E26.76886
G1 X131.999 Y119.864 E26.92595
G1 X131.9 Y120.099 E26.93443
G1 X131.9 Y128.972 E27.22955
G1 X138.1 Y128.974 E27.43576
G1 X138.1 Y130.081 E27.47258
G1 X135.598 Y131.73 E27.57224
G1 X134.474 Y131.73 E27.60963
G1 X134.274 Y130.275 E27.65848
G1 X131.185 Y130.275 E27.76122
G1 X130.814 Y130.122 E27.77457
G1 X130.66 Y129.751 E27.78793
G1 X130.66 Y127.221 E27.87207
G1 X130.65 Y124.737 E27.95469
G1 X130.65 Y119.3 E28.13553
G1 X124.7 Y119.3 E28.33343
G1 X124.7 Y120.545 E28.37483
G1 X123.369 Y120.616 E28.41917
G1 X123.337 Y120.617 E28.42023
G1 X123 Y120.616 E28.43144
G1 X123 Y120.583 E28.43248
G1 X123 Y111.3 E28.74123
G1 X99 Y111.3 E29.53947
G1 X99 Y110.7 E29.55943
G1 X109.64 Y110.7 E29.91332
G1 X109.64 Y109.188 E29.96361
G1 X109.907 Y108.896 E29.97677
G1 X127.4 Y108.896 E30.55859
G1 X127.4 Y109.025 E30.56288
G1 X129.158 Y109.7 E30.62551
G1 X130.66 Y109.7 E30.67547
M204 S5000
M205 X30 Y30
G0 F3600 X130.66 Y109.5
G1 F3600 E20.67547
G0 F3600 X131.16 Y109.5
G0 X131.088 Y110.128
G0 X128.917 Y110.338
G0 X123.413 Y120.2
G0 X122.135 Y120.2
G0 X99.452 Y121.531
G0 X97.263 Y121.429
G0 X97.18 Y120.564
G0 X97.094 Y120.465
G0 X97.282 Y120.565
M204 S500
M205 X20 Y20
G1 F3600 E30.67547
G1 F1500 X96.9 Y120.564 E30.68817
G1 X96.9 Y111.7 E30.98299
G1 X98.6 Y111.7 E31.03953
G1 X98.6 Y120.423 E31.32966
G1 X98.6 Y120.424 E31.32969
G1 X98.6 Y120.633 E31.33665
G1 X98.391 Y120.623 E31.34109
G1 X97.282 Y120.565 E31.37803
M204 S5000
M205 X30 Y30
G0 F3600 X97.082 Y120.565
G0 X97.69 Y119.794
M204 S500
M205 X20 Y20
;TYPE:SKIN
G1 F1500 X97.69 Y112.49 E31.62096
G1 X97.81 Y112.49 E31.62495
G1 X97.81 Y119.801 E31.86812
G1 X97.69 Y119.794 E31.87211
M204 S5000
M205 X30 Y30
G1 F3600 E21.87211
G0 F3600 X98.186 Y112.114
G0 X98.999 Y111.301
G0 X110.068 Y110.713
G0 X110.43 Y110.51
M204 S500
M205 X20 Y20
G1 F3600 E31.87211
G1 F1500 X110.43 Y109.686 E31.89952
G1 X126.928 Y109.69 E32.44825
G1 X129.012 Y110.49 E32.52249
G1 X131.11 Y110.49 E32.59227
G1 X131.11 Y115.059 E32.74424
G1 X131.21 Y115.299 E32.75288
G1 X131.209 Y118.51 E32.85968
G1 X123.91 Y118.51 E33.10245
G1 X123.91 Y119.796 E33.14522
G1 X123.79 Y119.802 E33.14922
