;FLAVOR:Marlin
;TIME:4737
;Filament used: 2.40956m
;Layer height: 0.12
;Generated with Cura_SteamEngine master
M140 S60
M105
M190 S60
M104 S200
M105
M109 S200
M82 ;absolute extrusion mode
; Ender 3 Custom Start G-code
G28 ; Home all axes
G92 E0 ; Reset Extruder
G1 Z2.0 F3000 ; Move Z Axis up little to prevent scratching of Heat Bed
G1 X0.1 Y20 Z0.3 F5000.0 ; Move to start position
G1 X0.1 Y200.0 Z0.3 F1500.0 E15 ; Draw the first line
G1 X0.4 Y200.0 Z0.3 F5000.0 ; Move to side a little
G1 X0.4 Y20 Z0.3 F1500.0 E30 ; Draw the second line
G92 E0 ; Reset Extruder
G1 Z2.0 F3000 ; Move Z Axis up little to prevent scratching of Heat Bed
; End of custom start GCode
G92 E0
G1 F3600 E-10
;LAYER_COUNT:206
;LAYER:0
M107
M204 S5000
M205 X30 Y30
G0 F3600 X90.309 Y102.576 Z0.2
M204 S500
M205 X20 Y20
;TYPE:SKIRT
G1 F3600 E0
G1 F1500 X90.952 Y102.118 E0.02626
G1 X91.639 Y101.728 E0.05253
G1 X92.361 Y101.409 E0.07878
G1 X93.112 Y101.165 E0.10505
G1 X93.884 Y100.998 E0.13132
G1 X94.669 Y100.91 E0.15759
G1 X95.146 Y100.896 E0.17346
G1 X125.885 Y100.902 E1.19585
G1 X126.059 Y100.589 E1.20776
G1 X126.509 Y99.94 E1.23403
G1 X127.023 Y99.341 E1.26028
G1 X127.595 Y98.796 E1.28656
G1 X128.219 Y98.312 E1.31282
G1 X128.889 Y97.894 E1.33909
G1 X129.812 Y97.456 E1.37307
G1 X130.277 Y97.272 E1.3897
G1 X131.025 Y97.019 E1.41596
G1 X131.651 Y96.876 E1.43732
G1 X131.83 Y96.733 E1.44494
G1 X132.494 Y96.306 E1.4712
G1 X133.197 Y95.948 E1.49744
G1 X133.934 Y95.663 E1.52372
G1 X134.695 Y95.454 E1.54997
G1 X135.474 Y95.323 E1.57624
G1 X136.481 Y95.271 E1.60978
G1 X137.766 Y95.288 E1.65252
G1 X138.554 Y95.338 E1.67878
G1 X139.333 Y95.468 E1.70505
G1 X140.095 Y95.676 E1.73132
G1 X140.832 Y95.96 E1.75759
G1 X141.536 Y96.317 E1.78384
G1 X142.055 Y96.641 E1.80419
G1 X144.672 Y98.424 E1.90952
G1 X145.301 Y98.901 E1.93577
G1 X145.879 Y99.439 E1.96204
G1 X146.399 Y100.033 E1.98829
G1 X146.857 Y100.677 E2.01458
G1 X147.247 Y101.363 E2.04082
G1 X147.566 Y102.086 E2.06711
G1 X147.81 Y102.837 E2.09337
G1 X147.977 Y103.609 E2.11964
G1 X148.065 Y104.393 E2.14588
G1 X148.08 Y104.87 E2.16176
G1 X148.08 Y106.109 E2.20296
G1 X148.04 Y106.898 E2.22924
G1 X147.921 Y107.678 E2.25548
G1 X147.723 Y108.443 E2.28177
G1 X147.449 Y109.183 E2.30801
G1 X147.101 Y109.892 E2.33428
G1 X146.683 Y110.563 E2.36057
G1 X146.2 Y111.187 E2.38682
G1 X145.795 Y111.624 E2.40664
G1 X145.678 Y111.741 E2.41214
G1 X145.092 Y112.271 E2.43842
G1 X144.456 Y112.738 E2.46466
G1 X143.776 Y113.139 E2.49092
G1 X143.058 Y113.469 E2.5172
G1 X142.311 Y113.724 E2.54345
G1 X141.88 Y113.824 E2.55817
G1 X141.88 Y113.888 E2.5603
G1 X141.965 Y114.637 E2.58537
G1 X141.98 Y115.134 E2.60191
G1 X141.972 Y119.932 E2.76149
G1 X141.931 Y120.721 E2.78777
G1 X141.88 Y121.05 E2.79884
G1 X141.88 Y121.172 E2.8029
G1 X142.499 Y121.332 E2.82416
G1 X143.24 Y121.606 E2.85044
G1 X143.949 Y121.954 E2.87671
G1 X144.619 Y122.372 E2.90298
G1 X145.243 Y122.855 E2.92922
G1 X145.678 Y123.259 E2.94897
G1 X145.795 Y123.376 E2.95447
G1 X146.325 Y123.962 E2.98075
G1 X146.792 Y124.598 E3.00699
G1 X147.193 Y125.278 E3.03325
G1 X147.523 Y125.996 E3.05953
G1 X147.778 Y126.743 E3.08578
G1 X147.957 Y127.512 E3.11205
G1 X148.057 Y128.296 E3.13833
G1 X148.075 Y129.178 E3.16767
G1 X148.026 Y130.507 E3.21191
G1 X147.957 Y131.294 E3.23818
G1 X147.809 Y132.07 E3.26446
G1 X147.583 Y132.826 E3.2907
G1 X147.281 Y133.556 E3.31698
G1 X146.908 Y134.252 E3.34324
G1 X146.466 Y134.907 E3.36952
G1 X145.96 Y135.513 E3.39578
G1 X145.396 Y136.065 E3.42203
G1 X144.49 Y136.755 E3.45991
G1 X141.866 Y138.465 E3.56408
G1 X141.183 Y138.862 E3.59035
G1 X140.464 Y139.188 E3.61661
G1 X139.715 Y139.44 E3.6429
G1 X138.945 Y139.614 E3.66915
G1 X138.161 Y139.71 E3.69542
G1 X137.607 Y139.73 E3.71386
G1 X136.378 Y139.73 E3.75474
G1 X135.589 Y139.69 E3.78101
G1 X134.809 Y139.571 E3.80726
G1 X134.044 Y139.373 E3.83354
G1 X133.304 Y139.099 E3.85978
G1 X132.595 Y138.751 E3.88605
G1 X131.924 Y138.333 E3.91235
G1 X131.66 Y138.125 E3.92353
G1 X131.516 Y138.103 E3.92837
G1 X130.752 Y137.903 E3.95464
G1 X129.724 Y137.495 E3.99142
G1 X129.244 Y137.264 E4.00914
G1 X128.55 Y136.886 E4.03542
G1 X127.899 Y136.44 E4.06167
G1 X127.296 Y135.93 E4.08794
G1 X126.747 Y135.362 E4.11421
G1 X126.283 Y134.773 E4.13915
G1 X125.647 Y134.906 E4.16076
G1 X124.862 Y134.989 E4.18702
G1 X124.44 Y135 E4.20106
G1 X94.764 Y135 E5.18809
G1 X93.975 Y134.96 E5.21436
G1 X93.195 Y134.841 E5.2406
G1 X92.43 Y134.643 E5.26689
G1 X91.69 Y134.369 E5.29313
G1 X90.981 Y134.021 E5.3194
G1 X90.31 Y133.603 E5.34569
G1 X89.686 Y133.12 E5.37194
G1 X89.249 Y132.715 E5.39176
G1 X89.015 Y132.481 E5.40276
G1 X88.485 Y131.895 E5.42904
G1 X88.018 Y131.259 E5.45529
G1 X87.617 Y130.579 E5.48154
G1 X87.287 Y129.861 E5.50783
G1 X87.032 Y129.114 E5.53408
G1 X86.853 Y128.345 E5.56034
G1 X86.753 Y127.561 E5.58663
G1 X86.73 Y126.966 E5.60643
G1 X86.73 Y126.263 E5.62981
G1 X86.539 Y125.919 E5.6429
G1 X86.227 Y125.194 E5.66915
G1 X85.99 Y124.441 E5.69541
G1 X85.831 Y123.667 E5.72169
G1 X85.75 Y122.882 E5.74794
G1 X85.74 Y122.48 E5.76131
G1 X85.74 Y119.884 E5.84765
G1 X85.78 Y119.095 E5.87393
G1 X85.899 Y118.315 E5.90017
G1 X86.097 Y117.55 E5.92646
G1 X86.371 Y116.81 E5.9527
G1 X86.719 Y116.101 E5.97897
G1 X86.813 Y115.951 E5.98486
G1 X86.753 Y115.483 E6.00055
G1 X86.73 Y114.888 E6.02036
G1 X86.73 Y112.673 E6.09403
G1 X86.77 Y111.884 E6.1203
G1 X86.889 Y111.104 E6.14655
G1 X86.935 Y110.926 E6.15266
G1 X86.95 Y109.017 E6.21616
G1 X86.996 Y108.229 E6.24241
G1 X87.122 Y107.449 E6.26869
G1 X87.326 Y106.686 E6.29496
G1 X87.606 Y105.948 E6.32121
G1 X87.959 Y105.241 E6.34749
G1 X88.382 Y104.574 E6.37376
G1 X88.87 Y103.953 E6.40003
G1 X89.321 Y103.478 E6.42182
G1 X89.715 Y103.096 E6.44007
G1 X90.309 Y102.576 E6.46633
M204 S5000
M205 X30 Y30
G0 F3600 X90.572 Y102.877
M204 S500
M205 X20 Y20
G1 F1500 X91.201 Y102.434 E6.49192
G1 X91.872 Y102.059 E6.51748
G1 X92.579 Y101.755 E6.54308
G1 X93.313 Y101.526 E6.56865
G1 X94.067 Y101.375 E6.59423
G1 X95.146 Y101.296 E6.63021
G1 X126.121 Y101.302 E7.66045
G1 X126.409 Y100.783 E7.68019
G1 X126.851 Y100.153 E7.70578
G1 X127.355 Y99.573 E7.73134
G1 X127.917 Y99.047 E7.75694
G1 X128.53 Y98.583 E7.78251
G1 X129.188 Y98.186 E7.80807
G1 X129.959 Y97.828 E7.83635
G1 X130.424 Y97.644 E7.85298
G1 X131.153 Y97.399 E7.87856
G1 X131.827 Y97.247 E7.90154
G1 X132.079 Y97.047 E7.91224
G1 X132.728 Y96.633 E7.93784
G1 X133.415 Y96.289 E7.9634
G1 X134.135 Y96.018 E7.98898
G1 X134.879 Y95.823 E8.01457
G1 X135.64 Y95.707 E8.04017
G1 X136.476 Y95.671 E8.068
G1 X137.761 Y95.688 E8.11074
G1 X138.528 Y95.738 E8.13631
G1 X139.287 Y95.867 E8.16191
G1 X140.027 Y96.075 E8.18748
G1 X140.742 Y96.358 E8.21306
G1 X141.424 Y96.714 E8.23864
G1 X141.83 Y96.971 E8.25463
G1 X144.447 Y98.754 E8.35995
G1 X145.059 Y99.22 E8.38553
G1 X145.62 Y99.747 E8.41114
G1 X146.122 Y100.328 E8.43667
G1 X146.562 Y100.959 E8.46226
G1 X146.934 Y101.633 E8.48786
G1 X147.234 Y102.341 E8.51344
G1 X147.459 Y103.076 E8.53901
G1 X147.607 Y103.831 E8.56459
G1 X147.68 Y104.87 E8.59924
G1 X147.68 Y106.109 E8.64045
G1 X147.64 Y106.877 E8.66602
G1 X147.521 Y107.637 E8.69161
G1 X147.323 Y108.38 E8.71718
G1 X147.049 Y109.099 E8.74278
G1 X146.702 Y109.785 E8.76835
G1 X146.286 Y110.432 E8.79393
G1 X145.805 Y111.032 E8.81951
G1 X145.513 Y111.342 E8.83367
G1 X145.396 Y111.459 E8.83917
G1 X144.824 Y111.973 E8.86475
G1 X144.202 Y112.426 E8.89034
G1 X143.537 Y112.812 E8.91592
G1 X142.835 Y113.127 E8.94151
G1 X142.104 Y113.367 E8.9671
G1 X141.48 Y113.502 E8.98833
G1 X141.48 Y113.919 E9.0022
G1 X141.488 Y113.957 E9.0035
G1 X141.569 Y114.722 E9.02908
G1 X141.58 Y115.133 E9.04276
G1 X141.572 Y119.931 E9.20234
G1 X141.531 Y120.699 E9.22792
G1 X141.48 Y121.019 E9.2387
G1 X141.48 Y121.5 E9.2547
G1 X141.693 Y121.534 E9.26187
G1 X142.437 Y121.732 E9.28748
G1 X143.155 Y122.006 E9.31304
G1 X143.842 Y122.353 E9.33864
G1 X144.488 Y122.77 E9.36421
G1 X145.088 Y123.251 E9.38979
G1 X145.396 Y123.541 E9.40386
G1 X145.513 Y123.658 E9.40936
G1 X146.027 Y124.23 E9.43494
G1 X146.48 Y124.852 E9.46053
G1 X146.866 Y125.517 E9.4861
G1 X147.181 Y126.219 E9.5117
G1 X147.421 Y126.95 E9.53729
G1 X147.584 Y127.701 E9.56285
G1 X147.668 Y128.466 E9.58844
G1 X147.675 Y129.164 E9.61166
G1 X147.626 Y130.493 E9.65589
G1 X147.558 Y131.259 E9.68147
G1 X147.41 Y132.014 E9.70706
G1 X147.185 Y132.749 E9.73262
G1 X146.885 Y133.457 E9.7582
G1 X146.513 Y134.131 E9.78381
G1 X146.073 Y134.762 E9.80939
G1 X145.57 Y135.343 E9.83495
G1 X145.01 Y135.87 E9.86053
G1 X144.271 Y136.42 E9.89117
G1 X141.647 Y138.13 E9.99534
G1 X140.982 Y138.516 E10.02091
G1 X140.28 Y138.83 E10.04649
G1 X139.549 Y139.071 E10.07209
G1 X138.798 Y139.234 E10.09765
G1 X138.033 Y139.318 E10.12325
G1 X137.607 Y139.33 E10.13742
G1 X136.378 Y139.33 E10.1783
G1 X135.61 Y139.29 E10.20388
G1 X134.85 Y139.171 E10.22946
G1 X134.107 Y138.973 E10.25504
G1 X133.388 Y138.699 E10.28063
G1 X132.702 Y138.352 E10.3062
G1 X132.055 Y137.936 E10.33178
G1 X131.815 Y137.744 E10.342
G1 X131.559 Y137.703 E10.35063
G1 X130.816 Y137.504 E10.37621
G1 X129.897 Y137.135 E10.40915
G1 X129.417 Y136.904 E10.42687
G1 X128.742 Y136.535 E10.45245
G1 X128.109 Y136.098 E10.47804
G1 X127.525 Y135.597 E10.50363
G1 X126.996 Y135.039 E10.5292
G1 X126.528 Y134.429 E10.55477
G1 X126.455 Y134.31 E10.55942
G1 X126.066 Y134.419 E10.57285
G1 X125.308 Y134.549 E10.59843
G1 X124.44 Y134.6 E10.62735
G1 X94.764 Y134.6 E11.61438
G1 X93.996 Y134.56 E11.63996
G1 X93.236 Y134.441 E11.66554
G1 X92.493 Y134.243 E11.69112
G1 X91.774 Y133.969 E11.71671
G1 X91.088 Y133.622 E11.74228
G1 X90.441 Y133.206 E11.76786
G1 X89.841 Y132.725 E11.79344
G1 X89.531 Y132.433 E11.8076
G1 X89.297 Y132.199 E11.81861
G1 X88.783 Y131.627 E11.84419
G1 X88.33 Y131.005 E11.86978
G1 X87.944 Y130.34 E11.89536
G1 X87.629 Y129.638 E11.92095
G1 X87.389 Y128.907 E11.94654
G1 X87.226 Y128.156 E11.9721
G1 X87.142 Y127.391 E11.99769
G1 X87.13 Y126.966 E12.01183
G1 X87.13 Y126.171 E12.03828
G1 X86.804 Y125.544 E12.06178
G1 X86.523 Y124.829 E12.08733
G1 X86.317 Y124.087 E12.11295
G1 X86.189 Y123.329 E12.13851
G1 X86.14 Y122.48 E12.1668
G1 X86.14 Y119.884 E12.25314
G1 X86.18 Y119.116 E12.27872
G1 X86.299 Y118.356 E12.30431
G1 X86.497 Y117.613 E12.32988
G1 X86.771 Y116.894 E12.35547
G1 X87.118 Y116.208 E12.38104
G1 X87.222 Y116.046 E12.38744
G1 X87.142 Y115.313 E12.41197
G1 X87.13 Y114.888 E12.42611
G1 X87.13 Y112.673 E12.49978
G1 X87.17 Y111.905 E12.52536
G1 X87.289 Y111.145 E12.55095
G1 X87.335 Y110.974 E12.55683
G1 X87.35 Y109.02 E12.62183
G1 X87.396 Y108.252 E12.64742
G1 X87.522 Y107.493 E12.67301
G1 X87.725 Y106.752 E12.69856
G1 X88.005 Y106.035 E12.72416
G1 X88.357 Y105.351 E12.74975
G1 X88.778 Y104.708 E12.77531
G1 X89.264 Y104.112 E12.80089
G1 X89.599 Y103.765 E12.81693
G1 X89.993 Y103.383 E12.83518
G1 X90.572 Y102.877 E12.86076
M204 S5000
M205 X30 Y30
G0 F3600 X90.836 Y103.179
M204 S500
M205 X20 Y20
G1 F1500 X91.449 Y102.751 E12.88562
G1 X92.104 Y102.39 E12.9105
G1 X92.795 Y102.102 E12.9354
G1 X93.512 Y101.889 E12.96028
G1 X94.247 Y101.754 E12.98513
G1 X95.145 Y101.696 E13.01506
G1 X126.36 Y101.702 E14.05328
G1 X126.395 Y101.631 E14.05591
G1 X126.759 Y100.978 E14.08077
G1 X127.191 Y100.367 E14.10566
G1 X127.686 Y99.806 E14.13055
G1 X128.237 Y99.301 E14.15541
G1 X128.84 Y98.858 E14.18029
G1 X129.486 Y98.481 E14.20517
G1 X130.106 Y98.2 E14.22781
G1 X130.571 Y98.016 E14.24444
G1 X131.281 Y97.778 E14.26935
G1 X132 Y97.62 E14.29383
G1 X132.328 Y97.36 E14.30775
G1 X132.961 Y96.961 E14.33264
G1 X133.632 Y96.631 E14.35751
G1 X134.335 Y96.375 E14.3824
G1 X135.061 Y96.195 E14.40727
G1 X135.802 Y96.094 E14.43215
G1 X136.471 Y96.071 E14.45441
G1 X137.756 Y96.088 E14.49715
G1 X138.502 Y96.137 E14.52202
G1 X139.239 Y96.267 E14.54691
G1 X139.958 Y96.474 E14.5718
G1 X140.65 Y96.756 E14.59665
G1 X141.604 Y97.302 E14.63321
G1 X144.221 Y99.085 E14.73853
G1 X144.816 Y99.539 E14.76343
G1 X145.359 Y100.053 E14.78829
G1 X145.844 Y100.623 E14.81319
G1 X146.266 Y101.241 E14.83808
G1 X146.619 Y101.9 E14.86294
G1 X146.9 Y102.594 E14.88784
G1 X147.105 Y103.313 E14.91271
G1 X147.232 Y104.05 E14.93759
G1 X147.28 Y104.87 E14.96491
G1 X147.28 Y106.109 E15.00612
G1 X147.24 Y106.856 E15.031
G1 X147.121 Y107.594 E15.05586
G1 X146.923 Y108.316 E15.08076
G1 X146.65 Y109.012 E15.10563
G1 X146.303 Y109.675 E15.13051
G1 X145.888 Y110.298 E15.15541
G1 X145.23 Y111.059 E15.18887
G1 X145.113 Y111.176 E15.19438
G1 X144.556 Y111.676 E15.21927
G1 X143.95 Y112.113 E15.24412
G1 X143.3 Y112.484 E15.26901
G1 X142.614 Y112.783 E15.2939
G1 X141.9 Y113.007 E15.31879
G1 X141.167 Y113.154 E15.34366
G1 X141.08 Y113.16 E15.34656
G1 X141.08 Y113.969 E15.37347
G1 X141.099 Y114.061 E15.37659
G1 X141.18 Y115.133 E15.41235
G1 X141.172 Y119.931 E15.57193
G1 X141.131 Y120.678 E15.59681
G1 X141.08 Y120.989 E15.60729
G1 X141.08 Y121.841 E15.63563
G1 X141.651 Y121.934 E15.65487
G1 X142.372 Y122.132 E15.67974
G1 X143.068 Y122.405 E15.70461
G1 X143.731 Y122.752 E15.7295
G1 X144.354 Y123.167 E15.75439
G1 X145.113 Y123.824 E15.78778
G1 X145.23 Y123.941 E15.79329
G1 X145.73 Y124.498 E15.81818
G1 X146.167 Y125.104 E15.84303
G1 X146.538 Y125.754 E15.86792
G1 X146.837 Y126.44 E15.89281
G1 X147.061 Y127.154 E15.9177
G1 X147.208 Y127.887 E15.94257
G1 X147.275 Y128.632 E15.96745
G1 X147.275 Y129.149 E15.98464
G1 X147.226 Y130.478 E16.02887
G1 X147.159 Y131.223 E16.05375
G1 X147.012 Y131.956 E16.07862
G1 X146.788 Y132.67 E16.10351
G1 X146.489 Y133.356 E16.1284
G1 X146.119 Y134.006 E16.15327
G1 X145.681 Y134.613 E16.17817
G1 X145.181 Y135.169 E16.20304
G1 X144.625 Y135.669 E16.22791
G1 X144.053 Y136.085 E16.25143
G1 X141.429 Y137.795 E16.3556
G1 X140.781 Y138.169 E16.38049
G1 X140.097 Y138.472 E16.40537
G1 X139.385 Y138.7 E16.43024
G1 X138.652 Y138.852 E16.45514
G1 X137.607 Y138.93 E16.48999
G1 X136.378 Y138.93 E16.53087
G1 X135.631 Y138.89 E16.55575
G1 X134.893 Y138.771 E16.58061
G1 X134.171 Y138.573 E16.60551
G1 X133.475 Y138.3 E16.63038
G1 X132.812 Y137.953 E16.65527
G1 X132.189 Y137.538 E16.68016
G1 X131.976 Y137.365 E16.68929
G1 X131.602 Y137.304 E16.70189
G1 X130.881 Y137.104 E16.72678
G1 X130.07 Y136.775 E16.75589
G1 X129.59 Y136.544 E16.77361
G1 X128.935 Y136.184 E16.79846
G1 X128.321 Y135.756 E16.82336
G1 X127.757 Y135.265 E16.84823
G1 X127.248 Y134.717 E16.87311
G1 X126.8 Y134.117 E16.89801
G1 X126.635 Y133.839 E16.90876
G1 X126.444 Y133.907 E16.91551
G1 X125.717 Y134.083 E16.94039
G1 X124.975 Y134.18 E16.96527
G1 X124.44 Y134.2 E16.98308
G1 X94.764 Y134.2 E17.97011
G1 X94.017 Y134.16 E17.99499
G1 X93.279 Y134.041 E18.01985
G1 X92.557 Y133.843 E18.04475
G1 X91.861 Y133.57 E18.06962
G1 X91.198 Y133.223 E18.09451
G1 X90.575 Y132.808 E18.11941
G1 X89.814 Y132.15 E18.15287
G1 X89.58 Y131.916 E18.16387
G1 X89.08 Y131.359 E18.18877
G1 X88.643 Y130.753 E18.21362
G1 X88.272 Y130.103 E18.23851
G1 X87.973 Y129.417 E18.2634
G1 X87.749 Y128.703 E18.28829
G1 X87.602 Y127.97 E18.31315
G1 X87.53 Y126.966 E18.34663
G1 X87.53 Y126.052 E18.37703
G1 X87.402 Y125.846 E18.3851
G1 X87.078 Y125.172 E18.40997
G1 X86.828 Y124.467 E18.43485
G1 X86.654 Y123.739 E18.45975
G1 X86.559 Y122.997 E18.48463
G1 X86.54 Y122.48 E18.50183
G1 X86.54 Y119.884 E18.58818
G1 X86.58 Y119.137 E18.61306
G1 X86.699 Y118.399 E18.63792
G1 X86.897 Y117.677 E18.66282
G1 X87.17 Y116.981 E18.68769
G1 X87.517 Y116.318 E18.71258
G1 X87.648 Y116.121 E18.72045
G1 X87.602 Y115.892 E18.72821
G1 X87.53 Y114.888 E18.76169
G1 X87.53 Y112.673 E18.83536
G1 X87.57 Y111.926 E18.86025
G1 X87.689 Y111.188 E18.88511
G1 X87.734 Y111.023 E18.8908
G1 X87.75 Y109.023 E18.95732
G1 X87.796 Y108.277 E18.98218
G1 X87.921 Y107.539 E19.00707
G1 X88.124 Y106.819 E19.03196
G1 X88.403 Y106.125 E19.05683
G1 X88.755 Y105.465 E19.08171
G1 X89.175 Y104.845 E19.10662
G1 X89.877 Y104.052 E19.14184
G1 X90.271 Y103.67 E19.1601
G1 X90.836 Y103.179 E19.18499
M204 S5000
M205 X30 Y30
G0 F3600 X91.098 Y103.481
M204 S500
M205 X20 Y20
G1 F1500 X91.696 Y103.068 E19.20917
G1 X92.335 Y102.724 E19.2333
G1 X93.008 Y102.451 E19.25746
G1 X93.708 Y102.254 E19.28164
G1 X94.424 Y102.135 E19.30579
G1 X95.145 Y102.096 E19.3298
G1 X126.609 Y102.102 E20.3763
G1 X126.754 Y101.807 E20.38723
