;FLAVOR:Marlin
;TIME:2876
;Filament used: 1.29814m
;Layer height: 0.12
;Generated with Cura_SteamEngine master
M140 S60
M105
M190 S60
M104 S200
M105
M109 S200
M82 ;absolute extrusion mode
; Ender 3 Custom Start G-code
G28 ; Home all axes
G92 E0 ; Reset Extruder
G1 Z2.0 F3000 ; Move Z Axis up little to prevent scratching of Heat Bed
G1 X0.1 Y20 Z0.3 F5000.0 ; Move to start position
G1 X0.1 Y200.0 Z0.3 F1500.0 E15 ; Draw the first line
G1 X0.4 Y200.0 Z0.3 F5000.0 ; Move to side a little
G1 X0.4 Y20 Z0.3 F1500.0 E30 ; Draw the second line
G92 E0 ; Reset Extruder
G1 Z2.0 F3000 ; Move Z Axis up little to prevent scratching of Heat Bed
; End of custom start GCode
G92 E0
G1 F3600 E-10
;LAYER_COUNT:113
;LAYER:0
M107
M204 S5000
M205 X30 Y30
G0 F3600 X96.885 Y102.542 Z0.2
M204 S500
M205 X20 Y20
;TYPE:SKIRT
G1 F3600 E0
G1 F1500 X97.848 Y101.776 E0.04093
G1 X98.255 Y101.478 E0.0577
G1 X100.464 Y99.989 E0.14631
G1 X100.901 Y99.719 E0.16339
G1 X101.661 Y99.291 E0.1924
G1 X102.352 Y98.955 E0.21796
G1 X106.314 Y97.314 E0.36059
G1 X107.137 Y97.037 E0.38947
G1 X111.588 Y95.868 E0.54254
G1 X116.761 Y94.356 E0.72179
G1 X121.756 Y92.583 E0.89808
G1 X126.67 Y90.52 E1.07534
G1 X129.381 Y89.242 E1.17502
G1 X130.044 Y88.974 E1.19881
G1 X130.733 Y88.781 E1.22261
G1 X131.439 Y88.666 E1.2464
G1 X131.833 Y88.637 E1.25954
G1 X135.17 Y88.492 E1.37063
G1 X138.533 Y88.273 E1.48272
G1 X139.248 Y88.266 E1.5065
G1 X139.96 Y88.339 E1.53031
G1 X140.659 Y88.492 E1.55411
G1 X141.336 Y88.721 E1.57788
G1 X141.984 Y89.024 E1.60167
G1 X142.594 Y89.398 E1.62547
G1 X143.399 Y90.059 E1.66011
G1 X143.614 Y90.267 E1.67006
G1 X144.099 Y90.793 E1.69386
G1 X144.523 Y91.369 E1.71765
G1 X144.88 Y91.989 E1.74144
G1 X145.166 Y92.644 E1.76522
G1 X145.376 Y93.328 E1.78901
G1 X145.509 Y94.031 E1.81281
G1 X145.564 Y94.864 E1.84058
G1 X145.581 Y132.56 E3.09435
G1 X145.541 Y133.274 E3.11814
G1 X145.422 Y133.98 E3.14195
G1 X145.225 Y134.667 E3.16572
G1 X144.953 Y135.328 E3.18949
G1 X144.608 Y135.955 E3.2133
G1 X144.196 Y136.54 E3.23709
G1 X143.877 Y136.912 E3.25339
G1 X143.664 Y137.142 E3.26382
G1 X143.149 Y137.638 E3.2876
G1 X142.582 Y138.075 E3.31141
G1 X141.97 Y138.445 E3.3352
G1 X141.321 Y138.745 E3.35898
G1 X140.838 Y138.914 E3.376
G1 X136.133 Y140.351 E3.53962
G1 X131.146 Y142.172 E3.7162
G1 X126.286 Y144.265 E3.8922
G1 X121.815 Y146.478 E4.05812
G1 X121.157 Y146.759 E4.08192
G1 X120.651 Y146.919 E4.09957
G1 X119.6 Y147.204 E4.13579
G1 X118.9 Y147.352 E4.15959
G1 X118.363 Y147.412 E4.17756
G1 X113.388 Y147.753 E4.34342
G1 X112.672 Y147.762 E4.36723
G1 X111.848 Y147.672 E4.3948
G1 X107.459 Y146.905 E4.54299
G1 X106.814 Y146.758 E4.565
G1 X106.155 Y146.571 E4.58778
G1 X105.352 Y146.284 E4.61614
G1 X101.232 Y144.494 E4.76555
G1 X100.593 Y144.173 E4.78933
G1 X99.819 Y143.649 E4.82042
G1 X97.15 Y141.544 E4.93348
G1 X96.652 Y141.108 E4.95549
G1 X94.788 Y139.296 E5.04196
G1 X94.103 Y138.512 E5.07658
G1 X92.886 Y136.866 E5.14467
G1 X92.603 Y136.45 E5.1614
G1 X91.565 Y134.787 E5.2266
G1 X91.343 Y134.402 E5.24139
G1 X90.486 Y132.79 E5.30211
G1 X90.093 Y131.891 E5.33474
G1 X89.112 Y129.074 E5.43395
G1 X88.959 Y128.569 E5.4515
G1 X88.634 Y127.31 E5.49475
G1 X88.462 Y126.34 E5.52752
G1 X88.197 Y123.662 E5.61702
G1 X88.166 Y123.032 E5.638
G1 X88.166 Y120.283 E5.72943
G1 X88.206 Y119.569 E5.75322
G1 X88.257 Y119.21 E5.76528
G1 X88.633 Y116.998 E5.83991
G1 X88.774 Y116.363 E5.86154
G1 X89.624 Y113.293 E5.96749
G1 X89.766 Y112.846 E5.98309
G1 X90.222 Y111.571 E6.02813
G1 X90.5 Y110.912 E6.05192
G1 X90.729 Y110.486 E6.068
G1 X92.286 Y107.834 E6.17029
G1 X92.825 Y107.054 E6.20182
G1 X93.822 Y105.819 E6.25461
G1 X94.053 Y105.549 E6.26643
G1 X96.12 Y103.261 E6.36898
G1 X96.885 Y102.542 E6.4039
M204 S5000
M205 X30 Y30
G0 F3600 X97.134 Y102.855
M204 S500
M205 X20 Y20
G1 F1500 X98.097 Y102.089 E6.44483
G1 X98.478 Y101.81 E6.46054
G1 X100.687 Y100.321 E6.54914
G1 X101.097 Y100.068 E6.56516
G1 X101.857 Y99.64 E6.59417
G1 X102.505 Y99.325 E6.61814
G1 X106.467 Y97.684 E6.76077
G1 X107.239 Y97.424 E6.78786
G1 X111.697 Y96.253 E6.94117
G1 X116.881 Y94.738 E7.1208
G1 X121.903 Y92.956 E7.29804
G1 X126.835 Y90.885 E7.47595
G1 X129.552 Y89.604 E7.57586
G1 X130.194 Y89.345 E7.59888
G1 X130.862 Y89.162 E7.62192
G1 X131.851 Y89.037 E7.65508
G1 X135.166 Y88.893 E7.76544
G1 X138.559 Y88.672 E7.87853
G1 X139.252 Y88.667 E7.90158
G1 X139.94 Y88.741 E7.92459
G1 X140.615 Y88.895 E7.94762
G1 X141.268 Y89.125 E7.97065
G1 X141.891 Y89.43 E7.99372
G1 X142.474 Y89.803 E8.01674
G1 X143.121 Y90.347 E8.04485
G1 X143.336 Y90.555 E8.0548
G1 X143.805 Y91.064 E8.07782
G1 X144.212 Y91.624 E8.10085
G1 X144.552 Y92.228 E8.1239
G1 X144.821 Y92.866 E8.14693
G1 X145.013 Y93.531 E8.16995
G1 X145.128 Y94.214 E8.19299
G1 X145.164 Y94.864 E8.21464
G1 X145.181 Y132.56 E9.46842
G1 X145.141 Y133.252 E9.49147
G1 X145.022 Y133.934 E9.5145
G1 X144.825 Y134.598 E9.53753
G1 X144.553 Y135.235 E9.56057
G1 X144.21 Y135.836 E9.58359
G1 X143.583 Y136.64 E9.6175
G1 X143.37 Y136.87 E9.62792
G1 X142.871 Y137.35 E9.65095
G1 X142.32 Y137.769 E9.67398
G1 X141.724 Y138.122 E9.69701
G1 X141.092 Y138.405 E9.72005
G1 X140.721 Y138.531 E9.73308
G1 X136.011 Y139.97 E9.89688
G1 X131.009 Y141.797 E10.074
G1 X126.099 Y143.911 E10.2518
G1 X121.637 Y146.119 E10.41738
G1 X121 Y146.39 E10.44041
G1 X120.546 Y146.533 E10.45624
G1 X119.495 Y146.818 E10.49246
G1 X118.818 Y146.96 E10.51546
G1 X118.335 Y147.013 E10.53163
G1 X113.36 Y147.354 E10.69748
G1 X112.668 Y147.361 E10.7205
G1 X111.917 Y147.278 E10.74563
G1 X107.528 Y146.511 E10.89382
G1 X106.923 Y146.373 E10.91446
G1 X106.264 Y146.186 E10.93724
G1 X105.511 Y145.917 E10.96384
G1 X101.391 Y144.127 E11.11325
G1 X100.773 Y143.815 E11.13627
G1 X100.066 Y143.335 E11.16469
G1 X97.397 Y141.23 E11.27775
G1 X96.931 Y140.821 E11.29837
G1 X95.067 Y139.009 E11.38484
G1 X94.424 Y138.274 E11.41732
G1 X93.207 Y136.628 E11.4854
G1 X92.942 Y136.238 E11.50108
G1 X91.904 Y134.575 E11.56629
G1 X91.696 Y134.215 E11.58011
G1 X90.839 Y132.603 E11.64084
G1 X90.471 Y131.759 E11.67146
G1 X89.49 Y128.942 E11.77067
G1 X89.346 Y128.469 E11.78712
G1 X89.021 Y127.21 E11.83036
G1 X88.86 Y126.301 E11.86107
G1 X88.595 Y123.623 E11.95057
G1 X88.566 Y123.032 E11.97025
G1 X88.566 Y120.283 E12.06169
G1 X88.651 Y119.278 E12.09523
G1 X89.027 Y117.066 E12.16986
G1 X89.16 Y116.47 E12.19017
G1 X90.01 Y113.4 E12.29612
G1 X90.142 Y112.98 E12.31076
G1 X90.598 Y111.705 E12.3558
G1 X90.869 Y111.068 E12.37882
G1 X91.074 Y110.688 E12.39319
G1 X92.631 Y108.036 E12.49547
G1 X93.136 Y107.305 E12.52502
G1 X94.133 Y106.07 E12.57781
G1 X94.35 Y105.817 E12.5889
G1 X96.417 Y103.529 E12.69145
G1 X97.134 Y102.855 E12.72418
M204 S5000
M205 X30 Y30
G0 F3600 X97.383 Y103.168
M204 S500
M205 X20 Y20
G1 F1500 X98.346 Y102.402 E12.76511
G1 X98.702 Y102.141 E12.77979
G1 X100.911 Y100.652 E12.86839
G1 X101.293 Y100.417 E12.88331
G1 X102.053 Y99.989 E12.91232
G1 X102.658 Y99.694 E12.93471
G1 X106.62 Y98.053 E13.07734
G1 X107.34 Y97.811 E13.10261
G1 X111.806 Y96.638 E13.25618
G1 X117.006 Y95.118 E13.43637
G1 X122.049 Y93.329 E13.61435
G1 X126.992 Y91.253 E13.79266
G1 X129.722 Y89.966 E13.89305
G1 X130.344 Y89.717 E13.91533
G1 X130.99 Y89.544 E13.93757
G1 X131.868 Y89.436 E13.967
G1 X135.21 Y89.291 E14.07826
G1 X138.585 Y89.071 E14.19075
G1 X139.254 Y89.067 E14.213
G1 X139.919 Y89.144 E14.23526
G1 X140.57 Y89.299 E14.25752
G1 X141.197 Y89.53 E14.27975
G1 X141.793 Y89.835 E14.30201
G1 X142.348 Y90.208 E14.32426
G1 X142.843 Y90.634 E14.34598
G1 X143.058 Y90.842 E14.35593
G1 X143.51 Y91.335 E14.37817
G1 X143.9 Y91.879 E14.40043
G1 X144.223 Y92.465 E14.42269
G1 X144.473 Y93.085 E14.44492
G1 X144.648 Y93.731 E14.46718
G1 X144.744 Y94.393 E14.48943
G1 X144.764 Y94.864 E14.50511
G1 X144.781 Y132.56 E15.75889
G1 X144.741 Y133.228 E15.78114
G1 X144.622 Y133.887 E15.80342
G1 X144.426 Y134.526 E15.82565
G1 X144.154 Y135.138 E15.84792
G1 X143.812 Y135.712 E15.87015
G1 X143.29 Y136.368 E15.89803
G1 X143.077 Y136.598 E15.90846
G1 X142.594 Y137.061 E15.93071
G1 X142.059 Y137.463 E15.95297
G1 X141.48 Y137.798 E15.97522
G1 X140.604 Y138.149 E16.0066
G1 X135.872 Y139.595 E16.17117
G1 X130.856 Y141.426 E16.34878
G1 X125.95 Y143.539 E16.52644
G1 X121.46 Y145.761 E16.69306
G1 X120.844 Y146.021 E16.7153
G1 X120.442 Y146.147 E16.72932
G1 X119.391 Y146.432 E16.76553
G1 X118.736 Y146.568 E16.78778
G1 X118.308 Y146.614 E16.8021
G1 X113.333 Y146.955 E16.96796
G1 X112.664 Y146.961 E16.99021
G1 X111.986 Y146.884 E17.01291
G1 X107.597 Y146.117 E17.1611
G1 X107.032 Y145.988 E17.18037
G1 X106.373 Y145.801 E17.20316
G1 X105.671 Y145.55 E17.22795
G1 X101.551 Y143.76 E17.37736
G1 X100.954 Y143.457 E17.39963
G1 X100.314 Y143.021 E17.42538
G1 X97.645 Y140.916 E17.53844
G1 X97.21 Y140.534 E17.5577
G1 X95.346 Y138.722 E17.64416
G1 X94.746 Y138.036 E17.67447
G1 X93.529 Y136.39 E17.74256
G1 X93.281 Y136.026 E17.75721
G1 X92.243 Y134.363 E17.82241
G1 X92.049 Y134.027 E17.83531
G1 X91.192 Y132.415 E17.89603
G1 X90.849 Y131.628 E17.92459
G1 X89.868 Y128.811 E18.0238
G1 X89.734 Y128.369 E18.03916
G1 X89.409 Y127.11 E18.08241
G1 X89.258 Y126.261 E18.11109
G1 X88.993 Y123.583 E18.20059
G1 X88.966 Y123.032 E18.21894
G1 X88.966 Y120.283 E18.31038
G1 X89.045 Y119.345 E18.34168
G1 X89.421 Y117.133 E18.41631
G1 X89.545 Y116.577 E18.43526
G1 X90.395 Y113.507 E18.54121
G1 X90.519 Y113.115 E18.55488
G1 X90.975 Y111.84 E18.59992
G1 X91.238 Y111.225 E18.62217
G1 X91.419 Y110.891 E18.6348
G1 X92.976 Y108.239 E18.73709
G1 X93.448 Y107.556 E18.7647
G1 X94.445 Y106.321 E18.81749
G1 X94.647 Y106.085 E18.82782
G1 X96.714 Y103.797 E18.93038
G1 X97.383 Y103.168 E18.96092
M204 S5000
M205 X30 Y30
G0 F3600 X97.632 Y103.481
M204 S500
M205 X20 Y20
G1 F1500 X98.595 Y102.715 E19.00184
G1 X98.926 Y102.473 E19.01548
G1 X101.135 Y100.984 E19.10409
G1 X101.489 Y100.765 E19.11793
G1 X102.249 Y100.337 E19.14694
G1 X102.811 Y100.064 E19.16772
G1 X106.773 Y98.423 E19.31036
G1 X107.442 Y98.198 E19.33383
G1 X111.905 Y97.026 E19.4873
G1 X117.125 Y95.5 E19.66819
G1 X122.186 Y93.704 E19.8468
G1 X127.177 Y91.609 E20.02684
G1 X129.893 Y90.328 E20.12671
G1 X130.492 Y90.089 E20.14816
G1 X131.116 Y89.927 E20.16961
G1 X131.885 Y89.836 E20.19536
G1 X135.208 Y89.692 E20.30599
G1 X138.611 Y89.47 E20.41941
G1 X139.256 Y89.468 E20.44087
G1 X139.896 Y89.546 E20.46231
G1 X140.521 Y89.702 E20.48374
G1 X141.122 Y89.935 E20.50518
G1 X141.69 Y90.24 E20.52662
G1 X142.216 Y90.613 E20.54807
G1 X142.565 Y90.922 E20.56357
G1 X142.78 Y91.13 E20.57352
G1 X143.214 Y91.606 E20.59494
G1 X143.587 Y92.132 E20.61639
G1 X143.891 Y92.7 E20.63782
G1 X144.123 Y93.302 E20.65928
G1 X144.278 Y93.927 E20.68069
G1 X144.364 Y94.865 E20.71202
G1 X144.381 Y132.561 E21.9658
G1 X144.341 Y133.204 E21.98722
G1 X144.222 Y133.838 E22.00868
G1 X144.026 Y134.452 E22.03012
G1 X143.755 Y135.037 E22.05156
G1 X143.414 Y135.584 E22.073
G1 X142.996 Y136.096 E22.09498
G1 X142.783 Y136.326 E22.10541
G1 X142.317 Y136.771 E22.12684
G1 X141.799 Y137.155 E22.14829
G1 X141.237 Y137.472 E22.16975
G1 X140.487 Y137.766 E22.19654
G1 X135.767 Y139.208 E22.36069
G1 X130.703 Y141.057 E22.54
G1 X125.77 Y143.181 E22.71863
G1 X121.283 Y145.402 E22.88515
G1 X120.688 Y145.652 E22.90662
G1 X120.337 Y145.761 E22.91884
G1 X119.286 Y146.046 E22.95506
G1 X118.654 Y146.176 E22.97652
G1 X118.281 Y146.215 E22.98899
G1 X113.306 Y146.556 E23.15485
G1 X112.661 Y146.56 E23.1763
G1 X112.055 Y146.49 E23.19659
G1 X107.666 Y145.723 E23.34479
G1 X107.141 Y145.603 E23.3627
G1 X106.482 Y145.416 E23.38548
G1 X105.83 Y145.183 E23.40851
G1 X101.71 Y143.393 E23.55792
G1 X101.136 Y143.1 E23.57935
G1 X100.562 Y142.707 E23.60249
G1 X97.893 Y140.602 E23.71555
G1 X97.488 Y140.248 E23.73344
G1 X95.624 Y138.436 E23.8199
G1 X95.068 Y137.798 E23.84805
G1 X93.851 Y136.152 E23.91613
G1 X93.621 Y135.814 E23.92973
G1 X92.583 Y134.151 E23.99493
G1 X92.403 Y133.839 E24.00691
G1 X91.546 Y132.227 E24.06763
G1 X91.226 Y131.496 E24.09417
G1 X90.245 Y128.679 E24.19339
G1 X90.121 Y128.269 E24.20763
G1 X89.796 Y127.01 E24.25088
G1 X89.656 Y126.222 E24.2775
G1 X89.391 Y123.544 E24.367
G1 X89.366 Y123.032 E24.38405
G1 X89.366 Y120.283 E24.47549
G1 X89.44 Y119.412 E24.50456
G1 X89.816 Y117.2 E24.57919
G1 X89.931 Y116.683 E24.5968
G1 X90.781 Y113.613 E24.70275
G1 X90.896 Y113.25 E24.71542
G1 X91.352 Y111.975 E24.76046
G1 X91.606 Y111.382 E24.78191
G1 X91.764 Y111.093 E24.79287
G1 X93.321 Y108.441 E24.89515
G1 X93.759 Y107.808 E24.92075
G1 X94.756 Y106.573 E24.97354
G1 X94.943 Y106.353 E24.98315
G1 X97.01 Y104.065 E25.0857
G1 X97.632 Y103.481 E25.11408
M204 S5000
M205 X30 Y30
G1 F3600 E15.11408
G0 F3600 X100.3 Y108.296
G0 X100.321 Y108.335
G0 X103.382 Y113.859
G0 X103.403 Y113.898
G0 X103.546 Y114.154
M204 S500
M205 X20 Y20
;TYPE:SUPPORT
G1 F3600 E25.11408
G1 F1500 X102.58 Y115.444 E25.16768
G1 X102.353 Y115.908 E25.18486
G1 X102.541 Y115.395 E25.20303
G1 X102.791 Y115.06 E25.21694
G1 X103.546 Y114.154 E25.25616
M204 S5000
M205 X30 Y30
G1 F3600 E15.25616
G0 F3600 X105.656 Y115.289
G0 X106.279 Y115.219
G0 X106.785 Y114.699
G0 X106.82 Y114.123
G0 X105.813 Y112.358
M204 S500
M205 X20 Y20
G1 F3600 E25.25616
G1 F1500 X106.875 Y111.535 E25.30085
G1 X107.822 Y113.031 E25.35974
G1 X107.509 Y113.232 E25.37211
G1 X106.893 Y113.757 E25.39903
G1 X105.813 Y112.358 E25.45781
M204 S5000
M205 X30 Y30
G0 F3600 X106.519 Y112.014
M204 S500
M205 X20 Y20
G1 F1500 X106.99 Y112.014 E25.47348
M204 S5000
M205 X30 Y30
G0 F3600 X106.68 Y111.888
M204 S500
M205 X20 Y20
G1 F1500 X106.68 Y113.219 E25.51775
M204 S5000
M205 X30 Y30
G1 F3600 E15.51775
G0 F3600 X108.747 Y113.201
G0 X109.425 Y112.854
G0 X109.623 Y112.396
G0 X110.044 Y109.533
M204 S500
M205 X20 Y20
G1 F3600 E25.51775
G1 F1500 X110.52 Y109.303 E25.53533
G1 X110.906 Y109.247 E25.5483
G1 X111.741 Y109.183 E25.57616
G1 X110.567 Y109.358 E25.61564
G1 X110.044 Y109.533 E25.63398
M204 S5000
M205 X30 Y30
G0 F3600 X112.475 Y109.127
M204 S500
M205 X20 Y20
G1 F1500 X112.5 Y109.125 E25.63481
G1 X112.498 Y109.142 E25.63538
G1 X112.475 Y109.127 E25.6363
M204 S5000
M205 X30 Y30
G1 F3600 E15.6363
G0 F3600 X115.003 Y109.021
M204 S500
M205 X20 Y20
G1 F3600 E25.6363
G1 F1500 X116.24 Y109.219 E25.67796
G1 X115.907 Y111.385 E25.75085
G1 X115.54 Y111.307 E25.76333
G1 X114.713 Y111.245 E25.79091
G1 X115.003 Y109.021 E25.86551
M204 S5000
M205 X30 Y30
G0 F3600 X115.122 Y109.347
M204 S500
M205 X20 Y20
G1 F1500 X116.027 Y109.347 E25.89561
M204 S5000
M205 X30 Y30
G1 F3600 E15.89561
G0 F3600 X116.112 Y111.619
G0 X116.449 Y112.158
G0 X117.139 Y112.38
G0 X117.711 Y112.157
G0 X118.933 Y110.001
M204 S500
M205 X20 Y20
G1 F3600 E25.89561
G1 F1500 X120.448 Y110.62 E25.95004
G1 X122.016 Y111.818 E26.01567
G1 X121.912 Y111.905 E26.02018
G1 X121.882 Y111.773 E26.02469
G1 X120.433 Y110.687 E26.08491
G1 X118.933 Y110.001 E26.13977
M204 S5000
M205 X30 Y30
G1 F3600 E16.13977
G0 F3600 X120.573 Y114.374
G0 X121.111 Y114.906
G0 X122.064 Y115.01
M204 S500
M205 X20 Y20
G1 F3600 E26.13977
G1 F1500 X123.638 Y113.775 E26.20632
G1 X124.415 Y114.79 E26.24883
G1 X122.774 Y115.896 E26.31465
G1 X122.597 Y115.621 E26.32553
G1 X122.064 Y115.01 E26.3525
M204 S5000
M205 X30 Y30
G0 F3600 X122.682 Y114.728
M204 S500
M205 X20 Y20
G1 F1500 X122.682 Y115.475 E26.37734
M204 S5000
M205 X30 Y30
G0 F3600 X122.742 Y114.681
M204 S500
M205 X20 Y20
G1 F1500 X124.132 Y114.681 E26.42357
M204 S5000
M205 X30 Y30
G1 F3600 E16.42357
G0 F3600 X125.383 Y117.205
M204 S500
M205 X20 Y20
G1 F3600 E26.42357
G1 F1500 X125.836 Y116.949 E26.44088
G1 X126.559 Y118.592 E26.50058
G1 X126.781 Y120.356 E26.55972
G1 X126.535 Y120.338 E26.56792
G1 X126.524 Y120.023 E26.5784
G1 X125.383 Y117.228 E26.67881
G1 X125.383 Y117.205 E26.67958
M204 S5000
M205 X30 Y30
G0 F3600 X125.605 Y117.348
M204 S500
M205 X20 Y20
G1 F1500 X125.838 Y117.348 E26.68733
M204 S5000
M205 X30 Y30
G1 F3600 E16.68733
G0 F3600 X123.959 Y121.158
G0 X123.989 Y121.993
G0 X124.59 Y122.72
M204 S500
M205 X20 Y20
G1 F3600 E26.68733
G1 F1500 X127.259 Y122.832 E26.77618
G1 X127.126 Y124.503 E26.83193
G1 X124.943 Y124.105 E26.90573
G1 X124.461 Y123.994 E26.92219
G1 X124.531 Y123.677 E26.93298
G1 X124.59 Y122.72 E26.96487
M204 S5000
M205 X30 Y30
G0 F3600 X125.349 Y122.912
