;FLAVOR:Marlin
;TIME:457
;Filament used: 0.238472m
;Layer height: 0.12
;Generated with Cura_SteamEngine master
M140 S60
M105
M190 S60
M104 S200
M105
M109 S200
M82 ;absolute extrusion mode
; Ender 3 Custom Start G-code
G28 ; Home all axes
G92 E0 ; Reset Extruder
G1 Z2.0 F3000 ; Move Z Axis up little to prevent scratching of Heat Bed
G1 X0.1 Y20 Z0.3 F5000.0 ; Move to start position
G1 X0.1 Y200.0 Z0.3 F1500.0 E15 ; Draw the first line
G1 X0.4 Y200.0 Z0.3 F5000.0 ; Move to side a little
G1 X0.4 Y20 Z0.3 F1500.0 E30 ; Draw the second line
G92 E0 ; Reset Extruder
G1 Z2.0 F3000 ; Move Z Axis up little to prevent scratching of Heat Bed
; End of custom start GCode
G92 E0
G1 F3600 E-10
;LAYER_COUNT:83
;LAYER:0
M107
M204 S5000
M205 X30 Y30
G0 F3600 X108.221 Y107.493 Z0.2
M204 S500
M205 X20 Y20
;TYPE:SKIRT
G1 F3600 E0
G1 F1500 X110.73 Y104.969 E0.11837
G1 X110.815 Y104.885 E0.12234
G1 X111.301 Y104.414 E0.14485
G1 X111.842 Y103.946 E0.16865
G1 X112.431 Y103.541 E0.19242
G1 X113.062 Y103.204 E0.21621
G1 X113.727 Y102.94 E0.24001
G1 X114.417 Y102.751 E0.26381
G1 X115.124 Y102.641 E0.2876
G1 X115.755 Y102.61 E0.30862
G1 X122.241 Y102.61 E0.52434
G1 X122.955 Y102.65 E0.54813
G1 X123.66 Y102.769 E0.57191
G1 X124.348 Y102.967 E0.59572
G1 X125.009 Y103.24 E0.6195
G1 X125.636 Y103.584 E0.64329
G1 X126.22 Y103.997 E0.66708
G1 X126.754 Y104.472 E0.69085
G1 X127.233 Y105.004 E0.71466
G1 X127.648 Y105.586 E0.73844
G1 X127.997 Y106.211 E0.76224
G1 X128.273 Y106.871 E0.78604
G1 X128.474 Y107.557 E0.80981
G1 X128.597 Y108.262 E0.83362
G1 X128.637 Y109.222 E0.86557
G1 X128.407 Y116.148 E1.09606
G1 X128.485 Y121.56 E1.27608
G1 X128.637 Y125.759 E1.41583
G1 X128.623 Y126.474 E1.43962
G1 X128.529 Y127.183 E1.46341
G1 X128.357 Y127.877 E1.48719
G1 X128.108 Y128.548 E1.51099
G1 X127.786 Y129.187 E1.53479
G1 X127.395 Y129.785 E1.55856
G1 X126.939 Y130.337 E1.58237
G1 X126.425 Y130.834 E1.60615
G1 X125.858 Y131.271 E1.62996
G1 X125.247 Y131.641 E1.65372
G1 X124.597 Y131.941 E1.67753
G1 X123.919 Y132.167 E1.7013
G1 X123.219 Y132.316 E1.7251
G1 X122.24 Y132.391 E1.75776
G1 X115.754 Y132.39 E1.97348
G1 X115.04 Y132.35 E1.99727
G1 X114.335 Y132.23 E2.02105
G1 X113.647 Y132.033 E2.04486
G1 X112.986 Y131.76 E2.06864
G1 X112.36 Y131.415 E2.09242
G1 X111.775 Y131.002 E2.11623
G1 X111.231 Y130.517 E2.14047
G1 X108.238 Y127.526 E2.28121
G1 X107.761 Y126.993 E2.305
G1 X107.347 Y126.41 E2.32878
G1 X107 Y125.784 E2.35259
G1 X106.725 Y125.124 E2.37637
G1 X106.526 Y124.437 E2.40016
G1 X106.404 Y123.732 E2.42395
G1 X106.362 Y123 E2.44834
G1 X106.36 Y112.006 E2.814
G1 X106.4 Y111.292 E2.83779
G1 X106.519 Y110.587 E2.86157
G1 X106.716 Y109.899 E2.88537
G1 X106.989 Y109.238 E2.90916
G1 X107.334 Y108.611 E2.93296
G1 X107.746 Y108.027 E2.95673
G1 X108.221 Y107.493 E2.9805
M204 S5000
M205 X30 Y30
G0 F3600 X108.505 Y107.775
M204 S500
M205 X20 Y20
G1 F1500 X111.014 Y105.251 E3.09887
G1 X111.093 Y105.172 E3.10259
G1 X111.579 Y104.701 E3.1251
G1 X112.104 Y104.249 E3.14814
G1 X112.677 Y103.86 E3.17117
G1 X113.291 Y103.539 E3.19422
G1 X113.937 Y103.292 E3.21722
G1 X114.608 Y103.121 E3.24025
G1 X115.295 Y103.028 E3.26331
G1 X115.755 Y103.01 E3.27862
G1 X122.241 Y103.01 E3.49435
G1 X122.932 Y103.05 E3.51737
G1 X123.615 Y103.169 E3.54043
G1 X124.278 Y103.367 E3.56344
G1 X124.915 Y103.639 E3.58648
G1 X125.516 Y103.983 E3.60951
G1 X126.074 Y104.394 E3.63256
G1 X126.58 Y104.866 E3.65557
G1 X127.029 Y105.394 E3.67863
G1 X127.414 Y105.969 E3.70164
G1 X127.729 Y106.586 E3.72468
G1 X127.972 Y107.234 E3.7477
G1 X128.139 Y107.907 E3.77076
G1 X128.227 Y108.593 E3.79377
G1 X128.238 Y109.209 E3.81426
G1 X128.007 Y116.162 E4.04564
G1 X128.085 Y121.58 E4.22587
G1 X128.237 Y125.773 E4.36542
G1 X128.222 Y126.466 E4.38847
G1 X128.128 Y127.152 E4.4115
G1 X127.955 Y127.822 E4.43452
G1 X127.706 Y128.469 E4.45758
G1 X127.384 Y129.082 E4.48061
G1 X126.993 Y129.654 E4.50365
G1 X126.54 Y130.177 E4.52666
G1 X126.029 Y130.644 E4.54969
G1 X125.467 Y131.05 E4.57275
G1 X124.863 Y131.388 E4.59577
G1 X124.223 Y131.654 E4.61882
G1 X123.558 Y131.845 E4.64183
G1 X122.874 Y131.957 E4.66489
G1 X122.24 Y131.991 E4.686
G1 X115.754 Y131.99 E4.90173
G1 X115.063 Y131.95 E4.92475
G1 X114.381 Y131.83 E4.94778
G1 X113.717 Y131.633 E4.97082
G1 X113.08 Y131.361 E4.99385
G1 X112.479 Y131.017 E5.01689
G1 X111.922 Y130.606 E5.03991
G1 X111.514 Y130.234 E5.05827
G1 X108.521 Y127.243 E5.19901
G1 X108.06 Y126.726 E5.22205
G1 X107.662 Y126.159 E5.24509
G1 X107.332 Y125.551 E5.2681
G1 X107.074 Y124.908 E5.29114
G1 X106.892 Y124.24 E5.31417
G1 X106.788 Y123.555 E5.33721
G1 X106.762 Y123 E5.35569
G1 X106.76 Y112.006 E5.72135
G1 X106.8 Y111.315 E5.74437
G1 X106.919 Y110.633 E5.7674
G1 X107.116 Y109.969 E5.79044
G1 X107.388 Y109.332 E5.81347
G1 X107.732 Y108.731 E5.83651
G1 X108.143 Y108.173 E5.85956
G1 X108.505 Y107.775 E5.87745
M204 S5000
M205 X30 Y30
G0 F3600 X108.788 Y108.057
M204 S500
M205 X20 Y20
G1 F1500 X111.297 Y105.533 E5.99582
G1 X111.372 Y105.46 E5.9993
G1 X111.858 Y104.989 E6.02181
G1 X112.365 Y104.553 E6.04405
G1 X112.921 Y104.18 E6.06632
G1 X113.517 Y103.877 E6.08856
G1 X114.145 Y103.646 E6.11081
G1 X114.796 Y103.493 E6.13306
G1 X115.755 Y103.41 E6.16507
G1 X122.241 Y103.41 E6.3808
G1 X122.909 Y103.45 E6.40305
G1 X123.567 Y103.569 E6.42529
G1 X124.207 Y103.766 E6.44757
G1 X124.818 Y104.038 E6.46981
G1 X125.392 Y104.381 E6.49205
G1 X125.922 Y104.79 E6.51432
G1 X126.399 Y105.259 E6.53657
G1 X126.817 Y105.781 E6.55881
G1 X127.169 Y106.35 E6.58106
G1 X127.451 Y106.957 E6.60332
G1 X127.659 Y107.593 E6.62558
G1 X127.789 Y108.249 E6.64782
G1 X127.838 Y109.196 E6.67936
G1 X127.607 Y116.155 E6.91095
G1 X127.685 Y121.6 E7.09207
G1 X127.837 Y125.788 E7.23145
G1 X127.822 Y126.457 E7.25371
G1 X127.726 Y127.119 E7.27596
G1 X127.553 Y127.765 E7.2982
G1 X127.303 Y128.386 E7.32047
G1 X126.981 Y128.972 E7.34271
G1 X126.592 Y129.516 E7.36495
G1 X126.14 Y130.01 E7.38722
G1 X125.633 Y130.447 E7.40948
G1 X125.078 Y130.819 E7.4317
G1 X124.482 Y131.123 E7.45396
G1 X123.854 Y131.354 E7.47621
G1 X123.203 Y131.508 E7.49846
G1 X122.24 Y131.591 E7.53061
G1 X115.754 Y131.59 E7.74634
G1 X115.086 Y131.55 E7.76859
G1 X114.428 Y131.431 E7.79083
G1 X113.789 Y131.233 E7.81308
G1 X113.177 Y130.962 E7.83535
G1 X112.603 Y130.619 E7.85759
G1 X112.073 Y130.21 E7.87985
G1 X111.797 Y129.951 E7.89244
G1 X108.804 Y126.96 E8.03318
G1 X108.359 Y126.46 E8.05544
G1 X107.978 Y125.91 E8.07769
G1 X107.665 Y125.319 E8.09993
G1 X107.425 Y124.694 E8.1222
G1 X107.261 Y124.046 E8.14443
G1 X107.175 Y123.382 E8.1667
G1 X107.162 Y123 E8.17942
G1 X107.16 Y112.006 E8.54508
G1 X107.2 Y111.338 E8.56734
G1 X107.319 Y110.68 E8.58958
G1 X107.516 Y110.04 E8.61185
G1 X107.788 Y109.429 E8.63409
G1 X108.13 Y108.854 E8.65634
G1 X108.539 Y108.325 E8.67858
G1 X108.788 Y108.057 E8.69075
M204 S5000
M205 X30 Y30
G0 F3600 X109.072 Y108.339
M204 S500
M205 X20 Y20
G1 F1500 X111.581 Y105.815 E8.80912
G1 X111.65 Y105.747 E8.81234
G1 X112.136 Y105.276 E8.83485
G1 X112.626 Y104.857 E8.8563
G1 X113.164 Y104.502 E8.87773
G1 X113.742 Y104.216 E8.89918
G1 X114.35 Y104.003 E8.92061
G1 X114.981 Y103.868 E8.94207
G1 X115.755 Y103.81 E8.96789
G1 X122.241 Y103.81 E9.18361
G1 X122.884 Y103.85 E9.20504
G1 X123.518 Y103.969 E9.2265
G1 X124.132 Y104.166 E9.24794
G1 X124.717 Y104.437 E9.26939
G1 X125.264 Y104.779 E9.29084
G1 X125.764 Y105.185 E9.31227
G1 X126.21 Y105.65 E9.3337
G1 X126.595 Y106.167 E9.35514
G1 X126.914 Y106.728 E9.3766
G1 X127.16 Y107.324 E9.39805
G1 X127.331 Y107.945 E9.41947
G1 X127.423 Y108.583 E9.44091
G1 X127.438 Y109.182 E9.46084
G1 X127.207 Y116.147 E9.69262
G1 X127.284 Y121.558 E9.87261
G1 X127.438 Y125.802 E10.01386
G1 X127.421 Y126.447 E10.03532
G1 X127.325 Y127.084 E10.05675
G1 X127.15 Y127.705 E10.0782
G1 X126.901 Y128.299 E10.09963
G1 X126.579 Y128.858 E10.12108
G1 X126.191 Y129.373 E10.14253
G1 X125.742 Y129.836 E10.16398
G1 X125.24 Y130.239 E10.18539
G1 X124.691 Y130.578 E10.20685
G1 X124.105 Y130.846 E10.22828
G1 X123.49 Y131.039 E10.24972
G1 X122.855 Y131.155 E10.27119
G1 X122.24 Y131.191 E10.29168
G1 X115.754 Y131.19 E10.50741
G1 X115.111 Y131.15 E10.52883
G1 X114.477 Y131.031 E10.55029
G1 X113.863 Y130.834 E10.57174
G1 X113.279 Y130.562 E10.59316
G1 X112.732 Y130.221 E10.6146
G1 X112.079 Y129.668 E10.64306
G1 X109.086 Y126.677 E10.7838
G1 X108.659 Y126.194 E10.80524
G1 X108.296 Y125.662 E10.82666
G1 X108 Y125.089 E10.84811
G1 X107.778 Y124.484 E10.86955
G1 X107.633 Y123.855 E10.89102
G1 X107.562 Y123 E10.91955
G1 X107.56 Y112.006 E11.28521
G1 X107.6 Y111.363 E11.30664
G1 X107.719 Y110.729 E11.3281
G1 X107.916 Y110.115 E11.34954
G1 X108.187 Y109.53 E11.37099
G1 X108.528 Y108.983 E11.39243
G1 X109.072 Y108.339 E11.42046
M204 S5000
M205 X30 Y30
G1 F3600 E1.42046
;MESH:CableClip1.stl
G0 F3600 X112.461 Y111.349
G0 X113.368 Y112.254
G0 X115.68 Y123.975
G0 X115.94 Y124.488
G0 X116.256 Y124.806
G0 X116.773 Y125.069
G0 X117.022 Y125.107
G0 X121.42 Y125.17
G0 X121.35 Y125.1
M204 S500
M205 X20 Y20
;TYPE:WALL-INNER
G1 F3600 E11.42046
G1 F1500 X121.35 Y124.748 E11.43217
G1 X121.35 Y124.448 E11.44215
G1 X121.65 Y124.748 E11.44929
G1 X121.65 Y125.1 E11.45807
G1 X121.65 Y125.4 E11.46805
G1 X121.35 Y125.4 E11.47803
G1 X117.216 Y125.4 E11.61553
G1 X116.962 Y125.4 E11.62398
G1 X116.79 Y125.4 E11.6297
G1 X116.703 Y125.4 E11.63259
G1 X115.998 Y125.4 E11.65604
G1 X113.35 Y122.752 E11.78059
G1 X113.35 Y112.248 E12.12996
G1 X115.998 Y109.6 E12.25451
G1 X116.685 Y109.6 E12.27736
G1 X116.957 Y109.6 E12.28641
G1 X117.222 Y109.6 E12.29522
G1 X121.35 Y109.6 E12.43252
G1 X121.65 Y109.6 E12.4425
G1 X121.65 Y109.9 E12.45247
G1 X121.65 Y110.252 E12.46418
G1 X121.35 Y110.552 E12.47829
G1 X121.35 Y110.252 E12.48131
G1 X121.35 Y109.9 E12.49009
G1 X117.222 Y109.9 E12.59306
G1 X116.957 Y109.923 E12.59995
G1 X116.696 Y109.998 E12.60812
G1 X116.686 Y110.001 E12.60847
G1 X116.525 Y110.071 E12.61431
G1 X116.285 Y110.221 E12.62372
G1 X116.065 Y110.421 E12.63361
G1 X115.896 Y110.646 E12.64297
G1 X115.812 Y110.796 E12.64869
G1 X115.713 Y111.048 E12.65769
G1 X115.676 Y111.206 E12.66309
G1 X115.654 Y111.367 E12.66849
G1 X115.65 Y123.533 E13.07314
G1 X115.675 Y123.787 E13.08163
G1 X115.716 Y123.959 E13.08751
G1 X115.819 Y124.221 E13.09687
G1 X115.968 Y124.46 E13.10624
G1 X116.08 Y124.594 E13.11205
G1 X116.279 Y124.774 E13.12097
G1 X116.528 Y124.93 E13.13074
G1 X116.709 Y125.002 E13.13722
G1 X116.79 Y125.033 E13.13999
G1 X116.962 Y125.074 E13.1451
G1 X117.216 Y125.099 E13.15176
G1 X121.35 Y125.1 E13.25505
M204 S5000
M205 X30 Y30
G0 F3600 X121.42 Y125.17
G0 X116.959 Y125.114
G0 X116.509 Y124.964
G0 X116.05 Y124.62
G0 X115.783 Y124.235
G0 X115.611 Y123.534
G0 X115.635 Y111.209
G0 X115.866 Y110.621
G0 X116.261 Y110.19
G0 X116.673 Y109.963
G0 X117.113 Y109.882
G0 X120.95 Y109.8
G0 X120.95 Y110.3
M204 S500
M205 X20 Y20
;TYPE:WALL-OUTER
G1 F1500 X117.239 Y110.3 E13.37848
G1 X117.03 Y110.318 E13.38546
G1 X116.822 Y110.378 E13.39266
G1 X116.712 Y110.426 E13.39665
G1 X116.527 Y110.541 E13.40389
G1 X116.362 Y110.691 E13.41131
G1 X116.232 Y110.865 E13.41854
G1 X116.174 Y110.968 E13.42247
G1 X116.096 Y111.167 E13.42958
G1 X116.07 Y111.279 E13.4334
G1 X116.054 Y111.395 E13.4373
G1 X116.05 Y123.514 E13.84037
G1 X116.07 Y123.721 E13.84729
G1 X116.098 Y123.838 E13.85129
G1 X116.178 Y124.04 E13.85852
G1 X116.293 Y124.225 E13.86576
G1 X116.369 Y124.316 E13.86971
G1 X116.521 Y124.454 E13.87654
G1 X116.709 Y124.571 E13.8839
G1 X116.911 Y124.651 E13.89113
G1 X117.028 Y124.679 E13.89513
G1 X117.235 Y124.699 E13.90205
G1 X120.75 Y124.7 E14.01895
G1 X120.95 Y124.7 E14.02561
G1 X120.95 Y124.5 E14.02991
G1 X120.95 Y123.919 E14.04924
G1 X120.95 Y123.7 E14.05652
G1 X121.168 Y123.7 E14.06377
G1 X121.322 Y123.854 E14.06949
G1 X122.05 Y124.582 E14.10373
G1 X122.05 Y125.8 E14.14424
G1 X115.832 Y125.8 E14.35105
G1 X112.95 Y122.918 E14.48661
G1 X112.95 Y112.082 E14.84702
G1 X115.832 Y109.2 E14.98258
G1 X122.05 Y109.2 E15.18939
G1 X122.05 Y110.418 E15.2299
G1 X121.322 Y111.146 E15.26414
G1 X121.168 Y111.3 E15.27139
G1 X120.95 Y111.3 E15.27864
G1 X120.95 Y111.081 E15.2844
G1 X120.95 Y110.3 E15.31037
M204 S5000
M205 X30 Y30
G0 F3600 X120.75 Y110.3
G0 X120.75 Y109.8
G0 X116.95 Y109.883
G0 X116.595 Y110.005
G0 X115.42 Y110.728
M204 S500
M205 X20 Y20
;TYPE:SKIN
G1 F1500 X115.34 Y110.931 E15.31763
G1 X115.292 Y111.135 E15.3246
G1 X115.264 Y111.34 E15.33148
G1 X115.26 Y123.552 E15.73766
G1 X115.289 Y123.852 E15.74768
G1 X115.343 Y124.076 E15.75534
G1 X115.421 Y124.273 E15.76239
G1 X113.74 Y122.592 E15.84146
G1 X113.74 Y112.408 E16.18018
G1 X115.42 Y110.728 E16.2592
M204 S5000
M205 X30 Y30
G0 F3600 X114.897 Y111.502
M204 S500
M205 X20 Y20
G1 F1500 X115.083 Y111.689 E16.26798
M204 S5000
M205 X30 Y30
G0 F3600 X114.614 Y111.785
M204 S500
M205 X20 Y20
G1 F1500 X115.083 Y112.255 E16.29006
M204 S5000
M205 X30 Y30
G0 F3600 X115.083 Y112.821
M204 S500
M205 X20 Y20
G1 F1500 X114.331 Y112.068 E16.32546
M204 S5000
M205 X30 Y30
G0 F3600 X114.048 Y112.351
M204 S500
M205 X20 Y20
G1 F1500 X115.083 Y113.386 E16.37414
M204 S5000
M205 X30 Y30
G0 F3600 X115.083 Y113.951
M204 S500
M205 X20 Y20
G1 F1500 X113.919 Y112.787 E16.42889
M204 S5000
M205 X30 Y30
G0 F3600 X113.919 Y113.353
M204 S500
M205 X20 Y20
G1 F1500 X115.083 Y114.517 E16.48364
M204 S5000
M205 X30 Y30
G0 F3600 X115.083 Y115.083
M204 S500
M205 X20 Y20
G1 F1500 X113.919 Y113.919 E16.53839
M204 S5000
M205 X30 Y30
G0 F3600 X113.919 Y114.484
M204 S500
M205 X20 Y20
G1 F1500 X115.083 Y115.648 E16.59314
M204 S5000
M205 X30 Y30
G0 F3600 X115.083 Y116.214
M204 S500
M205 X20 Y20
G1 F1500 X113.919 Y115.05 E16.64789
M204 S5000
M205 X30 Y30
G0 F3600 X113.919 Y115.616
M204 S500
M205 X20 Y20
G1 F1500 X115.082 Y116.779 E16.7026
M204 S5000
M205 X30 Y30
G0 F3600 X115.082 Y117.345
M204 S500
M205 X20 Y20
G1 F1500 X113.919 Y116.181 E16.75733
M204 S5000
M205 X30 Y30
G0 F3600 X113.919 Y116.747
M204 S500
M205 X20 Y20
G1 F1500 X115.082 Y117.91 E16.81203
M204 S5000
M205 X30 Y30
G0 F3600 X115.082 Y118.476
M204 S500
M205 X20 Y20
G1 F1500 X113.919 Y117.313 E16.86673
M204 S5000
M205 X30 Y30
G0 F3600 X113.919 Y117.878
M204 S500
M205 X20 Y20
G1 F1500 X115.081 Y119.041 E16.92141
M204 S5000
M205 X30 Y30
G0 F3600 X115.081 Y119.607
M204 S500
M205 X20 Y20
G1 F1500 X113.919 Y118.444 E16.97609
M204 S5000
M205 X30 Y30
G0 F3600 X113.919 Y119.01
M204 S500
M205 X20 Y20
G1 F1500 X115.081 Y120.172 E17.03075
M204 S5000
M205 X30 Y30
G0 F3600 X115.081 Y120.738
M204 S500
M205 X20 Y20
G1 F1500 X113.919 Y119.575 E17.08543
M204 S5000
M205 X30 Y30
G0 F3600 X113.919 Y120.141
M204 S500
M205 X20 Y20
G1 F1500 X115.08 Y121.303 E17.14007
M204 S5000
M205 X30 Y30
G0 F3600 X115.08 Y121.869
M204 S500
M205 X20 Y20
G1 F1500 X113.919 Y120.707 E17.1947
M204 S5000
M205 X30 Y30
G0 F3600 X113.919 Y121.273
M204 S500
M205 X20 Y20
G1 F1500 X115.08 Y122.434 E17.24931
M204 S5000
M205 X30 Y30
G0 F3600 X115.08 Y123
M204 S500
M205 X20 Y20
G1 F1500 X113.919 Y121.838 E17.30394
M204 S5000
M205 X30 Y30
G0 F3600 X113.919 Y122.404
M204 S500
M205 X20 Y20
G1 F1500 X115.08 Y123.566 E17.35858
G1 X115.15 Y123.636
M204 S5000
M205 X30 Y30
;MESH:NONMESH
G0 F3600 X115.635 Y111.209
G0 X115.866 Y110.621
G0 X116.261 Y110.19
G0 X116.673 Y109.963
G0 X117.113 Y109.882
G0 X121.42 Y109.83
G0 X121.35 Y109.9
;TIME_ELAPSED:32.137716
;LAYER:1
M140 S60
G1 F3600 E7.35858
M106 S255
;MESH:CableClip1.stl
G0 F5400 X121.35 Y109.9 Z0.32
M204 S500
M205 X20 Y20
;TYPE:WALL-INNER
G1 F3600 E17.35858
G1 F2760 X117.218 Y109.9 E17.44103
G1 X116.957 Y109.924 E17.44626
G1 X116.697 Y109.998 E17.45166
G1 X116.673 Y110.005 E17.45216
G1 X116.423 Y110.129 E17.45773
G1 X116.276 Y110.227 E17.46125
G1 X116.064 Y110.421 E17.46699
G1 X115.895 Y110.648 E17.47263
G1 X115.811 Y110.799 E17.47608
G1 X115.713 Y111.049 E17.48144
G1 X115.676 Y111.207 E17.48468
G1 X115.654 Y111.367 E17.4879
G1 X115.65 Y123.541 E17.73085
G1 X115.678 Y123.815 E17.73634
G1 X115.76 Y124.081 E17.7419
G1 X115.83 Y124.24 E17.74537
G1 X115.975 Y124.469 E17.75078
G1 X116.087 Y124.6 E17.75421
G1 X116.271 Y124.768 E17.75919
G1 X116.518 Y124.925 E17.76503
G1 X116.709 Y125.001 E17.76913
G1 X116.777 Y125.028 E17.77059
G1 X116.933 Y125.068 E17.7738
