;FLAVOR:Marlin
;TIME:1538
;Filament used: 1.02175m
;Layer height: 0.15
;Generated with Cura_SteamEngine master
M140 S60
M105
M190 S60
M104 S200
M105
M109 S200
M82 ;absolute extrusion mode
; Ender 3 Custom Start G-code
G28 ; Home all axes
G92 E0 ; Reset Extruder
G1 Z2.0 F3000 ; Move Z Axis up little to prevent scratching of Heat Bed
G1 X0.1 Y20 Z0.3 F5000.0 ; Move to start position
G1 X0.1 Y200.0 Z0.3 F1500.0 E15 ; Draw the first line
G1 X0.4 Y200.0 Z0.3 F5000.0 ; Move to side a little
G1 X0.4 Y20 Z0.3 F1500.0 E30 ; Draw the second line
G92 E0 ; Reset Extruder
G1 Z2.0 F3000 ; Move Z Axis up little to prevent scratching of Heat Bed
; End of custom start GCode
G92 E0
G1 F2400 E-5
;LAYER_COUNT:104
;LAYER:0
M107
M204 S5000
M205 X30 Y30
G0 F3600 X100.375 Y98.182 Z0.2
M204 S500
M205 X20 Y20
;TYPE:SKIRT
G1 F2400 E0
G1 F1800 X100.918 Y97.717 E0.02378
G1 X101.509 Y97.315 E0.04755
G1 X102.142 Y96.981 E0.07136
G1 X102.808 Y96.72 E0.09515
G1 X103.499 Y96.536 E0.11893
G1 X104.207 Y96.429 E0.14275
G1 X104.572 Y96.405 E0.15491
G1 X105.286 Y96.379 E0.17868
G1 X105.968 Y96.391 E0.20136
G1 X108.104 Y96.541 E0.27258
G1 X115.149 Y96.984 E0.50736
G1 X120.419 Y96.97 E0.68264
G1 X125.805 Y96.652 E0.86209
G1 X128.54 Y96.402 E0.95344
G1 X129.409 Y96.381 E0.98235
G1 X130.499 Y96.43 E1.01864
G1 X131.211 Y96.502 E1.04244
G1 X131.91 Y96.653 E1.06623
G1 X132.588 Y96.881 E1.09002
G1 X133.236 Y97.184 E1.11381
G1 X133.847 Y97.556 E1.1376
G1 X134.412 Y97.995 E1.1614
G1 X134.925 Y98.494 E1.18521
G1 X135.558 Y99.305 E1.21942
G1 X137.265 Y101.898 E1.32268
G1 X137.624 Y102.516 E1.34645
G1 X137.912 Y103.171 E1.37025
G1 X138.125 Y103.854 E1.39404
G1 X138.261 Y104.556 E1.41782
G1 X138.317 Y105.269 E1.44161
G1 X138.311 Y105.732 E1.45701
G1 X137.832 Y115.455 E1.78079
G1 X137.996 Y122.695 E2.02166
G1 X137.998 Y122.854 E2.02695
G1 X137.99 Y126.442 E2.14629
G1 X137.948 Y127.156 E2.17007
G1 X137.827 Y127.861 E2.19387
G1 X137.629 Y128.548 E2.21764
G1 X137.354 Y129.209 E2.24146
G1 X137.008 Y129.835 E2.26525
G1 X136.549 Y130.474 E2.29141
G1 X134.278 Y133.257 E2.41088
G1 X133.771 Y133.809 E2.43581
G1 X133.614 Y133.961 E2.44308
G1 X133.073 Y134.429 E2.46687
G1 X132.483 Y134.834 E2.49068
G1 X131.852 Y135.17 E2.51445
G1 X131.187 Y135.434 E2.53825
G1 X130.497 Y135.622 E2.56204
G1 X129.79 Y135.732 E2.58583
G1 X129.231 Y135.763 E2.60445
G1 X128.31 Y135.773 E2.63509
G1 X127.774 Y135.756 E2.65293
G1 X123.991 Y135.479 E2.77909
G1 X118.63 Y135.253 E2.95755
G1 X113.343 Y135.328 E3.13342
G1 X107.366 Y135.752 E3.33271
G1 X106.891 Y135.768 E3.34852
G1 X105.417 Y135.763 E3.39754
G1 X104.703 Y135.721 E3.42133
G1 X103.998 Y135.599 E3.44513
G1 X103.312 Y135.399 E3.4689
G1 X102.651 Y135.124 E3.49271
G1 X102.026 Y134.777 E3.51648
G1 X101.443 Y134.362 E3.54029
G1 X100.91 Y133.885 E3.56408
G1 X100.503 Y133.437 E3.58421
G1 X98.073 Y130.493 E3.71117
G1 X97.649 Y129.917 E3.73496
G1 X97.293 Y129.297 E3.75874
G1 X97.007 Y128.641 E3.78254
G1 X96.797 Y127.958 E3.80631
G1 X96.664 Y127.255 E3.83011
G1 X96.609 Y126.417 E3.85804
G1 X96.61 Y122.617 E3.98443
G1 X96.622 Y122.229 E3.99734
G1 X96.865 Y118.242 E4.13019
G1 X96.941 Y112.906 E4.30768
G1 X96.684 Y105.645 E4.54934
G1 X96.699 Y104.93 E4.57312
G1 X96.793 Y104.221 E4.59691
G1 X96.966 Y103.527 E4.6207
G1 X97.215 Y102.857 E4.64447
G1 X97.538 Y102.218 E4.66829
G1 X97.736 Y101.898 E4.6808
G1 X99.461 Y99.28 E4.78508
G1 X99.887 Y98.705 E4.80888
G1 X100.375 Y98.182 E4.83267
M204 S5000
M205 X30 Y30
G0 F3600 X100.684 Y98.441
M204 S500
M205 X20 Y20
G1 F1800 X101.213 Y97.995 E4.85569
G1 X101.791 Y97.613 E4.87873
G1 X102.409 Y97.3 E4.90177
G1 X103.059 Y97.061 E4.92481
G1 X103.732 Y96.898 E4.94784
G1 X104.587 Y96.805 E4.97644
G1 X105.301 Y96.779 E5.00021
G1 X105.94 Y96.79 E5.02146
G1 X108.051 Y96.938 E5.09185
G1 X115.14 Y97.384 E5.32809
G1 X120.427 Y97.37 E5.50394
G1 X125.832 Y97.051 E5.68403
G1 X128.576 Y96.8 E5.77567
G1 X129.391 Y96.781 E5.80279
G1 X130.481 Y96.83 E5.83908
G1 X131.17 Y96.901 E5.86211
G1 X131.846 Y97.051 E5.88515
G1 X132.501 Y97.278 E5.9082
G1 X133.125 Y97.578 E5.93123
G1 X133.71 Y97.949 E5.95427
G1 X134.248 Y98.384 E5.97728
G1 X134.733 Y98.879 E6.00033
G1 X135.224 Y99.525 E6.02732
G1 X136.931 Y102.118 E6.13057
G1 X137.277 Y102.717 E6.15358
G1 X137.553 Y103.353 E6.17664
G1 X137.753 Y104.016 E6.19967
G1 X137.876 Y104.697 E6.22269
G1 X137.912 Y105.712 E6.25647
G1 X137.432 Y115.458 E6.58102
G1 X137.596 Y122.704 E6.82208
G1 X137.598 Y122.853 E6.82704
G1 X137.59 Y126.441 E6.94637
G1 X137.548 Y127.133 E6.96943
G1 X137.428 Y127.815 E6.99246
G1 X137.229 Y128.478 E7.01549
G1 X136.955 Y129.114 E7.03852
G1 X136.61 Y129.714 E7.06154
G1 X136.239 Y130.221 E7.08244
G1 X133.968 Y133.004 E7.20191
G1 X133.492 Y133.522 E7.2253
G1 X133.335 Y133.674 E7.23257
G1 X132.811 Y134.126 E7.25559
G1 X132.238 Y134.515 E7.27862
G1 X131.624 Y134.835 E7.30165
G1 X130.977 Y135.082 E7.32469
G1 X130.306 Y135.253 E7.34772
G1 X129.619 Y135.346 E7.37078
G1 X129.227 Y135.363 E7.38383
G1 X128.306 Y135.373 E7.41446
G1 X127.803 Y135.357 E7.4312
G1 X124.037 Y135.082 E7.55679
G1 X118.623 Y134.853 E7.73702
G1 X113.326 Y134.928 E7.91322
G1 X107.337 Y135.353 E8.11291
G1 X106.893 Y135.368 E8.12769
G1 X105.419 Y135.363 E8.17672
G1 X104.727 Y135.321 E8.19977
G1 X104.046 Y135.199 E8.22278
G1 X103.382 Y135 E8.24584
G1 X102.747 Y134.725 E8.26886
G1 X102.147 Y134.379 E8.29189
G1 X101.591 Y133.966 E8.31493
G1 X101.086 Y133.492 E8.33796
G1 X100.812 Y133.182 E8.35173
G1 X98.382 Y130.238 E8.47869
G1 X97.972 Y129.68 E8.50172
G1 X97.63 Y129.078 E8.52475
G1 X97.36 Y128.44 E8.54779
G1 X97.164 Y127.776 E8.57082
G1 X97.047 Y127.093 E8.59387
G1 X97.009 Y126.417 E8.61638
G1 X97.01 Y122.617 E8.74277
G1 X97.021 Y122.254 E8.75485
G1 X97.265 Y118.251 E8.88824
G1 X97.341 Y112.898 E9.0663
G1 X97.084 Y105.631 E9.30815
G1 X97.099 Y104.939 E9.33117
G1 X97.194 Y104.253 E9.35421
G1 X97.368 Y103.582 E9.37726
G1 X97.618 Y102.936 E9.4003
G1 X98.07 Y102.118 E9.43139
G1 X99.795 Y99.5 E9.53566
G1 X100.209 Y98.944 E9.55872
G1 X100.684 Y98.441 E9.58173
M204 S5000
M205 X30 Y30
G0 F3600 X100.991 Y98.7
M204 S500
M205 X20 Y20
G1 F1800 X101.508 Y98.275 E9.60399
G1 X102.071 Y97.914 E9.62623
G1 X102.673 Y97.623 E9.64847
G1 X103.306 Y97.405 E9.67074
G1 X103.96 Y97.265 E9.69299
G1 X104.601 Y97.205 E9.7144
G1 X105.315 Y97.179 E9.73816
G1 X105.912 Y97.189 E9.75802
G1 X108.004 Y97.336 E9.82777
G1 X115.132 Y97.784 E10.06532
G1 X120.451 Y97.77 E10.24223
G1 X125.833 Y97.452 E10.42155
G1 X128.613 Y97.198 E10.5144
G1 X129.373 Y97.181 E10.53968
G1 X130.463 Y97.23 E10.57597
G1 X131.129 Y97.3 E10.59824
G1 X131.781 Y97.448 E10.62048
G1 X132.411 Y97.674 E10.64274
G1 X133.01 Y97.973 E10.66501
G1 X133.568 Y98.341 E10.68724
G1 X134.079 Y98.773 E10.7095
G1 X134.534 Y99.263 E10.73174
G1 X134.889 Y99.745 E10.75165
G1 X136.596 Y102.338 E10.8549
G1 X136.93 Y102.918 E10.87716
G1 X137.193 Y103.533 E10.89941
G1 X137.38 Y104.175 E10.92165
G1 X137.489 Y104.835 E10.9439
G1 X137.512 Y105.692 E10.97241
G1 X137.032 Y115.433 E11.29679
G1 X137.197 Y122.713 E11.53899
G1 X137.198 Y122.852 E11.54361
G1 X137.19 Y126.44 E11.66295
G1 X137.149 Y127.108 E11.68521
G1 X137.028 Y127.766 E11.70746
G1 X136.829 Y128.405 E11.72972
G1 X136.556 Y129.016 E11.75198
G1 X136.212 Y129.59 E11.77424
G1 X135.929 Y129.969 E11.78997
G1 X133.658 Y132.752 E11.90944
G1 X133.214 Y133.234 E11.93124
G1 X133.057 Y133.386 E11.9385
G1 X132.55 Y133.822 E11.96074
G1 X131.994 Y134.194 E11.98299
G1 X131.397 Y134.498 E12.00528
G1 X130.769 Y134.727 E12.02751
G1 X130.118 Y134.881 E12.04976
G1 X129.223 Y134.963 E12.07965
G1 X128.302 Y134.973 E12.11029
G1 X127.833 Y134.958 E12.12589
G1 X124.053 Y134.682 E12.25195
G1 X118.634 Y134.452 E12.43235
G1 X113.31 Y134.529 E12.60945
G1 X107.309 Y134.954 E12.80954
G1 X106.894 Y134.968 E12.82335
G1 X105.42 Y134.963 E12.87238
G1 X104.752 Y134.921 E12.89464
G1 X104.094 Y134.799 E12.9169
G1 X103.456 Y134.6 E12.93912
G1 X102.845 Y134.326 E12.9614
G1 X102.272 Y133.981 E12.98364
G1 X101.744 Y133.571 E13.00588
G1 X101.12 Y132.928 E13.03568
G1 X98.69 Y129.984 E13.16264
G1 X98.296 Y129.443 E13.1849
G1 X97.969 Y128.86 E13.20714
G1 X97.714 Y128.241 E13.2294
G1 X97.534 Y127.597 E13.25164
G1 X97.433 Y126.935 E13.27392
G1 X97.409 Y126.418 E13.29113
G1 X97.41 Y122.618 E13.41752
G1 X97.42 Y122.278 E13.42883
G1 X97.665 Y118.259 E13.56275
G1 X97.741 Y112.909 E13.74071
G1 X97.483 Y105.617 E13.9834
G1 X97.5 Y104.948 E14.00565
G1 X97.596 Y104.286 E14.0279
G1 X97.77 Y103.64 E14.05015
G1 X98.02 Y103.019 E14.07242
G1 X98.404 Y102.338 E14.09842
G1 X100.129 Y99.72 E14.2027
G1 X100.53 Y99.184 E14.22497
G1 X100.991 Y98.7 E14.2472
M204 S5000
M205 X30 Y30
G0 F3600 X101.298 Y98.961
M204 S500
M205 X20 Y20
G1 F1800 X101.8 Y98.557 E14.26863
G1 X102.349 Y98.218 E14.29009
G1 X102.935 Y97.949 E14.31153
G1 X103.549 Y97.755 E14.33295
G1 X104.183 Y97.638 E14.35439
G1 X104.616 Y97.604 E14.36884
G1 X105.33 Y97.578 E14.3926
G1 X105.884 Y97.588 E14.41103
G1 X107.979 Y97.735 E14.48088
G1 X115.123 Y98.184 E14.71896
G1 X120.458 Y98.17 E14.89641
G1 X125.891 Y97.849 E15.07742
G1 X128.649 Y97.597 E15.16954
G1 X129.356 Y97.58 E15.19306
G1 X130.446 Y97.629 E15.22935
G1 X131.087 Y97.698 E15.25079
G1 X131.714 Y97.846 E15.27222
G1 X132.319 Y98.07 E15.29368
G1 X132.891 Y98.367 E15.31511
G1 X133.422 Y98.733 E15.33656
G1 X133.903 Y99.161 E15.35798
G1 X134.328 Y99.646 E15.37943
G1 X134.555 Y99.965 E15.39245
G1 X136.262 Y102.558 E15.4957
G1 X136.583 Y103.117 E15.51714
G1 X136.831 Y103.712 E15.53858
G1 X137.005 Y104.333 E15.56003
G1 X137.1 Y104.97 E15.58145
G1 X137.113 Y105.673 E15.60484
G1 X136.632 Y115.437 E15.92999
G1 X136.797 Y122.722 E16.17235
G1 X136.798 Y122.852 E16.17667
G1 X136.79 Y126.44 E16.29601
G1 X136.749 Y127.083 E16.31744
G1 X136.628 Y127.716 E16.33887
G1 X136.43 Y128.33 E16.36033
G1 X136.157 Y128.914 E16.38177
G1 X135.619 Y129.716 E16.41389
G1 X133.348 Y132.499 E16.53336
G1 X132.936 Y132.947 E16.55361
G1 X132.779 Y133.099 E16.56088
G1 X132.289 Y133.518 E16.58232
G1 X131.751 Y133.873 E16.60376
G1 X131.173 Y134.158 E16.62519
G1 X130.564 Y134.37 E16.64664
G1 X129.934 Y134.505 E16.66807
G1 X129.218 Y134.563 E16.69196
G1 X128.297 Y134.573 E16.7226
G1 X127.862 Y134.559 E16.73707
G1 X124.066 Y134.281 E16.86366
G1 X118.645 Y134.052 E17.04413
G1 X113.294 Y134.129 E17.22212
G1 X107.281 Y134.555 E17.42262
G1 X106.895 Y134.568 E17.43546
G1 X105.421 Y134.563 E17.48449
G1 X104.778 Y134.521 E17.50592
G1 X104.145 Y134.399 E17.52736
G1 X103.532 Y134.201 E17.54879
G1 X102.948 Y133.927 E17.57024
G1 X102.402 Y133.584 E17.59169
G1 X101.903 Y133.176 E17.61313
G1 X101.429 Y132.673 E17.63611
G1 X98.999 Y129.729 E17.76308
G1 X98.62 Y129.207 E17.78453
G1 X98.309 Y128.643 E17.80596
G1 X98.07 Y128.044 E17.82741
G1 X97.906 Y127.421 E17.84883
G1 X97.822 Y126.782 E17.87027
G1 X97.809 Y126.418 E17.88238
G1 X97.81 Y122.618 E18.00877
G1 X97.82 Y122.302 E18.01929
G1 X98.065 Y118.289 E18.15301
G1 X98.141 Y112.901 E18.33223
G1 X97.883 Y105.603 E18.57512
G1 X97.9 Y104.958 E18.59658
G1 X97.997 Y104.321 E18.61801
G1 X98.172 Y103.7 E18.63947
G1 X98.423 Y103.106 E18.66091
G1 X98.738 Y102.558 E18.68194
G1 X100.463 Y99.94 E18.78622
G1 X100.85 Y99.425 E18.80764
G1 X101.298 Y98.961 E18.82909
M204 S5000
M205 X30 Y30
G0 F3600 X103.316 Y122.584
M204 S500
M205 X20 Y20
;TYPE:SUPPORT
G1 F1800 X104.5 Y122.584 E18.86847
G1 X104.5 Y125.415 E18.96263
G1 X105.144 Y126.059 E18.99293
G1 X105.2 Y126.059 E18.99479
G1 X105.2 Y126.237 E19.00071
G1 X105.434 Y126.471 E19.01171
G1 X107.066 Y126.471 E19.066
G1 X107.1 Y126.437 E19.06759
G1 X107.1 Y129.057 E19.15474
G1 X106.984 Y129.173 E19.16019
G1 X105.516 Y129.173 E19.20902
G1 X105.4 Y129.057 E19.21447
G1 X105.4 Y126.865 E19.28738
G1 X105.001 Y126.466 E19.30615
G1 X103.317 Y126.466 E19.36216
G1 X103.2 Y126.348 E19.36769
G1 X103.2 Y122.7 E19.48902
G1 X103.316 Y122.584 E19.49447
M204 S5000
M205 X30 Y30
G0 F3600 X104.013 Y122.744
M204 S500
M205 X20 Y20
G1 F1800 X104.013 Y126.306 E19.61295
M204 S5000
M205 X30 Y30
G0 F3600 X104.339 Y125.349
M204 S500
M205 X20 Y20
G1 F1800 X103.359 Y125.349 E19.64554
M204 S5000
M205 X30 Y30
G0 F3600 X105.559 Y128.016
M204 S500
M205 X20 Y20
G1 F1800 X106.939 Y128.016 E19.69144
M204 S5000
M205 X30 Y30
G0 F3600 X106.68 Y129.013
M204 S500
M205 X20 Y20
G1 F1800 X106.68 Y126.631 E19.77067
M204 S5000
M205 X30 Y30
G0 F3600 X127.5 Y126.437
M204 S500
M205 X20 Y20
G1 F1800 X127.534 Y126.471 E19.77227
G1 X129.166 Y126.471 E19.82655
G1 X129.4 Y126.237 E19.83755
G1 X129.4 Y126.059 E19.84347
G1 X129.456 Y126.059 E19.84534
G1 X130.1 Y125.415 E19.87563
G1 X130.1 Y122.584 E19.96979
G1 X131.283 Y122.584 E20.00913
G1 X131.4 Y122.702 E20.01466
G1 X131.4 Y126.35 E20.13599
G1 X131.284 Y126.466 E20.14145
G1 X129.599 Y126.466 E20.19749
G1 X129.2 Y126.865 E20.21626
G1 X129.2 Y129.057 E20.28917
G1 X129.084 Y129.173 E20.29462
G1 X127.616 Y129.173 E20.34345
G1 X127.5 Y129.057 E20.34891
G1 X127.5 Y126.437 E20.43605
M204 S5000
M205 X30 Y30
G0 F3600 X128.016 Y126.631
M204 S500
M205 X20 Y20
G1 F1800 X128.016 Y129.013 E20.51527
M204 S5000
M205 X30 Y30
G0 F3600 X127.659 Y128.016
M204 S500
M205 X20 Y20
G1 F1800 X129.039 Y128.016 E20.56117
M204 S5000
M205 X30 Y30
G0 F3600 X130.683 Y126.306
M204 S500
M205 X20 Y20
G1 F1800 X130.683 Y122.745 E20.67961
M204 S5000
M205 X30 Y30
G0 F3600 X130.259 Y125.349
M204 S500
M205 X20 Y20
G1 F1800 X131.24 Y125.349 E20.71224
M204 S5000
M205 X30 Y30
G1 F2400 E15.71224
;MESH:dragchain-top.stl
G0 F3600 X128.586 Y124.545
G0 X128.53 Y114.944
G0 X128.6 Y115.014
M204 S500
M205 X20 Y20
;TYPE:WALL-INNER
G1 F2400 E20.71224
G1 F1800 X128.6 Y124.559 E21.02971
G1 X128.1 Y124.559 E21.04634
G1 X128.1 Y115.531 E21.34661
G1 X127.693 Y115.225 E21.36355
G1 X107.94 Y115.225 E22.02053
G1 X107.94 Y115.014 E22.02755
G1 X106.5 Y115.014 E22.07545
G1 X106.5 Y124.559 E22.39291
G1 X106 Y124.559 E22.40954
G1 X106 Y115.014 E22.72701
G1 X105.329 Y115.014 E22.74933
G1 X105.185 Y114.954 E22.75452
G1 X105.125 Y114.81 E22.75971
G1 X105.125 Y106.451 E23.03773
G1 X103.67 Y106.251 E23.08658
G1 X103.67 Y105.596 E23.10836
G1 X105.134 Y103.375 E23.19684
G1 X105.626 Y103.375 E23.2132
G1 X105.626 Y114.574 E23.58568
G1 X115.1 Y114.574 E23.90079
G1 X115.1 Y109.518 E24.06895
G1 X115.113 Y109.488 E24.07004
G1 X115.143 Y109.475 E24.07113
G1 X119.857 Y109.475 E24.22791
G1 X119.887 Y109.488 E24.229
G1 X119.9 Y109.518 E24.23009
G1 X119.9 Y114.574 E24.39825
G1 X129.372 Y114.574 E24.71329
G1 X129.374 Y103.375 E25.08577
G1 X129.866 Y103.375 E25.10214
G1 X131.33 Y105.596 E25.19061
G1 X131.33 Y106.251 E25.2124
G1 X129.875 Y106.451 E25.26125
G1 X129.875 Y114.81 E25.53927
G1 X129.815 Y114.954 E25.54446
G1 X129.671 Y115.014 E25.54965
G1 X128.6 Y115.014 E25.58527
M204 S5000
M205 X30 Y30
G0 F3600 X129 Y115.414
M204 S500
M205 X20 Y20
;TYPE:WALL-OUTER
G1 F1800 X129 Y124.959 E25.90273
G1 X127.7 Y124.959 E25.94597
G1 X127.7 Y115.731 E26.2529
G1 X127.559 Y115.625 E26.25876
G1 X107.54 Y115.625 E26.9246
G1 X107.54 Y115.414 E26.93162
G1 X106.9 Y115.414 E26.9529
G1 X106.9 Y124.959 E27.27037
G1 X105.6 Y124.959 E27.31361
G1 X105.6 Y115.414 E27.63108
G1 X105.249 Y115.414 E27.64275
G1 X104.878 Y115.261 E27.6561
G1 X104.725 Y114.89 E27.66945
G1 X104.725 Y106.8 E27.93852
G1 X103.27 Y106.6 E27.98737
G1 X103.27 Y105.476 E28.02475
G1 X104.919 Y102.975 E28.12439
G1 X106.026 Y102.975 E28.16121
G1 X106.026 Y114.174 E28.53369
G1 X114.7 Y114.174 E28.82219
G1 X114.7 Y109.438 E28.97971
G1 X114.806 Y109.181 E28.98896
G1 X115.063 Y109.075 E28.9982
G1 X119.937 Y109.075 E29.16031
G1 X120.194 Y109.181 E29.16956
G1 X120.3 Y109.438 E29.17881
G1 X120.3 Y114.174 E29.33633
G1 X128.972 Y114.174 E29.62476
G1 X128.974 Y102.975 E29.99724
G1 X130.081 Y102.975 E30.03406
G1 X131.73 Y105.476 E30.13369
G1 X131.73 Y106.6 E30.17108
G1 X130.275 Y106.8 E30.21993
G1 X130.275 Y114.89 E30.489
G1 X130.122 Y115.261 E30.50235
G1 X129.751 Y115.414 E30.5157
G1 X129 Y115.414 E30.54067
M204 S5000
M205 X30 Y30
G0 F3600 X129 Y115.614
G0 X128.21 Y115.126
M204 S500
M205 X20 Y20
;TYPE:SKIN
G1 F1800 X127.995 Y114.964 E30.54963
G1 X128.21 Y114.964 E30.55678
G1 X128.21 Y115.126 E30.56217
M204 S5000
M205 X30 Y30
G0 F3600 X119.51 Y114.835
M204 S500
M205 X20 Y20
G1 F1800 X115.49 Y114.835 E30.69587
