;FLAVOR:Marlin
;TIME:1939
;Filament used: 0.87232m
;Layer height: 0.12
;Generated with Cura_SteamEngine master
M140 S60
M105
M190 S60
M104 S200
M105
M109 S200
M82 ;absolute extrusion mode
; Ender 3 Custom Start G-code
G28 ; Home all axes
G92 E0 ; Reset Extruder
G1 Z2.0 F3000 ; Move Z Axis up little to prevent scratching of Heat Bed
G1 X0.1 Y20 Z0.3 F5000.0 ; Move to start position
G1 X0.1 Y200.0 Z0.3 F1500.0 E15 ; Draw the first line
G1 X0.4 Y200.0 Z0.3 F5000.0 ; Move to side a little
G1 X0.4 Y20 Z0.3 F1500.0 E30 ; Draw the second line
G92 E0 ; Reset Extruder
G1 Z2.0 F3000 ; Move Z Axis up little to prevent scratching of Heat Bed
; End of custom start GCode
G92 E0
G1 F3600 E-10
;LAYER_COUNT:129
;LAYER:0
M107
M204 S5000
M205 X30 Y30
G0 F3600 X101.204 Y102.935 Z0.2
M204 S500
M205 X20 Y20
;TYPE:SKIRT
G1 F3600 E0
G1 F1500 X101.766 Y102.493 E0.02378
G1 X102.375 Y102.117 E0.04759
G1 X103.021 Y101.81 E0.07137
G1 X103.697 Y101.578 E0.09515
G1 X104.396 Y101.423 E0.11896
G1 X105.337 Y101.339 E0.15038
G1 X106.262 Y101.325 E0.18115
G1 X106.826 Y101.341 E0.19992
G1 X110.609 Y101.618 E0.32608
G1 X115.97 Y101.844 E0.50454
G1 X121.258 Y101.769 E0.68044
G1 X127.236 Y101.345 E0.87977
G1 X127.71 Y101.329 E0.89554
G1 X129.182 Y101.334 E0.9445
G1 X129.896 Y101.376 E0.96829
G1 X130.601 Y101.498 E0.99209
G1 X131.287 Y101.698 E1.01585
G1 X131.948 Y101.973 E1.03967
G1 X132.573 Y102.32 E1.06344
G1 X133.156 Y102.735 E1.08724
G1 X133.501 Y103.031 E1.10236
G1 X133.579 Y103.103 E1.10589
G1 X134.077 Y103.617 E1.1297
G1 X134.516 Y104.186 E1.1536
G1 X136.868 Y107.615 E1.2919
G1 X137.239 Y108.226 E1.31567
G1 X137.539 Y108.876 E1.33949
G1 X137.765 Y109.554 E1.36326
G1 X137.914 Y110.254 E1.38706
G1 X137.99 Y111.195 E1.41846
G1 X138.053 Y121.297 E1.75446
G1 X138.315 Y125.513 E1.89495
G1 X138.327 Y125.948 E1.90943
G1 X138.32 Y127.118 E1.94834
G1 X138.276 Y127.832 E1.97214
G1 X138.152 Y128.537 E1.99594
G1 X137.951 Y129.223 E2.01972
G1 X137.674 Y129.883 E2.04353
G1 X137.263 Y130.602 E2.07107
G1 X135.526 Y133.237 E2.17604
G1 X135.1 Y133.812 E2.19984
G1 X134.612 Y134.335 E2.22363
G1 X134.069 Y134.8 E2.24741
G1 X133.477 Y135.202 E2.27121
G1 X132.845 Y135.535 E2.29497
G1 X132.178 Y135.796 E2.31879
G1 X131.487 Y135.981 E2.34259
G1 X130.78 Y136.087 E2.36636
G1 X130.183 Y136.115 E2.38624
G1 X128.784 Y136.115 E2.43277
G1 X128.185 Y136.087 E2.45272
G1 X125.021 Y135.79 E2.55842
G1 X119.7 Y135.512 E2.73563
G1 X114.397 Y135.534 E2.91201
G1 X109.044 Y135.861 E3.09039
G1 X106.485 Y136.098 E3.17586
G1 X105.819 Y136.125 E3.19803
G1 X104.737 Y136.112 E3.23402
G1 X104.023 Y136.063 E3.25783
G1 X103.32 Y135.935 E3.28159
G1 X102.635 Y135.73 E3.30538
G1 X101.977 Y135.449 E3.32917
G1 X101.354 Y135.096 E3.35299
G1 X100.775 Y134.677 E3.37676
G1 X100.246 Y134.195 E3.40056
G1 X99.775 Y133.657 E3.42435
G1 X99.471 Y133.235 E3.44164
G1 X97.75 Y130.625 E3.54563
G1 X97.39 Y130.007 E3.56941
G1 X97.102 Y129.352 E3.59321
G1 X96.888 Y128.67 E3.61699
G1 X96.752 Y127.968 E3.64077
G1 X96.693 Y127.025 E3.67219
G1 X96.782 Y119.6 E3.91917
G1 X96.631 Y115.377 E4.05972
G1 X96.627 Y115.175 E4.06644
G1 X96.61 Y111.124 E4.20117
G1 X96.647 Y110.41 E4.22495
G1 X96.763 Y109.704 E4.24875
G1 X96.958 Y109.016 E4.27253
G1 X97.228 Y108.353 E4.29634
G1 X97.57 Y107.725 E4.32013
G1 X97.82 Y107.352 E4.33506
G1 X100.244 Y103.993 E4.47284
G1 X100.695 Y103.437 E4.49665
G1 X101.204 Y102.935 E4.52043
M204 S5000
M205 X30 Y30
G0 F3600 X101.502 Y103.206
M204 S500
M205 X20 Y20
G1 F1500 X102.05 Y102.783 E4.54345
G1 X102.643 Y102.426 E4.56647
G1 X103.274 Y102.14 E4.58951
G1 X103.933 Y101.929 E4.61253
G1 X104.613 Y101.794 E4.63559
G1 X105.343 Y101.739 E4.65994
G1 X106.268 Y101.725 E4.69071
G1 X106.797 Y101.74 E4.70831
G1 X110.563 Y102.015 E4.8339
G1 X115.977 Y102.244 E5.01413
G1 X121.274 Y102.169 E5.19033
G1 X127.264 Y101.744 E5.39006
G1 X127.708 Y101.729 E5.40483
G1 X129.18 Y101.734 E5.45379
G1 X129.872 Y101.776 E5.47685
G1 X130.553 Y101.898 E5.49986
G1 X131.217 Y102.097 E5.52291
G1 X131.852 Y102.372 E5.54593
G1 X132.452 Y102.718 E5.56897
G1 X133.23 Y103.325 E5.60179
G1 X133.308 Y103.397 E5.60532
G1 X133.789 Y103.895 E5.62835
G1 X134.186 Y104.412 E5.65003
G1 X136.538 Y107.841 E5.78833
G1 X136.896 Y108.434 E5.81136
G1 X137.183 Y109.064 E5.83439
G1 X137.396 Y109.723 E5.85743
G1 X137.532 Y110.402 E5.88046
G1 X137.59 Y111.198 E5.907
G1 X137.653 Y121.324 E6.2438
G1 X137.915 Y125.538 E6.38423
G1 X137.927 Y125.946 E6.39781
G1 X137.92 Y127.116 E6.43672
G1 X137.876 Y127.807 E6.45975
G1 X137.752 Y128.488 E6.48277
G1 X137.551 Y129.151 E6.50582
G1 X137.275 Y129.786 E6.52884
G1 X136.929 Y130.382 E6.55177
G1 X135.192 Y133.017 E6.65674
G1 X134.779 Y133.573 E6.67977
G1 X134.303 Y134.076 E6.7028
G1 X133.773 Y134.522 E6.72584
G1 X133.196 Y134.904 E6.74886
G1 X132.578 Y135.216 E6.77189
G1 X131.928 Y135.456 E6.79493
G1 X131.255 Y135.619 E6.81796
G1 X130.567 Y135.703 E6.84102
G1 X130.183 Y135.715 E6.85379
G1 X128.784 Y135.715 E6.90032
G1 X128.223 Y135.689 E6.919
G1 X125.056 Y135.391 E7.0248
G1 X119.702 Y135.112 E7.20312
G1 X114.389 Y135.134 E7.37983
G1 X109.014 Y135.463 E7.55894
G1 X106.448 Y135.7 E7.64465
G1 X105.824 Y135.725 E7.66542
G1 X104.742 Y135.712 E7.70141
G1 X104.051 Y135.663 E7.72445
G1 X103.37 Y135.536 E7.74749
G1 X102.709 Y135.331 E7.77051
G1 X102.076 Y135.051 E7.79353
G1 X101.479 Y134.699 E7.81658
G1 X100.926 Y134.282 E7.83962
G1 X100.425 Y133.803 E7.86267
G1 X99.805 Y133.015 E7.89602
G1 X98.084 Y130.405 E8
G1 X97.737 Y129.806 E8.02303
G1 X97.461 Y129.171 E8.04606
G1 X97.26 Y128.508 E8.0691
G1 X97.137 Y127.826 E8.09215
G1 X97.093 Y127.03 E8.11866
G1 X97.182 Y119.591 E8.3661
G1 X97.031 Y115.363 E8.50682
G1 X97.027 Y115.173 E8.51314
G1 X97.01 Y111.122 E8.64788
G1 X97.047 Y110.431 E8.67089
G1 X97.164 Y109.748 E8.69394
G1 X97.358 Y109.083 E8.71698
G1 X97.628 Y108.445 E8.74002
G1 X98.145 Y107.586 E8.77337
G1 X100.569 Y104.227 E8.91114
G1 X101.006 Y103.69 E8.93417
G1 X101.502 Y103.206 E8.95722
M204 S5000
M205 X30 Y30
G0 F3600 X101.798 Y103.479
M204 S500
M205 X20 Y20
G1 F1500 X102.332 Y103.076 E8.97947
G1 X102.91 Y102.739 E9.00172
G1 X103.524 Y102.474 E9.02396
G1 X104.166 Y102.283 E9.04624
G1 X104.825 Y102.171 E9.06847
G1 X105.349 Y102.139 E9.08594
G1 X106.274 Y102.125 E9.1167
G1 X106.767 Y102.139 E9.13311
G1 X110.547 Y102.415 E9.25917
G1 X115.966 Y102.645 E9.43957
G1 X121.29 Y102.568 E9.61666
G1 X127.292 Y102.143 E9.81679
G1 X127.707 Y102.129 E9.8306
G1 X129.179 Y102.134 E9.87956
G1 X129.847 Y102.176 E9.90182
G1 X130.505 Y102.298 E9.92408
G1 X131.143 Y102.497 E9.94631
G1 X131.754 Y102.771 E9.96858
G1 X132.327 Y103.116 E9.99082
G1 X132.958 Y103.619 E10.01766
G1 X133.036 Y103.691 E10.02119
G1 X133.5 Y104.173 E10.04345
G1 X133.856 Y104.638 E10.06292
G1 X136.208 Y108.067 E10.20122
G1 X136.553 Y108.641 E10.2235
G1 X136.827 Y109.251 E10.24574
G1 X137.026 Y109.89 E10.268
G1 X137.148 Y110.548 E10.29026
G1 X137.19 Y111.2 E10.31199
G1 X137.253 Y121.334 E10.64905
G1 X137.516 Y125.563 E10.78998
G1 X137.527 Y125.944 E10.80266
G1 X137.52 Y127.114 E10.84157
G1 X137.476 Y127.781 E10.86381
G1 X137.353 Y128.439 E10.88607
G1 X137.152 Y129.077 E10.90832
G1 X136.876 Y129.687 E10.93059
G1 X136.596 Y130.162 E10.94893
G1 X134.859 Y132.797 E11.0539
G1 X134.458 Y133.333 E11.07616
G1 X133.996 Y133.817 E11.09842
G1 X133.479 Y134.242 E11.12068
G1 X132.916 Y134.603 E11.14292
G1 X132.313 Y134.894 E11.16519
G1 X131.681 Y135.111 E11.18741
G1 X131.026 Y135.251 E11.20969
G1 X130.183 Y135.315 E11.23781
G1 X128.784 Y135.315 E11.28434
G1 X128.26 Y135.29 E11.30179
G1 X125.089 Y134.992 E11.40772
G1 X119.721 Y134.712 E11.58651
G1 X114.381 Y134.734 E11.76412
G1 X108.955 Y135.066 E11.94492
G1 X106.412 Y135.301 E12.02986
G1 X105.829 Y135.325 E12.04927
G1 X104.747 Y135.312 E12.08526
G1 X104.079 Y135.264 E12.10754
G1 X103.423 Y135.136 E12.12977
G1 X102.786 Y134.932 E12.15201
G1 X102.178 Y134.653 E12.17426
G1 X101.607 Y134.303 E12.19654
G1 X101.083 Y133.888 E12.21877
G1 X100.611 Y133.413 E12.24104
G1 X100.139 Y132.795 E12.26691
G1 X98.418 Y130.185 E12.37089
G1 X98.084 Y129.605 E12.39315
G1 X97.821 Y128.99 E12.4154
G1 X97.633 Y128.348 E12.43765
G1 X97.524 Y127.688 E12.45989
G1 X97.493 Y127.035 E12.48164
G1 X97.583 Y119.581 E12.72958
G1 X97.431 Y115.348 E12.87046
G1 X97.427 Y115.172 E12.87631
G1 X97.41 Y111.121 E13.01105
G1 X97.447 Y110.453 E13.0333
G1 X97.564 Y109.794 E13.05556
G1 X97.758 Y109.154 E13.07781
G1 X98.027 Y108.541 E13.10007
G1 X98.469 Y107.82 E13.1282
G1 X100.893 Y104.461 E13.26597
G1 X101.316 Y103.943 E13.28822
G1 X101.798 Y103.479 E13.31047
M204 S5000
M205 X30 Y30
G0 F3600 X102.094 Y103.753
M204 S500
M205 X20 Y20
G1 F1500 X102.612 Y103.37 E13.3319
G1 X103.175 Y103.054 E13.35337
G1 X103.772 Y102.811 E13.37481
G1 X104.394 Y102.643 E13.39624
G1 X105.032 Y102.554 E13.41766
G1 X105.355 Y102.539 E13.42842
G1 X106.28 Y102.525 E13.45919
G1 X106.738 Y102.538 E13.47443
G1 X110.534 Y102.816 E13.60102
G1 X115.955 Y103.045 E13.78148
G1 X121.306 Y102.968 E13.95948
G1 X127.32 Y102.542 E14.16
G1 X127.706 Y102.529 E14.17285
G1 X129.178 Y102.534 E14.22181
G1 X129.821 Y102.576 E14.24324
G1 X130.454 Y102.698 E14.26468
G1 X131.067 Y102.896 E14.28611
G1 X131.651 Y103.17 E14.30756
G1 X132.197 Y103.513 E14.32901
G1 X132.687 Y103.913 E14.35005
G1 X132.765 Y103.985 E14.35358
G1 X133.211 Y104.451 E14.37503
G1 X133.526 Y104.865 E14.39233
G1 X135.878 Y108.294 E14.53063
G1 X136.209 Y108.847 E14.55207
G1 X136.469 Y109.437 E14.57351
G1 X136.654 Y110.054 E14.59494
G1 X136.761 Y110.69 E14.61639
G1 X136.79 Y111.203 E14.63348
G1 X136.853 Y121.342 E14.97071
G1 X137.117 Y125.587 E15.11217
G1 X137.127 Y125.941 E15.12395
G1 X137.12 Y127.111 E15.16287
G1 X137.076 Y127.754 E15.1843
G1 X136.953 Y128.387 E15.20575
G1 X136.753 Y129 E15.2272
G1 X136.478 Y129.583 E15.24864
G1 X136.262 Y129.942 E15.26257
G1 X134.525 Y132.577 E15.36754
G1 X134.137 Y133.092 E15.38899
G1 X133.689 Y133.555 E15.41041
G1 X133.187 Y133.96 E15.43187
G1 X132.638 Y134.299 E15.45333
G1 X132.052 Y134.567 E15.47476
G1 X131.437 Y134.761 E15.49621
G1 X130.803 Y134.878 E15.51765
G1 X130.183 Y134.915 E15.53831
G1 X128.784 Y134.915 E15.58484
G1 X128.297 Y134.892 E15.60106
G1 X125.122 Y134.594 E15.70712
G1 X119.723 Y134.312 E15.88694
G1 X114.354 Y134.334 E16.06551
G1 X108.958 Y134.664 E16.24532
G1 X106.375 Y134.903 E16.3316
G1 X105.834 Y134.925 E16.34961
G1 X104.752 Y134.912 E16.3856
G1 X104.109 Y134.864 E16.40704
G1 X103.477 Y134.737 E16.42848
G1 X102.865 Y134.533 E16.44994
G1 X102.284 Y134.255 E16.47136
G1 X101.741 Y133.907 E16.49281
G1 X101.245 Y133.494 E16.51428
G1 X100.805 Y133.024 E16.53569
G1 X100.473 Y132.575 E16.55427
G1 X98.752 Y129.965 E16.65825
G1 X98.431 Y129.405 E16.67972
G1 X98.182 Y128.811 E16.70114
G1 X98.008 Y128.19 E16.72259
G1 X97.913 Y127.552 E16.74404
G1 X97.893 Y127.039 E16.76112
G1 X97.983 Y119.593 E17.00879
G1 X97.83 Y115.334 E17.15054
G1 X97.827 Y115.17 E17.15599
G1 X97.81 Y111.119 E17.29073
G1 X97.847 Y110.475 E17.31219
G1 X97.964 Y109.841 E17.33363
G1 X98.158 Y109.226 E17.35508
G1 X98.427 Y108.64 E17.37652
G1 X98.793 Y108.054 E17.3995
G1 X101.217 Y104.695 E17.53728
G1 X101.626 Y104.197 E17.55871
G1 X102.094 Y103.753 E17.58017
M204 S5000
M205 X30 Y30
G0 F3600 X105.516 Y107.924
M204 S500
M205 X20 Y20
;TYPE:SUPPORT
G1 F1500 X106.984 Y107.924 E17.62899
G1 X107.1 Y108.04 E17.63445
G1 X107.1 Y111.108 E17.73649
G1 X107.066 Y111.074 E17.73809
G1 X105.434 Y111.074 E17.79237
G1 X105.2 Y111.308 E17.80338
G1 X105.2 Y111.372 E17.8055
G1 X105.144 Y111.372 E17.80737
G1 X104.5 Y112.016 E17.83766
G1 X104.5 Y114.905 E17.93375
G1 X103.315 Y114.89 E17.97316
G1 X103.2 Y114.773 E17.97862
G1 X103.2 Y111.176 E18.09826
G1 X103.315 Y111.059 E18.10371
G1 X105.005 Y111.034 E18.15993
G1 X105.4 Y110.633 E18.17865
G1 X105.4 Y108.04 E18.26489
G1 X105.516 Y107.924 E18.27035
M204 S5000
M205 X30 Y30
G0 F3600 X106.68 Y108.084
M204 S500
M205 X20 Y20
G1 F1500 X106.68 Y110.914 E18.36448
M204 S5000
M205 X30 Y30
G0 F3600 X106.94 Y109.347
M204 S500
M205 X20 Y20
G1 F1500 X105.56 Y109.347 E18.41038
M204 S5000
M205 X30 Y30
G0 F3600 X104.013 Y111.209
M204 S500
M205 X20 Y20
G1 F1500 X104.013 Y114.738 E18.52775
M204 S5000
M205 X30 Y30
G0 F3600 X104.34 Y114.681
M204 S500
M205 X20 Y20
G1 F1500 X103.36 Y114.681 E18.56035
M204 S5000
M205 X30 Y30
G0 F3600 X103.36 Y112.014
M204 S500
M205 X20 Y20
G1 F1500 X104.34 Y112.014 E18.59294
M204 S5000
M205 X30 Y30
G1 F3600 E8.59294
G0 F3600 X105.243 Y111.611
G0 X127.5 Y111.108
M204 S500
M205 X20 Y20
G1 F3600 E18.59294
G1 F1500 X127.5 Y108.04 E18.69498
G1 X127.616 Y107.924 E18.70044
G1 X129.084 Y107.924 E18.74927
G1 X129.2 Y108.04 E18.75472
G1 X129.2 Y110.776 E18.84572
G1 X129.599 Y111.176 E18.86451
G1 X131.271 Y111.183 E18.92012
G1 X131.4 Y111.312 E18.92619
G1 X131.4 Y114.65 E19.03721
G1 X131.284 Y114.767 E19.04269
G1 X130.1 Y114.776 E19.08207
G1 X130.1 Y112.016 E19.17387
G1 X129.456 Y111.372 E19.20416
G1 X129.4 Y111.372 E19.20603
G1 X129.4 Y111.308 E19.20816
G1 X129.166 Y111.074 E19.21916
G1 X127.534 Y111.074 E19.27344
G1 X127.5 Y111.108 E19.27504
M204 S5000
M205 X30 Y30
G0 F3600 X128.016 Y110.914
M204 S500
M205 X20 Y20
G1 F1500 X128.016 Y108.084 E19.36917
M204 S5000
M205 X30 Y30
G0 F3600 X127.66 Y109.347
M204 S500
M205 X20 Y20
G1 F1500 X129.04 Y109.347 E19.41507
M204 S5000
M205 X30 Y30
G0 F3600 X130.683 Y111.341
M204 S500
M205 X20 Y20
G1 F1500 X130.683 Y114.612 E19.52386
M204 S5000
M205 X30 Y30
G0 F3600 X130.26 Y112.014
M204 S500
M205 X20 Y20
G1 F1500 X131.24 Y112.014 E19.55646
M204 S5000
M205 X30 Y30
G1 F3600 E9.55646
;MESH:dragchain-top.stl
G0 F3600 X128.586 Y112.886
G0 X128.53 Y122.556
G0 X128.6 Y122.486
M204 S500
M205 X20 Y20
;TYPE:WALL-INNER
G1 F3600 E19.55646
G1 F1500 X129.671 Y122.486 E19.59208
G1 X129.815 Y122.546 E19.59727
G1 X129.875 Y122.69 E19.60246
G1 X129.875 Y126.049 E19.71418
G1 X131.33 Y126.249 E19.76302
G1 X131.33 Y126.904 E19.78481
G1 X129.866 Y129.125 E19.87329
G1 X129.374 Y129.125 E19.88965
G1 X129.372 Y122.926 E20.09583
G1 X119.9 Y122.926 E20.41087
G1 X119.9 Y123.075 E20.41582
G1 X115.1 Y123.075 E20.57547
G1 X115.1 Y122.926 E20.58043
G1 X105.626 Y122.926 E20.89554
G1 X105.626 Y129.125 E21.10171
G1 X105.134 Y129.125 E21.11808
G1 X103.67 Y126.904 E21.20655
G1 X103.67 Y126.249 E21.22834
G1 X105.125 Y126.049 E21.27719
G1 X105.125 Y122.69 E21.38891
G1 X105.185 Y122.546 E21.3941
G1 X105.329 Y122.486 E21.39929
G1 X106 Y122.486 E21.4216
G1 X106 Y112.872 E21.74137
G1 X106.5 Y112.872 E21.758
G1 X106.5 Y122.486 E22.07776
G1 X107.94 Y122.486 E22.12565
G1 X107.94 Y122.275 E22.13267
G1 X128.1 Y122.275 E22.8032
G1 X128.1 Y112.872 E23.11594
G1 X128.6 Y112.872 E23.13257
G1 X128.6 Y122.486 E23.45233
M204 S5000
M205 X30 Y30
G0 F3600 X129 Y122.086
M204 S500
M205 X20 Y20
;TYPE:WALL-OUTER
G1 F1500 X129.751 Y122.086 E23.47731
G1 X130.122 Y122.239 E23.49066
G1 X130.275 Y122.61 E23.50401
G1 X130.275 Y125.7 E23.60678
G1 X131.73 Y125.9 E23.65563
G1 X131.73 Y127.024 E23.69301
G1 X130.081 Y129.525 E23.79265
G1 X128.974 Y129.525 E23.82947
G1 X128.972 Y123.326 E24.03565
G1 X120.3 Y123.326 E24.32408
G1 X120.3 Y123.475 E24.32904
G1 X114.7 Y123.475 E24.5153
G1 X114.7 Y123.326 E24.52025
G1 X106.026 Y123.326 E24.80875
G1 X106.026 Y129.525 E25.01493
G1 X104.919 Y129.525 E25.05175
G1 X103.27 Y127.024 E25.15139
G1 X103.27 Y125.9 E25.18877
G1 X104.725 Y125.7 E25.23762
G1 X104.725 Y122.61 E25.34039
G1 X104.878 Y122.239 E25.35374
G1 X105.249 Y122.086 E25.36709
G1 X105.6 Y122.086 E25.37876
G1 X105.6 Y112.472 E25.69852
G1 X106.9 Y112.472 E25.74176
G1 X106.9 Y122.086 E26.06153
G1 X107.54 Y122.086 E26.08281
G1 X107.54 Y121.875 E26.08983
G1 X127.7 Y121.875 E26.76035
G1 X127.7 Y112.472 E27.0731
G1 X129 Y112.472 E27.11634
G1 X129 Y122.086 E27.4361
M204 S5000
M205 X30 Y30
G0 F3600 X129.2 Y122.086
G0 X129.2 Y122.586
G0 X129.38 Y122.866
G0 X129.763 Y126.427
M204 S500
M205 X20 Y20
;TYPE:SKIN
G1 F1500 X130.94 Y126.589 E27.47562
G1 X130.94 Y126.786 E27.48217
G1 X129.764 Y128.57 E27.55324
G1 X129.763 Y126.427 E27.62451
M204 S5000
M205 X30 Y30
G0 F3600 X129.4 Y122.898
G0 X119.51 Y122.665
M204 S500
M205 X20 Y20
G1 F1500 X119.51 Y122.685 E27.62518
G1 X115.49 Y122.685 E27.75888
G1 X115.49 Y122.665 E27.75955
G1 X119.51 Y122.665 E27.89326
