;FLAVOR:Marlin
;TIME:1958
;Filament used: 1.13117m
;Layer height: 0.12
;Generated with Cura_SteamEngine master
M140 S60
M105
M190 S60
M104 S200
M105
M109 S200
M82 ;absolute extrusion mode
; Ender 3 Custom Start G-code
G28 ; Home all axes
G92 E0 ; Reset Extruder
G1 Z2.0 F3000 ; Move Z Axis up little to prevent scratching of Heat Bed
G1 X0.1 Y20 Z0.3 F5000.0 ; Move to start position
G1 X0.1 Y200.0 Z0.3 F1500.0 E15 ; Draw the first line
G1 X0.4 Y200.0 Z0.3 F5000.0 ; Move to side a little
G1 X0.4 Y20 Z0.3 F1500.0 E30 ; Draw the second line
G92 E0 ; Reset Extruder
G1 Z2.0 F3000 ; Move Z Axis up little to prevent scratching of Heat Bed
; End of custom start GCode
G92 E0
G1 F3600 E-10
;LAYER_COUNT:167
;LAYER:0
M107
M204 S5000
M205 X30 Y30
G0 F3600 X98.412 Y98.745 Z0.2
M204 S500
M205 X20 Y20
;TYPE:SKIRT
G1 F3600 E0
G1 F1500 X98.971 Y98.208 E0.02578
G1 X100.825 Y96.631 E0.10674
G1 X101.395 Y96.199 E0.13052
G1 X102.01 Y95.833 E0.15433
G1 X102.661 Y95.538 E0.1781
G1 X103.252 Y95.341 E0.19882
G1 X107.217 Y94.235 E0.33573
G1 X109.693 Y93.454 E0.42208
G1 X115.073 Y91.498 E0.61248
G1 X115.758 Y91.292 E0.63627
G1 X116.462 Y91.163 E0.66008
G1 X117.175 Y91.114 E0.68385
G1 X117.749 Y91.132 E0.70295
G1 X120.203 Y91.32 E0.78481
G1 X120.974 Y91.426 E0.81069
G1 X123.315 Y91.896 E0.89011
G1 X124.053 Y92.091 E0.9155
G1 X126.335 Y92.841 E0.99539
G1 X126.939 Y93.074 E1.01692
G1 X128.44 Y93.742 E1.07157
G1 X129.043 Y94.05 E1.09409
G1 X131.345 Y95.382 E1.18254
G1 X131.943 Y95.774 E1.20633
G1 X132.397 Y96.142 E1.22576
G1 X132.827 Y96.525 E1.24492
G1 X133.333 Y97.03 E1.26869
G1 X133.883 Y97.736 E1.29846
G1 X136.729 Y101.973 E1.46822
G1 X141.139 Y107.707 E1.70882
G1 X141.543 Y108.298 E1.73263
G1 X141.878 Y108.929 E1.75639
G1 X142.235 Y109.905 E1.79096
G1 X142.53 Y110.973 E1.82781
G1 X142.638 Y111.43 E1.84343
G1 X143.013 Y113.317 E1.90742
G1 X143.112 Y114.011 E1.93073
G1 X143.321 Y116.422 E2.01122
G1 X143.342 Y117.184 E2.03658
G1 X143.265 Y119.538 E2.11491
G1 X143.194 Y120.299 E2.14033
G1 X142.826 Y122.699 E2.22109
G1 X142.692 Y123.346 E2.24307
G1 X142.259 Y125.004 E2.30006
G1 X142.04 Y125.685 E2.32385
G1 X141.746 Y126.337 E2.34764
G1 X141.382 Y126.953 E2.37144
G1 X141.079 Y127.367 E2.3885
G1 X138.757 Y130.29 E2.51267
G1 X135.605 Y134.642 E2.69139
G1 X133.799 Y137.379 E2.80046
G1 X133.373 Y137.953 E2.82423
G1 X132.885 Y138.476 E2.84802
G1 X132.341 Y138.941 E2.87182
G1 X131.992 Y139.19 E2.88608
G1 X131.074 Y139.798 E2.92271
G1 X130.659 Y140.05 E2.93885
G1 X128.966 Y140.995 E3.00334
G1 X128.346 Y141.299 E3.02631
G1 X126.17 Y142.222 E3.10492
G1 X125.471 Y142.472 E3.12962
G1 X123.28 Y143.114 E3.20555
G1 X122.627 Y143.268 E3.22787
G1 X120.75 Y143.61 E3.29132
G1 X120.08 Y143.696 E3.31379
G1 X117.75 Y143.87 E3.3915
G1 X117.034 Y143.884 E3.41532
G1 X116.322 Y143.817 E3.43911
G1 X115.622 Y143.671 E3.46289
G1 X115.077 Y143.499 E3.4819
G1 X110.072 Y141.671 E3.65912
G1 X103.171 Y139.636 E3.89842
G1 X102.498 Y139.396 E3.92219
G1 X101.855 Y139.082 E3.94599
G1 X101.251 Y138.698 E3.96979
G1 X100.768 Y138.315 E3.99029
G1 X98.489 Y136.322 E4.09099
G1 X97.951 Y135.792 E4.11611
G1 X96.811 Y134.529 E4.1727
G1 X96.399 Y134.023 E4.1944
G1 X95.003 Y132.117 E4.27298
G1 X94.59 Y131.477 E4.29831
G1 X93.418 Y129.397 E4.37772
G1 X93.078 Y128.698 E4.40357
G1 X92.132 Y126.407 E4.48601
G1 X91.897 Y125.731 E4.50982
G1 X91.738 Y125.034 E4.53359
G1 X91.658 Y124.323 E4.55739
G1 X91.653 Y123.724 E4.57731
G1 X91.849 Y118.515 E4.75069
G1 X91.84 Y115.931 E4.83663
G1 X91.653 Y111.313 E4.99036
G1 X91.664 Y110.597 E5.01417
G1 X91.755 Y109.888 E5.03795
G1 X91.924 Y109.193 E5.06174
G1 X92.117 Y108.648 E5.08097
G1 X93.001 Y106.468 E5.15921
G1 X93.332 Y105.775 E5.18475
G1 X94.48 Y103.7 E5.26362
G1 X94.889 Y103.055 E5.28903
G1 X96.277 Y101.13 E5.36796
G1 X96.762 Y100.535 E5.39349
G1 X98.412 Y98.745 E5.47446
M204 S5000
M205 X30 Y30
G0 F3600 X98.706 Y99.016
M204 S500
M205 X20 Y20
G1 F1500 X99.231 Y98.513 E5.49864
G1 X101.085 Y96.936 E5.5796
G1 X101.637 Y96.518 E5.60263
G1 X102.234 Y96.167 E5.62566
G1 X102.867 Y95.887 E5.64868
G1 X103.36 Y95.727 E5.66592
G1 X107.319 Y94.623 E5.80262
G1 X109.817 Y93.835 E5.88974
G1 X115.21 Y91.874 E6.08061
G1 X115.873 Y91.675 E6.10363
G1 X116.555 Y91.555 E6.12666
G1 X117.246 Y91.513 E6.14969
G1 X117.718 Y91.531 E6.1654
G1 X120.172 Y91.719 E6.24726
G1 X120.895 Y91.818 E6.27153
G1 X123.236 Y92.288 E6.35094
G1 X123.928 Y92.471 E6.37475
G1 X126.21 Y93.221 E6.45464
G1 X126.777 Y93.439 E6.47485
G1 X128.278 Y94.107 E6.52949
G1 X128.843 Y94.396 E6.5506
G1 X131.145 Y95.728 E6.63906
G1 X131.723 Y96.109 E6.66208
G1 X132.131 Y96.441 E6.67958
G1 X132.561 Y96.824 E6.69873
G1 X133.05 Y97.313 E6.72173
G1 X133.551 Y97.959 E6.74892
G1 X136.405 Y102.208 E6.91917
G1 X140.822 Y107.951 E7.16014
G1 X141.212 Y108.523 E7.18317
G1 X141.533 Y109.137 E7.20621
G1 X141.849 Y110.012 E7.23715
G1 X142.144 Y111.08 E7.274
G1 X142.246 Y111.508 E7.28864
G1 X142.621 Y113.395 E7.35263
G1 X142.714 Y114.046 E7.3745
G1 X142.923 Y116.457 E7.45499
G1 X142.942 Y117.171 E7.47875
G1 X142.865 Y119.525 E7.55708
G1 X142.799 Y120.238 E7.5809
G1 X142.431 Y122.638 E7.66166
G1 X142.305 Y123.245 E7.68228
G1 X141.872 Y124.903 E7.73927
G1 X141.659 Y125.562 E7.76231
G1 X141.371 Y126.192 E7.78534
G1 X141.013 Y126.784 E7.80836
G1 X140.765 Y127.119 E7.82222
G1 X138.436 Y130.051 E7.94676
G1 X135.291 Y134.393 E8.12508
G1 X133.466 Y137.159 E8.2353
G1 X133.051 Y137.714 E8.25835
G1 X132.576 Y138.218 E8.28138
G1 X131.771 Y138.856 E8.31554
G1 X130.853 Y139.464 E8.35217
G1 X130.464 Y139.701 E8.36732
G1 X128.771 Y140.646 E8.4318
G1 X128.19 Y140.931 E8.45333
G1 X126.014 Y141.854 E8.53194
G1 X125.358 Y142.088 E8.55511
G1 X123.167 Y142.73 E8.63105
G1 X122.556 Y142.875 E8.65193
G1 X120.679 Y143.217 E8.71539
G1 X120.05 Y143.297 E8.73648
G1 X117.72 Y143.471 E8.81419
G1 X117.027 Y143.483 E8.83724
G1 X116.338 Y143.415 E8.86027
G1 X115.662 Y143.268 E8.88328
G1 X115.214 Y143.124 E8.89893
G1 X110.182 Y141.286 E9.07711
G1 X103.284 Y139.252 E9.31631
G1 X102.632 Y139.018 E9.33935
G1 X102.012 Y138.711 E9.36236
G1 X101.431 Y138.334 E9.38539
G1 X101.031 Y138.014 E9.40243
G1 X98.752 Y136.021 E9.50313
G1 X98.248 Y135.524 E9.52667
G1 X97.108 Y134.261 E9.58326
G1 X96.721 Y133.786 E9.60364
G1 X95.325 Y131.88 E9.68221
G1 X94.939 Y131.28 E9.70594
G1 X93.767 Y129.2 E9.78535
G1 X93.448 Y128.545 E9.80958
G1 X92.502 Y126.254 E9.89202
G1 X92.275 Y125.6 E9.91505
G1 X92.125 Y124.924 E9.93808
G1 X92.054 Y124.235 E9.96112
G1 X92.052 Y123.739 E9.97761
G1 X92.249 Y118.504 E10.15185
G1 X92.24 Y115.912 E10.23806
G1 X92.053 Y111.296 E10.39172
G1 X92.065 Y110.604 E10.41474
G1 X92.156 Y109.917 E10.43779
G1 X92.327 Y109.246 E10.46082
G1 X92.488 Y108.798 E10.47665
G1 X93.372 Y106.618 E10.55489
G1 X93.682 Y105.968 E10.57884
G1 X94.83 Y103.893 E10.65772
G1 X95.213 Y103.289 E10.68151
G1 X96.601 Y101.364 E10.76044
G1 X97.056 Y100.806 E10.78439
G1 X98.706 Y99.016 E10.86536
M204 S5000
M205 X30 Y30
G0 F3600 X99 Y99.287
M204 S500
M205 X20 Y20
G1 F1500 X99.49 Y98.817 E10.88794
G1 X101.344 Y97.24 E10.96889
G1 X101.878 Y96.838 E10.99112
G1 X102.457 Y96.503 E11.01337
G1 X103.072 Y96.238 E11.03565
G1 X103.467 Y96.112 E11.04944
G1 X107.437 Y95.004 E11.18653
G1 X109.955 Y94.21 E11.27434
G1 X115.347 Y92.25 E11.46516
G1 X115.988 Y92.059 E11.4874
G1 X116.647 Y91.947 E11.50964
G1 X117.315 Y91.913 E11.53188
G1 X117.688 Y91.929 E11.5443
G1 X120.142 Y92.117 E11.62616
G1 X120.816 Y92.211 E11.6488
G1 X123.157 Y92.681 E11.72821
G1 X123.803 Y92.851 E11.75043
G1 X126.085 Y93.601 E11.83032
G1 X126.614 Y93.805 E11.84918
G1 X128.115 Y94.473 E11.90382
G1 X128.643 Y94.742 E11.92353
G1 X130.945 Y96.074 E12.01199
G1 X131.503 Y96.443 E12.03424
G1 X131.865 Y96.739 E12.04979
G1 X132.295 Y97.122 E12.06895
G1 X132.767 Y97.596 E12.0912
G1 X133.219 Y98.182 E12.11581
G1 X136.08 Y102.442 E12.28649
G1 X140.505 Y108.195 E12.52789
G1 X140.88 Y108.749 E12.55014
G1 X141.187 Y109.343 E12.57238
G1 X141.464 Y110.118 E12.59975
G1 X141.759 Y111.186 E12.6366
G1 X141.854 Y111.585 E12.65024
G1 X142.229 Y113.472 E12.71423
G1 X142.315 Y114.08 E12.73466
G1 X142.524 Y116.491 E12.81515
G1 X142.542 Y117.158 E12.83734
G1 X142.465 Y119.512 E12.91568
G1 X142.403 Y120.178 E12.93792
G1 X142.035 Y122.578 E13.01868
G1 X141.918 Y123.144 E13.0379
G1 X141.485 Y124.802 E13.0949
G1 X141.278 Y125.438 E13.11714
G1 X140.996 Y126.045 E13.13941
G1 X140.452 Y126.87 E13.17227
G1 X138.122 Y129.804 E13.29689
G1 X134.959 Y134.171 E13.47623
G1 X133.132 Y136.939 E13.58654
G1 X132.731 Y137.474 E13.60878
G1 X132.268 Y137.958 E13.63106
G1 X131.55 Y138.523 E13.66144
G1 X130.632 Y139.131 E13.69807
G1 X130.269 Y139.352 E13.7122
G1 X128.576 Y140.297 E13.77669
G1 X128.034 Y140.562 E13.79675
G1 X125.858 Y141.485 E13.87537
G1 X125.246 Y141.704 E13.89699
G1 X123.055 Y142.346 E13.97293
G1 X122.484 Y142.481 E13.99244
G1 X120.607 Y142.823 E14.0559
G1 X120.02 Y142.898 E14.07558
G1 X117.69 Y143.072 E14.15329
G1 X117.021 Y143.082 E14.17555
G1 X116.356 Y143.012 E14.19779
G1 X115.703 Y142.864 E14.22006
G1 X115.351 Y142.748 E14.23238
G1 X110.306 Y140.905 E14.41103
G1 X103.397 Y138.868 E14.6506
G1 X102.768 Y138.641 E14.67284
G1 X102.17 Y138.341 E14.69509
G1 X101.613 Y137.971 E14.71733
G1 X101.295 Y137.712 E14.73098
G1 X99.016 Y135.719 E14.83167
G1 X98.545 Y135.256 E14.85364
G1 X97.405 Y133.993 E14.91023
G1 X97.044 Y133.55 E14.92923
G1 X95.648 Y131.644 E15.00781
G1 X95.287 Y131.084 E15.02997
G1 X94.115 Y129.004 E15.10938
G1 X93.818 Y128.392 E15.13201
G1 X92.872 Y126.101 E15.21445
G1 X92.654 Y125.469 E15.23668
G1 X92.513 Y124.815 E15.25893
G1 X92.451 Y124.149 E15.28118
G1 X92.452 Y123.754 E15.29432
G1 X92.649 Y118.518 E15.46859
G1 X92.64 Y115.895 E15.55583
G1 X92.453 Y111.28 E15.70946
G1 X92.465 Y110.611 E15.73171
G1 X92.558 Y109.949 E15.75394
G1 X92.729 Y109.302 E15.7762
G1 X92.858 Y108.949 E15.7887
G1 X93.742 Y106.769 E15.86694
G1 X94.032 Y106.162 E15.88932
G1 X95.18 Y104.087 E15.96819
G1 X95.538 Y103.523 E15.99041
G1 X96.926 Y101.598 E16.06934
G1 X97.35 Y101.077 E16.09169
G1 X99 Y99.287 E16.17266
M204 S5000
M205 X30 Y30
G0 F3600 X99.295 Y99.559
M204 S500
M205 X20 Y20
G1 F1500 X99.749 Y99.122 E16.19362
G1 X101.603 Y97.545 E16.27457
G1 X102.119 Y97.159 E16.296
G1 X102.679 Y96.839 E16.31745
G1 X103.575 Y96.497 E16.34935
G1 X107.567 Y95.383 E16.4872
G1 X110.071 Y94.594 E16.57452
G1 X115.483 Y92.626 E16.76606
G1 X116.102 Y92.444 E16.78752
G1 X116.738 Y92.339 E16.80896
G1 X117.657 Y92.328 E16.83952
G1 X120.111 Y92.516 E16.92138
G1 X120.738 Y92.603 E16.94244
G1 X123.079 Y93.073 E17.02185
G1 X123.679 Y93.231 E17.04249
G1 X125.961 Y93.981 E17.12238
G1 X126.451 Y94.17 E17.13985
G1 X127.952 Y94.838 E17.19449
G1 X128.442 Y95.088 E17.21279
G1 X130.744 Y96.42 E17.30125
G1 X131.281 Y96.777 E17.3227
G1 X131.599 Y97.038 E17.33638
G1 X132.029 Y97.421 E17.35553
G1 X132.483 Y97.879 E17.37698
G1 X132.887 Y98.405 E17.39904
G1 X135.756 Y102.677 E17.5702
G1 X140.188 Y108.439 E17.81198
G1 X140.548 Y108.973 E17.8334
G1 X140.84 Y109.548 E17.85485
G1 X141.078 Y110.225 E17.87871
G1 X141.373 Y111.293 E17.91557
G1 X141.461 Y111.663 E17.92821
G1 X141.836 Y113.55 E17.9922
G1 X141.917 Y114.115 E18.01119
G1 X142.126 Y116.526 E18.09168
G1 X142.142 Y117.145 E18.11227
G1 X142.065 Y119.499 E18.19061
G1 X142.008 Y120.117 E18.21125
G1 X141.64 Y122.517 E18.29201
G1 X141.531 Y123.043 E18.30988
G1 X141.098 Y124.701 E18.36687
G1 X140.897 Y125.313 E18.3883
G1 X140.622 Y125.896 E18.40974
G1 X140.139 Y126.621 E18.43871
G1 X137.81 Y129.553 E18.56325
G1 X134.616 Y133.963 E18.74436
G1 X132.798 Y136.718 E18.85414
G1 X132.41 Y137.233 E18.87559
G1 X131.962 Y137.696 E18.89702
G1 X131.329 Y138.189 E18.9237
G1 X130.411 Y138.797 E18.96032
G1 X130.074 Y139.003 E18.97346
G1 X128.381 Y139.948 E19.03795
G1 X127.878 Y140.194 E19.05657
G1 X125.702 Y141.117 E19.13519
G1 X125.133 Y141.32 E19.15528
G1 X122.942 Y141.962 E19.23122
G1 X122.412 Y142.088 E19.24934
G1 X120.535 Y142.43 E19.31279
G1 X119.99 Y142.5 E19.33107
G1 X117.66 Y142.674 E19.40878
G1 X117.016 Y142.682 E19.4302
G1 X116.375 Y142.61 E19.45166
G1 X115.489 Y142.372 E19.48217
G1 X110.445 Y140.529 E19.66078
G1 X103.511 Y138.485 E19.90122
G1 X102.905 Y138.264 E19.92267
G1 X102.331 Y137.971 E19.94411
G1 X101.558 Y137.411 E19.97586
G1 X99.279 Y135.418 E20.07655
G1 X98.842 Y134.988 E20.09694
G1 X97.702 Y133.725 E20.15353
G1 X97.367 Y133.314 E20.17117
G1 X95.971 Y131.408 E20.24975
G1 X95.636 Y130.888 E20.27032
G1 X94.464 Y128.808 E20.34973
G1 X94.188 Y128.24 E20.37073
G1 X93.242 Y125.949 E20.45317
G1 X93.033 Y125.339 E20.47462
G1 X92.901 Y124.708 E20.49606
G1 X92.852 Y123.769 E20.52733
G1 X93.049 Y118.532 E20.70164
G1 X93.04 Y115.905 E20.78901
G1 X92.852 Y111.264 E20.9435
G1 X92.866 Y110.619 E20.96496
G1 X92.96 Y109.981 E20.98641
G1 X93.229 Y109.099 E21.01708
G1 X94.113 Y106.919 E21.09532
G1 X94.382 Y106.356 E21.11607
G1 X95.53 Y104.281 E21.19494
G1 X95.862 Y103.757 E21.21558
G1 X97.25 Y101.832 E21.29451
G1 X97.645 Y101.349 E21.31526
G1 X99.295 Y99.559 E21.39623
M204 S5000
M205 X30 Y30
G1 F3600 E11.39623
;MESH:wheel.stl
G0 F3600 X108.739 Y100.394
G0 X108.995 Y101.653
G0 X109.671 Y101.589
G0 X109.649 Y101.492
M204 S500
M205 X20 Y20
;TYPE:WALL-INNER
G1 F3600 E21.39623
G1 F1500 X110.299 Y101.329 E21.41852
G1 X110.946 Y101.15 E21.44085
G1 X111.587 Y100.951 E21.46317
G1 X112.22 Y100.736 E21.48541
G1 X112.862 Y100.497 E21.50819
G1 X113.483 Y100.244 E21.5305
G1 X114.095 Y99.975 E21.55273
G1 X114.702 Y99.688 E21.57506
G1 X115.3 Y99.383 E21.59739
G1 X115.888 Y99.062 E21.61967
G1 X116.466 Y98.725 E21.64192
G1 X117.037 Y98.371 E21.66427
G1 X117.435 Y98.108 E21.68014
G1 X117.836 Y98.12 E21.69348
G1 X118.421 Y98.155 E21.71297
G1 X118.981 Y98.205 E21.73167
G1 X119.564 Y98.276 E21.75121
G1 X120.143 Y98.363 E21.77068
G1 X120.72 Y98.467 E21.79018
G1 X121.278 Y98.586 E21.80916
G1 X121.847 Y98.725 E21.82864
G1 X122.413 Y98.881 E21.84816
G1 X122.95 Y99.047 E21.86686
G1 X123.51 Y99.238 E21.88654
G1 X124.042 Y99.438 E21.90544
G1 X124.581 Y99.659 E21.92482
G1 X125.128 Y99.902 E21.94473
G1 X125.634 Y100.146 E21.96341
G1 X126.165 Y100.421 E21.9833
G1 X126.666 Y100.701 E22.00239
G1 X127.155 Y100.993 E22.02133
G1 X127.659 Y101.315 E22.04122
G1 X127.98 Y101.534 E22.05415
G1 X128.151 Y101.99 E22.07035
G1 X128.405 Y102.611 E22.09266
G1 X128.675 Y103.224 E22.11494
G1 X128.963 Y103.83 E22.13726
G1 X129.268 Y104.429 E22.15961
G1 X129.59 Y105.018 E22.18194
G1 X129.93 Y105.598 E22.2043
G1 X130.283 Y106.165 E22.22651
G1 X130.655 Y106.726 E22.2489
G1 X131.041 Y107.275 E22.27122
G1 X131.443 Y107.81 E22.29348
G1 X131.868 Y108.346 E22.31623
G1 X132.301 Y108.859 E22.33856
G1 X132.746 Y109.358 E22.3608
G1 X133.207 Y109.847 E22.38315
G1 X133.682 Y110.323 E22.40552
G1 X134.179 Y110.79 E22.4282
G1 X134.679 Y111.237 E22.45051
G1 X135.195 Y111.671 E22.47293
G1 X135.553 Y111.955 E22.48813
G1 X135.661 Y112.33 E22.50111
G1 X135.809 Y112.897 E22.5206
G1 X135.94 Y113.469 E22.54012
G1 X136.05 Y114.026 E22.559
G1 X136.148 Y114.611 E22.57873
G1 X136.224 Y115.175 E22.59766
G1 X136.285 Y115.759 E22.61719
G1 X136.329 Y116.33 E22.63624
G1 X136.354 Y116.911 E22.65558
G1 X136.363 Y117.491 E22.67487
G1 X136.354 Y118.072 E22.6942
G1 X136.329 Y118.657 E22.71367
G1 X136.286 Y119.23 E22.73278
G1 X136.225 Y119.819 E22.75248
G1 X136.148 Y120.383 E22.77141
G1 X136.051 Y120.968 E22.79114
G1 X135.941 Y121.526 E22.81005
G1 X135.812 Y122.091 E22.82933
G1 X135.666 Y122.654 E22.84867
G1 X135.553 Y123.045 E22.86221
G1 X135.184 Y123.337 E22.87786
G1 X134.672 Y123.769 E22.90014
G1 X134.171 Y124.216 E22.92247
G1 X133.684 Y124.676 E22.94475
G1 X133.21 Y125.151 E22.96707
G1 X132.75 Y125.637 E22.98933
G1 X132.303 Y126.138 E23.01166
G1 X131.87 Y126.653 E23.03404
G1 X131.453 Y127.177 E23.05631
G1 X131.032 Y127.74 E23.0797
G1 X130.655 Y128.275 E23.10146
G1 X130.276 Y128.846 E23.12426
G1 X129.923 Y129.415 E23.14653
G1 X129.585 Y129.991 E23.16874
G1 X129.262 Y130.581 E23.19111
G1 X128.957 Y131.18 E23.21347
G1 X128.671 Y131.786 E23.23576
G1 X128.401 Y132.399 E23.25804
G1 X128.149 Y133.02 E23.28033
G1 X127.983 Y133.464 E23.29609
G1 X127.649 Y133.691 E23.30952
G1 X127.161 Y134.004 E23.32881
G1 X126.666 Y134.299 E23.34797
G1 X126.165 Y134.579 E23.36706
