;FLAVOR:Marlin
;TIME:2588
;Filament used: 1.51967m
;Layer height: 0.12
;Generated with Cura_SteamEngine master
M140 S60
M105
M190 S60
M104 S200
M105
M109 S200
M82 ;absolute extrusion mode
; Ender 3 Custom Start G-code
G28 ; Home all axes
G92 E0 ; Reset Extruder
G1 Z2.0 F3000 ; Move Z Axis up little to prevent scratching of Heat Bed
G1 X0.1 Y20 Z0.3 F5000.0 ; Move to start position
G1 X0.1 Y200.0 Z0.3 F1500.0 E15 ; Draw the first line
G1 X0.4 Y200.0 Z0.3 F5000.0 ; Move to side a little
G1 X0.4 Y20 Z0.3 F1500.0 E30 ; Draw the second line
G92 E0 ; Reset Extruder
G1 Z2.0 F3000 ; Move Z Axis up little to prevent scratching of Heat Bed
; End of custom start GCode
G92 E0
G1 F3600 E-10
;LAYER_COUNT:150
;LAYER:0
M107
M204 S5000
M205 X30 Y30
G0 F3600 X97.975 Y94.993 Z0.2
M204 S500
M205 X20 Y20
;TYPE:SKIRT
G1 F3600 E0
G1 F1500 X98.62 Y94.427 E0.02854
G1 X100.533 Y92.963 E0.10866
G1 X101.125 Y92.56 E0.13248
G1 X101.757 Y92.226 E0.15626
G1 X102.423 Y91.965 E0.18005
G1 X103.114 Y91.78 E0.20384
G1 X103.821 Y91.673 E0.22762
G1 X104.423 Y91.645 E0.24767
G1 X110.581 Y91.645 E0.45248
G1 X110.937 Y91.655 E0.46433
G1 X113.417 Y91.793 E0.54694
G1 X118.753 Y91.869 E0.72444
G1 X124.493 Y91.64 E0.9155
G1 X124.782 Y91.635 E0.92511
G1 X130.639 Y91.665 E1.11992
G1 X131.353 Y91.709 E1.14371
G1 X132.057 Y91.832 E1.16748
G1 X132.744 Y92.033 E1.19129
G1 X133.404 Y92.309 E1.21509
G1 X134.028 Y92.657 E1.23885
G1 X134.494 Y92.981 E1.25773
G1 X136.378 Y94.422 E1.33662
G1 X136.921 Y94.888 E1.36042
G1 X137.409 Y95.411 E1.38421
G1 X137.835 Y95.986 E1.40801
G1 X138.194 Y96.604 E1.43178
G1 X138.483 Y97.259 E1.45559
G1 X138.696 Y97.942 E1.47939
G1 X138.832 Y98.644 E1.50317
G1 X138.89 Y99.509 E1.532
G1 X138.881 Y121.03 E2.2478
G1 X138.864 Y121.494 E2.26324
G1 X138.782 Y122.615 E2.30062
G1 X138.722 Y123.138 E2.31813
G1 X138.506 Y124.517 E2.36456
G1 X138.343 Y125.263 E2.38995
G1 X137.766 Y127.31 E2.46069
G1 X137.466 Y128.146 E2.49023
G1 X136.651 Y130.003 E2.55768
G1 X136.346 Y130.609 E2.58025
G1 X135.73 Y131.686 E2.62151
G1 X135.394 Y132.212 E2.64227
G1 X134.462 Y133.525 E2.69583
G1 X134.013 Y134.088 E2.71978
G1 X132.851 Y135.387 E2.77775
G1 X132.375 Y135.866 E2.80021
G1 X131.326 Y136.815 E2.84726
G1 X130.742 Y137.284 E2.87217
G1 X129.003 Y138.521 E2.94315
G1 X128.202 Y139.006 E2.97429
G1 X126.227 Y140.014 E3.04804
G1 X125.43 Y140.356 E3.07689
G1 X123.725 Y140.952 E3.13696
G1 X123.015 Y141.155 E3.16152
G1 X121.358 Y141.527 E3.21801
G1 X120.54 Y141.655 E3.24554
G1 X118.347 Y141.856 E3.31879
G1 X117.482 Y141.877 E3.34757
G1 X115.568 Y141.793 E3.41129
G1 X114.857 Y141.722 E3.43505
G1 X113.48 Y141.506 E3.48141
G1 X112.696 Y141.332 E3.50812
G1 X110.484 Y140.693 E3.5847
G1 X109.575 Y140.354 E3.61697
G1 X107.53 Y139.409 E3.6919
G1 X106.993 Y139.129 E3.71204
G1 X106.382 Y138.773 E3.73556
G1 X106.03 Y138.552 E3.74939
G1 X105.173 Y137.975 E3.78375
G1 X104.585 Y137.528 E3.80831
G1 X102.642 Y135.865 E3.89338
G1 X101.979 Y135.208 E3.92442
G1 X100.834 Y133.894 E3.98239
G1 X100.326 Y133.228 E4.01025
G1 X99.101 Y131.382 E4.08394
G1 X98.641 Y130.563 E4.11518
G1 X97.711 Y128.582 E4.18797
G1 X97.386 Y127.742 E4.21792
G1 X96.803 Y125.845 E4.28393
G1 X96.626 Y125.117 E4.30885
G1 X96.347 Y123.593 E4.36038
G1 X96.253 Y122.812 E4.38654
G1 X96.111 Y120.369 E4.46794
G1 X96.1 Y119.995 E4.48038
G1 X96.11 Y99.506 E5.16185
G1 X96.15 Y98.792 E5.18563
G1 X96.27 Y98.087 E5.20942
G1 X96.468 Y97.399 E5.23323
G1 X96.741 Y96.738 E5.25702
G1 X97.086 Y96.112 E5.28079
G1 X97.499 Y95.528 E5.30458
G1 X97.975 Y94.993 E5.3284
M204 S5000
M205 X30 Y30
G0 F3600 X98.368 Y95.168
M204 S500
M205 X20 Y20
G1 F1500 X98.864 Y94.744 E5.3501
G1 X100.777 Y93.28 E5.43022
G1 X101.35 Y92.892 E5.45324
G1 X101.964 Y92.572 E5.47627
G1 X102.611 Y92.325 E5.4993
G1 X103.282 Y92.154 E5.52233
G1 X103.969 Y92.062 E5.54539
G1 X104.423 Y92.045 E5.5605
G1 X110.581 Y92.045 E5.76531
G1 X110.914 Y92.054 E5.77639
G1 X113.412 Y92.193 E5.8596
G1 X118.763 Y92.27 E6.0376
G1 X124.509 Y92.04 E6.22886
G1 X124.78 Y92.035 E6.23788
G1 X130.637 Y92.065 E6.43269
G1 X131.328 Y92.109 E6.45572
G1 X132.009 Y92.231 E6.47873
G1 X132.672 Y92.432 E6.50177
G1 X133.308 Y92.708 E6.52483
G1 X133.907 Y93.055 E6.54785
G1 X134.251 Y93.299 E6.56188
G1 X136.135 Y94.74 E6.64077
G1 X136.66 Y95.192 E6.66381
G1 X137.129 Y95.701 E6.68683
G1 X137.537 Y96.261 E6.70988
G1 X137.877 Y96.864 E6.7329
G1 X138.146 Y97.503 E6.75596
G1 X138.339 Y98.168 E6.77899
G1 X138.454 Y98.851 E6.80203
G1 X138.49 Y99.509 E6.82395
G1 X138.481 Y121.03 E7.53974
G1 X138.465 Y121.465 E7.55421
G1 X138.383 Y122.586 E7.5916
G1 X138.327 Y123.076 E7.608
G1 X138.111 Y124.455 E7.65443
G1 X137.958 Y125.155 E7.67826
G1 X137.381 Y127.202 E7.749
G1 X137.1 Y127.985 E7.77666
G1 X136.285 Y129.842 E7.84412
G1 X135.999 Y130.41 E7.86527
G1 X135.383 Y131.487 E7.90653
G1 X135.068 Y131.981 E7.92602
G1 X134.136 Y133.294 E7.97957
G1 X133.715 Y133.821 E8.00201
G1 X132.553 Y135.12 E8.05998
G1 X132.106 Y135.569 E8.08105
G1 X131.057 Y136.518 E8.1281
G1 X130.51 Y136.958 E8.15145
G1 X128.771 Y138.195 E8.22243
G1 X128.021 Y138.65 E8.2516
G1 X126.046 Y139.658 E8.32535
G1 X125.298 Y139.978 E8.35241
G1 X123.593 Y140.574 E8.41249
G1 X122.927 Y140.764 E8.43552
G1 X121.27 Y141.136 E8.492
G1 X120.504 Y141.257 E8.5178
G1 X118.311 Y141.458 E8.59104
G1 X117.5 Y141.477 E8.61802
G1 X115.586 Y141.393 E8.68175
G1 X114.919 Y141.327 E8.70404
G1 X113.542 Y141.111 E8.7504
G1 X112.807 Y140.947 E8.77544
G1 X110.595 Y140.308 E8.85202
G1 X109.743 Y139.991 E8.88226
G1 X107.698 Y139.046 E8.95719
G1 X107.194 Y138.783 E8.9761
G1 X106.583 Y138.427 E8.99962
G1 X106.253 Y138.22 E9.01257
G1 X105.396 Y137.643 E9.04694
G1 X104.846 Y137.224 E9.06993
G1 X102.903 Y135.561 E9.15499
G1 X102.28 Y134.945 E9.18413
G1 X101.135 Y133.631 E9.2421
G1 X100.66 Y133.007 E9.26819
G1 X99.435 Y131.161 E9.34187
G1 X99.003 Y130.393 E9.37118
G1 X98.073 Y128.412 E9.44397
G1 X97.769 Y127.625 E9.47203
G1 X97.186 Y125.728 E9.53804
G1 X97.019 Y125.045 E9.56142
G1 X96.74 Y123.521 E9.61295
G1 X96.652 Y122.789 E9.63747
G1 X96.51 Y120.346 E9.71887
G1 X96.5 Y119.995 E9.73055
G1 X96.51 Y99.506 E10.41201
G1 X96.55 Y98.815 E10.43503
G1 X96.67 Y98.133 E10.45807
G1 X96.868 Y97.469 E10.48111
G1 X97.14 Y96.832 E10.50415
G1 X97.484 Y96.231 E10.52718
G1 X97.896 Y95.674 E10.55022
G1 X98.368 Y95.168 E10.57324
M204 S5000
M205 X30 Y30
G0 F3600 X98.761 Y95.349
M204 S500
M205 X20 Y20
G1 F1500 X99.107 Y95.062 E10.58819
G1 X101.02 Y93.598 E10.66831
G1 X101.574 Y93.224 E10.69054
G1 X102.17 Y92.918 E10.71283
G1 X102.797 Y92.686 E10.73506
G1 X103.448 Y92.531 E10.75732
G1 X104.423 Y92.445 E10.78987
G1 X110.581 Y92.445 E10.99469
G1 X110.892 Y92.454 E11.00504
G1 X113.384 Y92.593 E11.08805
G1 X118.754 Y92.67 E11.26668
G1 X124.525 Y92.439 E11.45877
G1 X124.778 Y92.435 E11.46719
G1 X130.635 Y92.465 E11.662
G1 X131.302 Y92.508 E11.68423
G1 X131.96 Y92.631 E11.70649
G1 X132.598 Y92.831 E11.72873
G1 X133.208 Y93.106 E11.75099
G1 X134.008 Y93.617 E11.78256
G1 X135.892 Y95.058 E11.86145
G1 X136.398 Y95.495 E11.88369
G1 X136.849 Y95.99 E11.90596
G1 X137.237 Y96.535 E11.92821
G1 X137.557 Y97.122 E11.95045
G1 X137.805 Y97.744 E11.97272
G1 X137.978 Y98.39 E11.99496
G1 X138.072 Y99.053 E12.01723
G1 X138.09 Y99.508 E12.03238
G1 X138.081 Y121.029 E12.74817
G1 X138.066 Y121.436 E12.76172
G1 X137.984 Y122.557 E12.7991
G1 X137.932 Y123.015 E12.81443
G1 X137.716 Y124.394 E12.86086
G1 X137.573 Y125.046 E12.88306
G1 X136.996 Y127.093 E12.95379
G1 X136.734 Y127.825 E12.97965
G1 X135.919 Y129.682 E13.0471
G1 X135.652 Y130.211 E13.06681
G1 X135.036 Y131.288 E13.10808
G1 X134.742 Y131.749 E13.12626
G1 X133.81 Y133.062 E13.17982
G1 X133.417 Y133.555 E13.20079
G1 X132.255 Y134.854 E13.25876
G1 X131.838 Y135.273 E13.27842
G1 X130.789 Y136.222 E13.32547
G1 X130.278 Y136.632 E13.34726
G1 X128.539 Y137.869 E13.41824
G1 X127.839 Y138.294 E13.44547
G1 X125.864 Y139.302 E13.51922
G1 X125.166 Y139.6 E13.54447
G1 X123.461 Y140.196 E13.60454
G1 X122.84 Y140.374 E13.62603
G1 X121.183 Y140.746 E13.68251
G1 X120.467 Y140.859 E13.70662
G1 X118.274 Y141.06 E13.77986
G1 X117.517 Y141.078 E13.80505
G1 X115.603 Y140.994 E13.86877
G1 X114.981 Y140.931 E13.88956
G1 X113.604 Y140.715 E13.93592
G1 X112.918 Y140.563 E13.95929
G1 X110.706 Y139.924 E14.03587
G1 X109.911 Y139.627 E14.0641
G1 X107.866 Y138.682 E14.13903
G1 X107.396 Y138.438 E14.15664
G1 X106.785 Y138.082 E14.18016
G1 X106.476 Y137.888 E14.1923
G1 X105.619 Y137.311 E14.22666
G1 X105.106 Y136.92 E14.24811
G1 X103.163 Y135.257 E14.33317
G1 X102.582 Y134.682 E14.36036
G1 X101.437 Y133.368 E14.41833
G1 X100.993 Y132.785 E14.4427
G1 X99.768 Y130.939 E14.51639
G1 X99.365 Y130.223 E14.54372
G1 X98.435 Y128.242 E14.61651
G1 X98.151 Y127.507 E14.64271
G1 X97.568 Y125.61 E14.70872
G1 X97.413 Y124.973 E14.73053
G1 X97.134 Y123.449 E14.78206
G1 X97.051 Y122.766 E14.80494
G1 X96.909 Y120.323 E14.88633
G1 X96.9 Y119.995 E14.89724
G1 X96.91 Y99.506 E15.57871
G1 X96.95 Y98.838 E15.60097
G1 X97.07 Y98.18 E15.62322
G1 X97.267 Y97.541 E15.64546
G1 X97.539 Y96.93 E15.6677
G1 X97.882 Y96.355 E15.68997
G1 X98.292 Y95.826 E15.71223
G1 X98.761 Y95.349 E15.73448
M204 S5000
M205 X30 Y30
G0 F3600 X98.687 Y95.984
M204 S500
M205 X20 Y20
G1 F1500 X99.35 Y95.38 E15.76431
G1 X101.263 Y93.916 E15.84443
G1 X101.798 Y93.556 E15.86588
G1 X102.374 Y93.266 E15.88733
G1 X102.981 Y93.049 E15.90877
G1 X103.61 Y92.909 E15.9302
G1 X104.423 Y92.845 E15.95732
G1 X110.581 Y92.845 E16.16214
G1 X110.87 Y92.853 E16.17176
G1 X113.381 Y92.993 E16.2554
G1 X118.765 Y93.07 E16.43449
G1 X124.541 Y92.839 E16.62676
G1 X124.776 Y92.835 E16.63457
G1 X130.633 Y92.865 E16.82938
G1 X131.276 Y92.908 E16.85081
G1 X131.909 Y93.031 E16.87226
G1 X132.522 Y93.231 E16.89371
G1 X133.105 Y93.505 E16.91513
G1 X133.765 Y93.935 E16.94133
G1 X135.649 Y95.376 E17.02022
G1 X136.136 Y95.798 E17.04166
G1 X136.567 Y96.278 E17.06311
G1 X136.935 Y96.807 E17.08455
G1 X137.235 Y97.378 E17.106
G1 X137.461 Y97.981 E17.12742
G1 X137.612 Y98.608 E17.14887
G1 X137.69 Y99.508 E17.17891
G1 X137.681 Y121.029 E17.89471
G1 X137.667 Y121.406 E17.90725
G1 X137.585 Y122.527 E17.94464
G1 X137.536 Y122.953 E17.9589
G1 X137.32 Y124.332 E18.00532
G1 X137.188 Y124.938 E18.02595
G1 X136.611 Y126.985 E18.09669
G1 X136.368 Y127.664 E18.12068
G1 X135.553 Y129.521 E18.18813
G1 X135.305 Y130.013 E18.20645
G1 X134.689 Y131.09 E18.24772
G1 X134.415 Y131.518 E18.26462
G1 X133.483 Y132.831 E18.31817
G1 X133.119 Y133.288 E18.33761
G1 X131.957 Y134.587 E18.39558
G1 X131.57 Y134.976 E18.41383
G1 X130.521 Y135.925 E18.46087
G1 X130.046 Y136.306 E18.48113
G1 X128.307 Y137.543 E18.55211
G1 X127.657 Y137.938 E18.5774
G1 X125.682 Y138.946 E18.65115
G1 X125.034 Y139.223 E18.67459
G1 X123.329 Y139.819 E18.73467
G1 X122.752 Y139.984 E18.75463
G1 X121.095 Y140.356 E18.81111
G1 X120.431 Y140.46 E18.83347
G1 X118.238 Y140.661 E18.90671
G1 X117.535 Y140.678 E18.9301
G1 X115.621 Y140.594 E18.99382
G1 X115.043 Y140.536 E19.01314
G1 X113.666 Y140.32 E19.0595
G1 X113.029 Y140.179 E19.0812
G1 X110.817 Y139.54 E19.15778
G1 X110.079 Y139.264 E19.18399
G1 X108.034 Y138.319 E19.25891
G1 X107.597 Y138.092 E19.27529
G1 X106.986 Y137.736 E19.29881
G1 X106.7 Y137.556 E19.31005
G1 X105.843 Y136.979 E19.34441
G1 X105.366 Y136.617 E19.36433
G1 X103.423 Y134.954 E19.44939
G1 X102.884 Y134.419 E19.47465
G1 X101.739 Y133.105 E19.53262
G1 X101.326 Y132.564 E19.55526
G1 X100.101 Y130.718 E19.62895
G1 X99.727 Y130.053 E19.65432
G1 X98.797 Y128.072 E19.72711
G1 X98.533 Y127.39 E19.75143
G1 X97.95 Y125.493 E19.81744
G1 X97.806 Y124.901 E19.8377
G1 X97.527 Y123.377 E19.88924
G1 X97.451 Y122.743 E19.91047
G1 X97.309 Y120.3 E19.99186
G1 X97.3 Y119.995 E20.00201
G1 X97.31 Y99.506 E20.68348
G1 X97.35 Y98.863 E20.70491
G1 X97.47 Y98.23 E20.72634
G1 X97.667 Y97.616 E20.74778
G1 X97.938 Y97.031 E20.76923
G1 X98.28 Y96.484 E20.79068
G1 X98.687 Y95.984 E20.81213
M204 S5000
M205 X30 Y30
G0 F3600 X104.62 Y98.235
M204 S500
M205 X20 Y20
;TYPE:SUPPORT
G1 F1500 X110.382 Y98.235 E21.00377
G1 X110.381 Y98.6 E21.01591
G1 X104.62 Y98.6 E21.20752
G1 X104.62 Y98.235 E21.21966
M204 S5000
M205 X30 Y30
G0 F3600 X124.619 Y98.235
M204 S500
M205 X20 Y20
G1 F1500 X130.382 Y98.235 E21.41134
G1 X130.382 Y98.6 E21.42348
G1 X124.619 Y98.6 E21.61516
G1 X124.619 Y98.235 E21.6273
M204 S5000
M205 X30 Y30
G1 F3600 E11.6273
;MESH:Lead_Screw_Stabalizer_v1.stl
G0 F3600 X124.619 Y100.12
G0 X112.568 Y117.767
G0 X112.186 Y118.642
G0 X111.81 Y120.16
G0 X111.909 Y120.166
M204 S500
M205 X20 Y20
;TYPE:WALL-INNER
G1 F3600 E21.6273
G1 F1500 X111.901 Y120.518 E21.63901
G1 X111.912 Y120.868 E21.65066
G1 X111.944 Y121.203 E21.66185
G1 X111.999 Y121.55 E21.67354
G1 X112.075 Y121.893 E21.68522
G1 X112.174 Y122.231 E21.69693
G1 X112.293 Y122.562 E21.70863
G1 X112.433 Y122.885 E21.72034
G1 X112.592 Y123.198 E21.73202
G1 X112.771 Y123.5 E21.7437
G1 X112.969 Y123.792 E21.75543
G1 X113.185 Y124.069 E21.76711
G1 X113.417 Y124.334 E21.77883
G1 X113.666 Y124.583 E21.79054
G1 X113.931 Y124.815 E21.80225
G1 X114.208 Y125.031 E21.81394
G1 X114.5 Y125.229 E21.82567
G1 X114.802 Y125.408 E21.83735
G1 X115.115 Y125.567 E21.84902
G1 X115.438 Y125.707 E21.86073
G1 X115.769 Y125.826 E21.87243
G1 X116.107 Y125.925 E21.88415
G1 X116.45 Y126.001 E21.89583
G1 X116.798 Y126.057 E21.90755
G1 X117.15 Y126.089 E21.91931
G1 X117.5 Y126.1 E21.93096
G1 X117.85 Y126.089 E21.9426
G1 X118.202 Y126.057 E21.95436
G1 X118.55 Y126.001 E21.96608
G1 X118.893 Y125.925 E21.97777
G1 X119.231 Y125.826 E21.98948
G1 X119.562 Y125.707 E22.00118
G1 X119.885 Y125.567 E22.01289
G1 X120.198 Y125.408 E22.02457
G1 X120.5 Y125.229 E22.03624
G1 X120.792 Y125.031 E22.04798
G1 X121.069 Y124.815 E22.05966
G1 X121.334 Y124.583 E22.07137
G1 X121.583 Y124.334 E22.08309
G1 X121.815 Y124.069 E22.0948
G1 X122.031 Y123.792 E22.10648
G1 X122.229 Y123.5 E22.11822
G1 X122.408 Y123.198 E22.12989
G1 X122.567 Y122.885 E22.14157
G1 X122.707 Y122.562 E22.15328
G1 X122.826 Y122.231 E22.16498
G1 X122.925 Y121.893 E22.17669
G1 X123.001 Y121.55 E22.18838
G1 X123.057 Y121.202 E22.2001
G1 X123.089 Y120.85 E22.21186
G1 X123.099 Y120.517 E22.22294
G1 X123.091 Y120.169 E22.23452
G1 X123.059 Y119.816 E22.2463
G1 X123.004 Y119.468 E22.25802
G1 X122.929 Y119.126 E22.26967
G1 X122.832 Y118.788 E22.28136
G1 X122.713 Y118.456 E22.29309
G1 X122.575 Y118.133 E22.30478
G1 X122.418 Y117.819 E22.31645
G1 X122.238 Y117.514 E22.32823
G1 X122.042 Y117.224 E22.33987
G1 X121.828 Y116.945 E22.35157
G1 X121.594 Y116.68 E22.36333
G1 X121.348 Y116.431 E22.37497
G1 X121.084 Y116.196 E22.38672
G1 X120.806 Y115.981 E22.39841
G1 X120.517 Y115.783 E22.41006
G1 X120.214 Y115.602 E22.4218
G1 X119.902 Y115.441 E22.43348
G1 X119.578 Y115.3 E22.44523
G1 X119.248 Y115.181 E22.4569
G1 X118.909 Y115.081 E22.46866
G1 X118.567 Y115.004 E22.48032
G1 X118.221 Y114.947 E22.49198
G1 X117.87 Y114.913 E22.50371
G1 X117.52 Y114.901 E22.51536
G1 X117.169 Y114.909 E22.52703
G1 X116.816 Y114.941 E22.53882
G1 X116.468 Y114.996 E22.55054
G1 X116.126 Y115.071 E22.56219
G1 X115.788 Y115.168 E22.57388
G1 X115.456 Y115.287 E22.58561
G1 X115.133 Y115.425 E22.59729
G1 X114.819 Y115.582 E22.60897
G1 X114.514 Y115.762 E22.62075
G1 X114.224 Y115.958 E22.63239
G1 X113.945 Y116.172 E22.64409
G1 X113.68 Y116.406 E22.65585
G1 X113.431 Y116.652 E22.66749
G1 X113.196 Y116.916 E22.67924
G1 X112.981 Y117.194 E22.69093
G1 X112.783 Y117.483 E22.70258
G1 X112.602 Y117.786 E22.71432
G1 X112.441 Y118.098 E22.726
G1 X112.3 Y118.422 E22.73775
G1 X112.181 Y118.752 E22.74942
G1 X112.081 Y119.091 E22.76118
G1 X112.004 Y119.433 E22.77284
G1 X111.947 Y119.779 E22.7845
G1 X111.909 Y120.166 E22.79743
M204 S5000
M205 X30 Y30
G0 F3600 X111.81 Y120.16
G0 X111.96 Y121.557
G0 X112.256 Y122.576
G0 X112.738 Y123.521
G0 X113.388 Y124.361
G0 X114.185 Y125.063
G0 X115.098 Y125.603
G0 X115.908 Y125.894
G0 X129.128 Y128.823
G0 X129.209 Y128.881
M204 S500
M205 X20 Y20
G1 F1500 X128.894 Y129.305 E22.815
G1 X128.571 Y129.708 E22.83218
G1 X128.213 Y130.122 E22.85038
G1 X127.87 Y130.492 E22.86716
G1 X127.498 Y130.864 E22.88466
G1 X127.096 Y131.236 E22.90288
G1 X126.714 Y131.566 E22.91967
G1 X126.293 Y131.903 E22.9376
