;FLAVOR:Marlin
;TIME:780
;Filament used: 0.557466m
;Layer height: 0.15
;Generated with Cura_SteamEngine master
M140 S60
M105
M190 S60
M104 S200
M105
M109 S200
M82 ;absolute extrusion mode
; Ender 3 Custom Start G-code
G28 ; Home all axes
G92 E0 ; Reset Extruder
G1 Z2.0 F3000 ; Move Z Axis up little to prevent scratching of Heat Bed
G1 X0.1 Y20 Z0.3 F5000.0 ; Move to start position
G1 X0.1 Y200.0 Z0.3 F1500.0 E15 ; Draw the first line
G1 X0.4 Y200.0 Z0.3 F5000.0 ; Move to side a little
G1 X0.4 Y20 Z0.3 F1500.0 E30 ; Draw the second line
G92 E0 ; Reset Extruder
G1 Z2.0 F3000 ; Move Z Axis up little to prevent scratching of Heat Bed
; End of custom start GCode
G92 E0
G1 F2400 E-5
;LAYER_COUNT:30
;LAYER:0
M107
M204 S5000
M205 X30 Y30
G0 F3600 X92.973 Y90.995 Z0.2
M204 S500
M205 X20 Y20
;TYPE:SKIRT
G1 F2400 E0
G1 F1800 X93.505 Y90.517 E0.02379
G1 X94.087 Y90.101 E0.04758
G1 X94.712 Y89.753 E0.07137
G1 X95.371 Y89.477 E0.09514
G1 X96.058 Y89.276 E0.11894
G1 X96.762 Y89.153 E0.14271
G1 X97.492 Y89.109 E0.16704
G1 X100.775 Y89.1 E0.27623
G1 X101.026 Y89.104 E0.28458
G1 X104.982 Y89.248 E0.41625
G1 X110.371 Y89.242 E0.59548
G1 X113.686 Y89.105 E0.70584
G1 X113.998 Y89.1 E0.71621
G1 X122.959 Y89.166 E1.01427
G1 X123.095 Y89.169 E1.01879
G1 X126.878 Y89.277 E1.14467
G1 X134.187 Y89.102 E1.38783
G1 X134.36 Y89.1 E1.39359
G1 X137.511 Y89.11 E1.49839
G1 X138.225 Y89.152 E1.52218
G1 X138.93 Y89.274 E1.54598
G1 X139.617 Y89.473 E1.56977
G1 X140.277 Y89.748 E1.59355
G1 X140.903 Y90.095 E1.61735
G1 X141.486 Y90.51 E1.64115
G1 X142.019 Y90.987 E1.66494
G1 X142.495 Y91.52 E1.68871
G1 X142.909 Y92.104 E1.71252
G1 X143.255 Y92.729 E1.73628
G1 X143.53 Y93.39 E1.76009
G1 X143.729 Y94.077 E1.78388
G1 X143.849 Y94.782 E1.80767
G1 X143.891 Y95.517 E1.83215
G1 X143.874 Y110.639 E2.33511
G1 X143.843 Y111.258 E2.35573
G1 X143.282 Y116.964 E2.54643
G1 X143.062 Y122.281 E2.72342
G1 X143.141 Y127.565 E2.89919
G1 X143.524 Y132.876 E3.07629
G1 X143.853 Y135.907 E3.17769
G1 X143.889 Y136.686 E3.20363
G1 X143.874 Y137.788 E3.24029
G1 X143.825 Y138.502 E3.26409
G1 X143.623 Y139.481 E3.29734
G1 X143.425 Y140.165 E3.32102
G1 X143.188 Y140.839 E3.34479
G1 X142.877 Y141.484 E3.3686
G1 X142.369 Y142.262 E3.39951
G1 X141.913 Y142.861 E3.42455
G1 X141.449 Y143.405 E3.44833
G1 X140.927 Y143.893 E3.47209
G1 X140.209 Y144.414 E3.5016
G1 X139.648 Y144.764 E3.52359
G1 X139.021 Y145.108 E3.54738
G1 X138.156 Y145.447 E3.57828
G1 X137.782 Y145.563 E3.5913
G1 X137.088 Y145.736 E3.61509
G1 X136.379 Y145.831 E3.63888
G1 X135.89 Y145.85 E3.65516
G1 X99.295 Y145.874 E4.87231
G1 X98.581 Y145.834 E4.8961
G1 X97.876 Y145.716 E4.91987
G1 X97.387 Y145.584 E4.93672
G1 X96.633 Y145.349 E4.96299
G1 X95.963 Y145.098 E4.98679
G1 X95.325 Y144.775 E5.01057
G1 X94.531 Y144.23 E5.0426
G1 X94.004 Y143.807 E5.06508
G1 X93.472 Y143.329 E5.08886
G1 X92.997 Y142.794 E5.11266
G1 X92.567 Y142.183 E5.13751
G1 X92.223 Y141.627 E5.15926
G1 X91.882 Y140.999 E5.18302
G1 X91.553 Y140.156 E5.21312
G1 X91.437 Y139.782 E5.22615
G1 X91.264 Y139.088 E5.24993
G1 X91.169 Y138.379 E5.27373
G1 X91.15 Y137.875 E5.2905
G1 X91.153 Y136.086 E5.35
G1 X91.184 Y135.471 E5.37049
G1 X91.718 Y130.036 E5.55212
G1 X91.938 Y124.719 E5.72912
G1 X91.859 Y119.435 E5.90489
G1 X91.475 Y114.1 E6.08279
G1 X91.147 Y111.09 E6.18349
G1 X91.109 Y110.397 E6.20658
G1 X91.11 Y95.509 E6.70175
G1 X91.15 Y94.794 E6.72557
G1 X91.269 Y94.089 E6.74935
G1 X91.467 Y93.402 E6.77313
G1 X91.74 Y92.741 E6.79692
G1 X92.085 Y92.114 E6.82072
G1 X92.497 Y91.53 E6.84449
G1 X92.973 Y90.995 E6.86831
M204 S5000
M205 X30 Y30
G0 F3600 X93.366 Y91.17
M204 S500
M205 X20 Y20
G1 F1800 X93.894 Y90.721 E6.89136
G1 X94.47 Y90.336 E6.91441
G1 X95.086 Y90.02 E6.93743
G1 X95.735 Y89.778 E6.96047
G1 X96.407 Y89.611 E6.9835
G1 X97.094 Y89.523 E7.00654
G1 X97.494 Y89.509 E7.01985
G1 X100.777 Y89.5 E7.12904
G1 X101.011 Y89.504 E7.13683
G1 X104.968 Y89.648 E7.26852
G1 X110.389 Y89.642 E7.44883
G1 X113.703 Y89.505 E7.55915
G1 X113.995 Y89.5 E7.56886
G1 X122.956 Y89.566 E7.86691
G1 X123.083 Y89.568 E7.87114
G1 X126.894 Y89.677 E7.99794
G1 X134.196 Y89.502 E8.24088
G1 X134.359 Y89.5 E8.2463
G1 X137.51 Y89.51 E8.3511
G1 X138.201 Y89.552 E8.37413
G1 X138.883 Y89.674 E8.39717
G1 X139.546 Y89.873 E8.42019
G1 X140.182 Y90.147 E8.44323
G1 X140.782 Y90.493 E8.46626
G1 X141.338 Y90.906 E8.4893
G1 X141.843 Y91.38 E8.51234
G1 X142.29 Y91.909 E8.53537
G1 X142.673 Y92.486 E8.55841
G1 X142.987 Y93.103 E8.58143
G1 X143.228 Y93.753 E8.60449
G1 X143.392 Y94.425 E8.6275
G1 X143.478 Y95.112 E8.65052
G1 X143.491 Y95.517 E8.664
G1 X143.474 Y110.639 E9.16696
G1 X143.445 Y111.219 E9.18628
G1 X142.882 Y116.944 E9.37761
G1 X142.662 Y122.27 E9.5549
G1 X142.741 Y127.564 E9.731
G1 X143.129 Y132.951 E9.91064
G1 X143.455 Y135.951 E10.01101
G1 X143.489 Y136.681 E10.03531
G1 X143.474 Y137.783 E10.07197
G1 X143.425 Y138.473 E10.09498
G1 X143.238 Y139.369 E10.12542
G1 X143.04 Y140.053 E10.1491
G1 X142.81 Y140.706 E10.17213
G1 X142.505 Y141.328 E10.19517
G1 X142.051 Y142.019 E10.22267
G1 X141.595 Y142.618 E10.24771
G1 X141.144 Y143.144 E10.27075
G1 X140.636 Y143.615 E10.2938
G1 X139.997 Y144.075 E10.31998
G1 X139.436 Y144.425 E10.34198
G1 X138.828 Y144.757 E10.36502
G1 X138.037 Y145.065 E10.39325
G1 X137.663 Y145.181 E10.40627
G1 X136.991 Y145.347 E10.4293
G1 X136.304 Y145.435 E10.45233
G1 X135.89 Y145.45 E10.46611
G1 X99.295 Y145.474 E11.68327
G1 X98.604 Y145.434 E11.70629
G1 X97.921 Y145.316 E11.72934
G1 X97.506 Y145.202 E11.74365
G1 X96.752 Y144.967 E11.76992
G1 X96.104 Y144.723 E11.79295
G1 X95.488 Y144.406 E11.81599
G1 X94.781 Y143.918 E11.84457
G1 X94.254 Y143.495 E11.86704
G1 X93.74 Y143.031 E11.89007
G1 X93.283 Y142.511 E11.9131
G1 X92.908 Y141.973 E11.93491
G1 X92.564 Y141.417 E11.95666
G1 X92.234 Y140.808 E11.97969
G1 X91.935 Y140.037 E12.0072
G1 X91.819 Y139.663 E12.02022
G1 X91.653 Y138.991 E12.04325
G1 X91.565 Y138.304 E12.06628
G1 X91.55 Y137.876 E12.08053
G1 X91.553 Y136.087 E12.14003
G1 X91.582 Y135.51 E12.15924
G1 X92.118 Y130.056 E12.34152
G1 X92.338 Y124.73 E12.51881
G1 X92.259 Y119.436 E12.69491
G1 X91.871 Y114.052 E12.87445
G1 X91.544 Y111.046 E12.97502
G1 X91.509 Y110.397 E12.99664
G1 X91.51 Y95.509 E13.49181
G1 X91.55 Y94.817 E13.51487
G1 X91.669 Y94.135 E13.53789
G1 X91.867 Y93.471 E13.56094
G1 X92.139 Y92.835 E13.58395
G1 X92.483 Y92.233 E13.60701
G1 X92.894 Y91.676 E13.63003
G1 X93.366 Y91.17 E13.65305
M204 S5000
M205 X30 Y30
G0 F3600 X93.759 Y91.351
M204 S500
M205 X20 Y20
G1 F1800 X94.282 Y90.933 E13.67531
G1 X94.85 Y90.581 E13.69754
G1 X95.457 Y90.299 E13.7198
G1 X96.093 Y90.091 E13.74206
G1 X96.749 Y89.961 E13.7643
G1 X97.495 Y89.909 E13.78917
G1 X100.778 Y89.9 E13.89836
G1 X100.997 Y89.904 E13.90565
G1 X104.954 Y90.048 E14.03735
G1 X110.405 Y90.042 E14.21865
G1 X113.719 Y89.905 E14.32897
G1 X113.992 Y89.9 E14.33805
G1 X122.953 Y89.966 E14.6361
G1 X123.072 Y89.968 E14.64006
G1 X126.893 Y90.077 E14.7672
G1 X134.206 Y89.902 E15.0105
G1 X134.358 Y89.9 E15.01555
G1 X137.509 Y89.91 E15.12036
G1 X138.176 Y89.952 E15.14259
G1 X138.834 Y90.074 E15.16484
G1 X139.473 Y90.273 E15.1871
G1 X140.084 Y90.546 E15.20936
G1 X140.657 Y90.891 E15.23161
G1 X141.185 Y91.301 E15.25384
G1 X141.661 Y91.772 E15.27612
G1 X142.077 Y92.296 E15.29837
G1 X142.427 Y92.866 E15.32061
G1 X142.708 Y93.473 E15.34286
G1 X142.913 Y94.11 E15.36512
G1 X143.041 Y94.767 E15.38738
G1 X143.091 Y95.516 E15.41235
G1 X143.074 Y110.638 E15.91531
G1 X143.047 Y111.18 E15.93336
G1 X142.482 Y116.923 E16.12529
G1 X142.261 Y122.26 E16.30296
G1 X142.341 Y127.581 E16.47995
G1 X142.731 Y132.995 E16.66049
G1 X143.057 Y135.994 E16.76082
G1 X143.089 Y136.675 E16.7835
G1 X143.074 Y137.777 E16.82016
G1 X143.025 Y138.444 E16.8424
G1 X142.854 Y139.258 E16.87006
G1 X142.656 Y139.942 E16.89375
G1 X142.432 Y140.573 E16.91602
G1 X142.134 Y141.172 E16.93827
G1 X141.733 Y141.777 E16.96241
G1 X141.277 Y142.376 E16.98745
G1 X140.84 Y142.883 E17.00971
G1 X140.347 Y143.335 E17.03196
G1 X139.785 Y143.735 E17.0549
G1 X139.224 Y144.085 E17.07689
G1 X138.636 Y144.405 E17.09916
G1 X137.919 Y144.683 E17.12474
G1 X137.545 Y144.799 E17.13776
G1 X136.895 Y144.958 E17.16002
G1 X136.231 Y145.039 E17.18227
G1 X135.89 Y145.05 E17.19361
G1 X99.295 Y145.074 E18.41077
G1 X98.627 Y145.034 E18.43303
G1 X97.968 Y144.916 E18.45529
G1 X97.625 Y144.82 E18.46714
G1 X96.871 Y144.585 E18.49341
G1 X96.245 Y144.348 E18.51567
G1 X95.652 Y144.039 E18.53791
G1 X95.032 Y143.606 E18.56306
G1 X94.505 Y143.183 E18.58554
G1 X94.009 Y142.734 E18.60779
G1 X93.57 Y142.229 E18.63005
G1 X93.248 Y141.762 E18.64891
G1 X92.904 Y141.206 E18.67066
G1 X92.586 Y140.617 E18.69292
G1 X92.317 Y139.919 E18.7178
G1 X92.201 Y139.545 E18.73083
G1 X92.042 Y138.895 E18.75308
G1 X91.961 Y138.231 E18.77533
G1 X91.95 Y137.877 E18.78711
G1 X91.953 Y136.088 E18.84661
G1 X91.98 Y135.549 E18.86456
G1 X92.518 Y130.077 E19.04744
G1 X92.739 Y124.74 E19.2251
G1 X92.659 Y119.419 E19.4021
G1 X92.269 Y114.009 E19.5825
G1 X91.942 Y111.003 E19.68307
G1 X91.909 Y110.397 E19.70326
G1 X91.91 Y95.509 E20.19844
G1 X91.95 Y94.841 E20.22069
G1 X92.069 Y94.182 E20.24297
G1 X92.266 Y93.543 E20.26521
G1 X92.538 Y92.932 E20.28745
G1 X92.881 Y92.357 E20.30972
G1 X93.29 Y91.828 E20.33196
G1 X93.759 Y91.351 E20.35421
M204 S5000
M205 X30 Y30
G0 F3600 X93.685 Y91.986
M204 S500
M205 X20 Y20
G1 F1800 X94.151 Y91.54 E20.37566
G1 X94.668 Y91.155 E20.3971
G1 X95.228 Y90.836 E20.41854
G1 X95.824 Y90.59 E20.43998
G1 X96.446 Y90.419 E20.46144
G1 X97.084 Y90.327 E20.48288
G1 X97.496 Y90.309 E20.4966
G1 X100.779 Y90.3 E20.60579
G1 X100.982 Y90.303 E20.61254
G1 X104.966 Y90.448 E20.74514
G1 X110.398 Y90.442 E20.92581
G1 X113.736 Y90.304 E21.03692
G1 X113.989 Y90.3 E21.04534
G1 X122.95 Y90.366 E21.34339
G1 X123.061 Y90.368 E21.34708
G1 X126.872 Y90.477 E21.47389
G1 X134.215 Y90.301 E21.71819
G1 X134.357 Y90.3 E21.72291
G1 X137.508 Y90.31 E21.82772
G1 X138.151 Y90.352 E21.84915
G1 X138.784 Y90.473 E21.87058
G1 X139.397 Y90.672 E21.89202
G1 X139.981 Y90.945 E21.91346
G1 X140.527 Y91.288 E21.93491
G1 X141.026 Y91.696 E21.95634
G1 X141.471 Y92.163 E21.9778
G1 X141.854 Y92.681 E21.99923
G1 X142.171 Y93.243 E22.02069
G1 X142.415 Y93.839 E22.04211
G1 X142.584 Y94.462 E22.06358
G1 X142.675 Y95.1 E22.08501
G1 X142.691 Y95.516 E22.09886
G1 X142.674 Y110.638 E22.60182
G1 X142.649 Y111.141 E22.61857
G1 X142.084 Y116.886 E22.81057
G1 X141.861 Y122.267 E22.9897
G1 X141.942 Y127.599 E23.16706
G1 X142.331 Y133.011 E23.34753
G1 X142.66 Y136.037 E23.44877
G1 X142.69 Y136.67 E23.46984
G1 X142.675 Y137.772 E23.5065
G1 X142.626 Y138.415 E23.52795
G1 X142.47 Y139.147 E23.55284
G1 X142.272 Y139.831 E23.57653
G1 X142.055 Y140.438 E23.59797
G1 X141.764 Y141.013 E23.6194
G1 X141.415 Y141.535 E23.64028
G1 X140.959 Y142.134 E23.66532
G1 X140.537 Y142.622 E23.68678
G1 X140.058 Y143.053 E23.70821
G1 X139.573 Y143.396 E23.72797
G1 X139.012 Y143.746 E23.74996
G1 X138.445 Y144.052 E23.77139
G1 X137.8 Y144.301 E23.79439
G1 X137.426 Y144.417 E23.80741
G1 X136.8 Y144.569 E23.82884
G1 X135.889 Y144.65 E23.85926
G1 X99.294 Y144.674 E25.07641
G1 X98.651 Y144.634 E25.09784
G1 X97.744 Y144.438 E25.1287
G1 X96.99 Y144.203 E25.15497
G1 X96.387 Y143.974 E25.17642
G1 X95.818 Y143.671 E25.19787
G1 X95.282 Y143.294 E25.21966
G1 X94.755 Y142.871 E25.24214
G1 X94.278 Y142.437 E25.26359
G1 X93.859 Y141.948 E25.285
G1 X93.588 Y141.552 E25.30096
G1 X93.244 Y140.996 E25.32271
G1 X92.939 Y140.428 E25.34415
G1 X92.699 Y139.8 E25.36651
G1 X92.583 Y139.426 E25.37954
G1 X92.431 Y138.8 E25.40096
G1 X92.35 Y137.877 E25.43178
G1 X92.353 Y136.088 E25.49128
G1 X92.378 Y135.589 E25.5079
G1 X92.916 Y130.116 E25.69081
G1 X93.139 Y124.733 E25.87
G1 X93.058 Y119.401 E26.04737
G1 X92.667 Y113.966 E26.2286
G1 X92.34 Y110.96 E26.32917
G1 X92.309 Y110.397 E26.34793
G1 X92.31 Y95.509 E26.8431
G1 X92.35 Y94.865 E26.86457
G1 X92.469 Y94.232 E26.88599
G1 X92.666 Y93.618 E26.90743
G1 X92.937 Y93.033 E26.92888
G1 X93.279 Y92.486 E26.95033
G1 X93.685 Y91.986 E26.97176
M204 S5000
M205 X30 Y30
G1 F2400 E21.97176
;MESH:Z-SpacerSide_v2.STL
G0 F3600 X96.835 Y96.114
G0 X98.114 Y96.114
G0 X103.83 Y108.17
G0 X103.9 Y108.1
M204 S500
M205 X20 Y20
;TYPE:WALL-INNER
G1 F2400 E26.97176
G1 F1800 X131.1 Y108.1 E27.87643
G1 X131.1 Y98.512 E28.19533
G1 X131.119 Y98.208 E28.20546
G1 X131.17 Y97.931 E28.21483
G1 X131.259 Y97.646 E28.22476
G1 X131.377 Y97.382 E28.23438
G1 X131.523 Y97.141 E28.24375
G1 X131.705 Y96.908 E28.25358
G1 X131.908 Y96.705 E28.26313
G1 X132.141 Y96.523 E28.27297
G1 X132.382 Y96.377 E28.28234
G1 X132.646 Y96.259 E28.29196
G1 X132.931 Y96.17 E28.30189
G1 X133.208 Y96.119 E28.31125
G1 X133.519 Y96.1 E28.32162
G1 X136.9 Y96.1 E28.43407
G1 X136.9 Y110.381 E28.90906
G1 X136.865 Y110.804 E28.92317
G1 X136.766 Y111.187 E28.93633
G1 X136.601 Y111.56 E28.9499
G1 X136.382 Y111.889 E28.96304
G1 X136.104 Y112.186 E28.97657
G1 X135.197 Y112.877 E29.0145
G1 X134.544 Y113.58 E29.04641
G1 X133.953 Y114.443 E29.0812
G1 X133.43 Y115.446 E29.11882
G1 X132.975 Y116.577 E29.15937
G1 X132.597 Y117.818 E29.20252
G1 X132.296 Y119.15 E29.24794
G1 X132.078 Y120.55 E29.29506
G1 X131.946 Y122 E29.34349
G1 X131.9 Y123.471 E29.39244
G1 X131.942 Y124.944 E29.44145
G1 X132.071 Y126.394 E29.48987
G1 X132.286 Y127.798 E29.53711
G1 X132.584 Y129.133 E29.5826
G1 X132.96 Y130.377 E29.62583
G1 X133.412 Y131.512 E29.66646
G1 X133.933 Y132.522 E29.70426
G1 X134.521 Y133.39 E29.73913
G1 X135.172 Y134.1 E29.77117
G1 X136.108 Y134.818 E29.81041
G1 X136.382 Y135.111 E29.82375
G1 X136.601 Y135.44 E29.83689
G1 X136.766 Y135.813 E29.85046
G1 X136.865 Y136.196 E29.86362
G1 X136.9 Y136.619 E29.87773
G1 X136.9 Y137.477 E29.90627
G1 X136.877 Y137.744 E29.91518
G1 X136.814 Y137.977 E29.92321
G1 X136.711 Y138.197 E29.93129
G1 X136.568 Y138.402 E29.93961
G1 X136.402 Y138.568 E29.94741
G1 X136.197 Y138.711 E29.95573
G1 X135.977 Y138.814 E29.96381
G1 X135.743 Y138.877 E29.97187
G1 X135.473 Y138.9 E29.98088
G1 X99.527 Y138.9 E31.17645
G1 X99.257 Y138.877 E31.18546
G1 X99.023 Y138.814 E31.19352
G1 X98.803 Y138.711 E31.2016
G1 X98.598 Y138.568 E31.20991
G1 X98.432 Y138.402 E31.21772
G1 X98.289 Y138.197 E31.22603
G1 X98.186 Y137.977 E31.23411
G1 X98.123 Y137.744 E31.24214
G1 X98.1 Y137.477 E31.25106
G1 X98.1 Y136.619 E31.27959
G1 X98.135 Y136.196 E31.29371
G1 X98.234 Y135.813 E31.30687
G1 X98.399 Y135.44 E31.32043
G1 X98.618 Y135.111 E31.33358
G1 X98.896 Y134.814 E31.34711
G1 X99.803 Y134.123 E31.38503
G1 X100.456 Y133.42 E31.41695
G1 X101.047 Y132.557 E31.45173
G1 X101.57 Y131.554 E31.48936
G1 X102.025 Y130.423 E31.5299
G1 X102.403 Y129.182 E31.57305
G1 X102.704 Y127.85 E31.61847
G1 X102.922 Y126.45 E31.6656
G1 X103.054 Y125 E31.71402
G1 X103.1 Y123.529 E31.76297
G1 X103.058 Y122.056 E31.81199
G1 X102.929 Y120.606 E31.8604
G1 X102.714 Y119.202 E31.90765
G1 X102.416 Y117.867 E31.95314
G1 X102.04 Y116.623 E31.99636
G1 X101.588 Y115.488 E32.037
G1 X101.067 Y114.478 E32.0748
G1 X100.479 Y113.61 E32.10967
G1 X99.828 Y112.9 E32.14171
G1 X98.892 Y112.182 E32.18094
G1 X98.618 Y111.889 E32.19428
G1 X98.399 Y111.56 E32.20743
G1 X98.234 Y111.187 E32.221
G1 X98.135 Y110.804 E32.23415
G1 X98.1 Y110.381 E32.24827
G1 X98.1 Y96.1 E32.72326
G1 X101.481 Y96.1 E32.83571
G1 X101.792 Y96.119 E32.84607
G1 X102.069 Y96.17 E32.85544
G1 X102.354 Y96.259 E32.86537
G1 X102.618 Y96.377 E32.87499
G1 X102.859 Y96.523 E32.88436
G1 X103.092 Y96.705 E32.8942
G1 X103.295 Y96.908 E32.90374
G1 X103.477 Y97.141 E32.91358
G1 X103.623 Y97.382 E32.92295
G1 X103.741 Y97.646 E32.93257
G1 X103.83 Y97.931 E32.9425
G1 X103.881 Y98.208 E32.95187
G1 X103.9 Y98.512 E32.962
G1 X103.9 Y108.1 E33.28089
M204 S5000
M205 X30 Y30
G0 F3600 X103.83 Y108.17
G0 X113.488 Y131.771
G0 X114.028 Y132.754
G0 X114.634 Y133.593
G0 X114.823 Y133.784
G0 X115.878 Y134.747
G0 X115.928 Y134.661
M204 S500
M205 X20 Y20
G1 F1800 X116.477 Y134.917 E33.30104
G1 X116.995 Y135.058 E33.3189
G1 X117.497 Y135.102 E33.33566
G1 X117.952 Y135.066 E33.35084
G1 X118.465 Y134.939 E33.36842
G1 X119.01 Y134.695 E33.38828
G1 X119.602 Y134.295 E33.41204
G1 X120.263 Y133.652 E33.44271
G1 X120.874 Y132.836 E33.47662
G1 X121.417 Y131.873 E33.51339
