;FLAVOR:Marlin
;TIME:1903
;Filament used: 1.00292m
;Layer height: 0.12
;Generated with Cura_SteamEngine master
M140 S60
M105
M190 S60
M104 S205
M105
M109 S205
M82 ;absolute extrusion mode
; Ender 3 Custom Start G-code
G28 ; Home all axes
G92 E0 ; Reset Extruder
G1 Z2.0 F3000 ; Move Z Axis up little to prevent scratching of Heat Bed
G1 X0.1 Y20 Z0.3 F5000.0 ; Move to start position
G1 X0.1 Y200.0 Z0.3 F1500.0 E15 ; Draw the first line
G1 X0.4 Y200.0 Z0.3 F5000.0 ; Move to side a little
G1 X0.4 Y20 Z0.3 F1500.0 E30 ; Draw the second line
G92 E0 ; Reset Extruder
G1 Z2.0 F3000 ; Move Z Axis up little to prevent scratching of Heat Bed
; End of custom start GCode
G92 E0
G1 F3600 E-10
;LAYER_COUNT:46
;LAYER:0
M107
M204 S5000
M205 X30 Y30
G0 F3600 X94.108 Y92.629 Z0.2
M204 S500
M205 X20 Y20
;TYPE:SKIRT
G1 F3600 E0
G1 F1500 X94.649 Y92.16 E0.02381
G1 X95.325 Y91.704 E0.05093
G1 X96.222 Y91.178 E0.08552
G1 X96.858 Y90.851 E0.10931
G1 X97.527 Y90.598 E0.1331
G1 X98.308 Y90.403 E0.15987
G1 X99.325 Y90.217 E0.19426
G1 X100.034 Y90.128 E0.21802
G1 X100.481 Y90.113 E0.2329
G1 X134.861 Y90.139 E1.37638
G1 X135.575 Y90.18 E1.40017
G1 X136.28 Y90.299 E1.42395
G1 X136.743 Y90.423 E1.43989
G1 X137.764 Y90.738 E1.47543
G1 X138.434 Y90.987 E1.4992
G1 X139.073 Y91.309 E1.523
G1 X139.74 Y91.751 E1.54961
G1 X140.534 Y92.352 E1.58274
G1 X141.079 Y92.815 E1.60652
G1 X141.569 Y93.336 E1.63031
G1 X142.025 Y93.949 E1.65572
G1 X142.594 Y94.818 E1.69027
G1 X142.952 Y95.437 E1.71405
G1 X143.239 Y96.093 E1.73787
G1 X143.457 Y96.803 E1.76257
G1 X143.689 Y97.751 E1.79503
G1 X143.819 Y98.454 E1.81881
G1 X143.872 Y99.332 E1.84806
G1 X143.861 Y100.512 E1.88731
G1 X143.805 Y101.296 E1.91345
G1 X142.895 Y108.14 E2.14309
G1 X142.515 Y113.4 E2.31849
G1 X142.433 Y118.686 E2.49433
G1 X142.651 Y123.985 E2.67072
G1 X143.173 Y129.325 E2.84918
G1 X143.828 Y134.046 E3.0077
G1 X143.887 Y134.759 E3.0315
G1 X143.884 Y135.175 E3.04534
G1 X143.842 Y136.25 E3.08112
G1 X143.774 Y136.962 E3.10491
G1 X143.627 Y137.662 E3.1287
G1 X143.479 Y138.14 E3.14534
G1 X143.136 Y139.107 E3.17947
G1 X142.859 Y139.766 E3.20324
G1 X142.511 Y140.391 E3.22703
G1 X142.043 Y141.038 E3.25359
G1 X141.377 Y141.846 E3.28842
G1 X140.892 Y142.371 E3.31219
G1 X140.351 Y142.84 E3.33601
G1 X139.673 Y143.297 E3.3632
G1 X138.775 Y143.823 E3.39782
G1 X138.138 Y144.15 E3.42163
G1 X137.255 Y144.467 E3.45283
G1 X136.759 Y144.605 E3.46996
G1 X136.061 Y144.758 E3.49372
G1 X135.048 Y144.839 E3.52752
G1 X100.148 Y144.861 E4.6883
G1 X99.434 Y144.821 E4.71209
G1 X98.729 Y144.703 E4.73586
G1 X98.257 Y144.577 E4.75211
G1 X97.236 Y144.262 E4.78765
G1 X96.566 Y144.013 E4.81142
G1 X95.927 Y143.691 E4.83522
G1 X95.26 Y143.249 E4.86184
G1 X94.466 Y142.648 E4.89496
G1 X93.921 Y142.185 E4.91874
G1 X93.431 Y141.664 E4.94253
G1 X92.975 Y141.051 E4.96794
G1 X92.406 Y140.182 E5.00249
G1 X92.048 Y139.563 E5.02627
G1 X91.761 Y138.907 E5.05009
G1 X91.537 Y138.17 E5.07571
G1 X91.302 Y137.191 E5.10919
G1 X91.174 Y136.487 E5.13299
G1 X91.125 Y135.619 E5.16191
G1 X91.139 Y134.47 E5.20013
G1 X91.195 Y133.704 E5.22567
G1 X92.105 Y126.86 E5.45531
G1 X92.485 Y121.6 E5.63071
G1 X92.567 Y116.314 E5.80655
G1 X92.349 Y111.014 E5.98297
G1 X91.827 Y105.674 E6.16143
G1 X91.172 Y100.954 E6.31992
G1 X91.113 Y100.242 E6.34368
G1 X91.116 Y99.825 E6.35755
G1 X91.158 Y98.75 E6.39334
G1 X91.226 Y98.038 E6.41713
G1 X91.373 Y97.338 E6.44092
G1 X91.521 Y96.86 E6.45756
G1 X91.864 Y95.893 E6.49168
G1 X92.141 Y95.234 E6.51546
G1 X92.489 Y94.609 E6.53925
G1 X92.957 Y93.962 E6.56581
G1 X93.623 Y93.154 E6.60064
G1 X94.108 Y92.629 E6.62441
M204 S5000
M205 X30 Y30
G0 F3600 X94.403 Y92.901
M204 S500
M205 X20 Y20
G1 F1500 X94.929 Y92.45 E6.64746
G1 X95.527 Y92.049 E6.6714
G1 X96.424 Y91.523 E6.70599
G1 X97.041 Y91.208 E6.72903
G1 X97.689 Y90.966 E6.75204
G1 X98.38 Y90.797 E6.7757
G1 X99.397 Y90.611 E6.81008
G1 X100.084 Y90.526 E6.83311
G1 X100.481 Y90.513 E6.84632
G1 X134.861 Y90.539 E7.9898
G1 X135.552 Y90.579 E8.01282
G1 X136.234 Y90.699 E8.03586
G1 X136.625 Y90.806 E8.04934
G1 X137.646 Y91.121 E8.08488
G1 X138.295 Y91.363 E8.10791
G1 X138.911 Y91.678 E8.13093
G1 X139.498 Y92.07 E8.1544
G1 X140.292 Y92.671 E8.18752
G1 X140.819 Y93.12 E8.21055
G1 X141.291 Y93.627 E8.23359
G1 X141.691 Y94.168 E8.25597
G1 X142.26 Y95.037 E8.29052
G1 X142.605 Y95.638 E8.31356
G1 X142.879 Y96.274 E8.3366
G1 X143.068 Y96.898 E8.35828
G1 X143.3 Y97.846 E8.39074
G1 X143.426 Y98.527 E8.41378
G1 X143.472 Y99.328 E8.44046
G1 X143.461 Y100.508 E8.47971
G1 X143.409 Y101.243 E8.50422
G1 X142.496 Y108.107 E8.73453
G1 X142.115 Y113.384 E8.9105
G1 X142.033 Y118.697 E9.08723
G1 X142.251 Y124.022 E9.26449
G1 X142.772 Y129.345 E9.44238
G1 X143.432 Y134.101 E9.60208
G1 X143.488 Y134.791 E9.62511
G1 X143.484 Y135.159 E9.63735
G1 X143.442 Y136.234 E9.67313
G1 X143.375 Y136.924 E9.69618
G1 X143.23 Y137.601 E9.71921
G1 X143.102 Y138.006 E9.73334
G1 X142.759 Y138.973 E9.76747
G1 X142.49 Y139.611 E9.79049
G1 X142.149 Y140.214 E9.81354
G1 X141.734 Y140.783 E9.83696
G1 X141.068 Y141.591 E9.87179
G1 X140.597 Y142.099 E9.89483
G1 X140.071 Y142.55 E9.91787
G1 X139.471 Y142.952 E9.94189
G1 X138.573 Y143.478 E9.97651
G1 X137.956 Y143.793 E9.99955
G1 X137.148 Y144.081 E10.02808
G1 X136.652 Y144.219 E10.0452
G1 X135.975 Y144.366 E10.06824
G1 X135.048 Y144.439 E10.09917
G1 X100.148 Y144.461 E11.25995
G1 X99.456 Y144.421 E11.28301
G1 X98.774 Y144.303 E11.30603
G1 X98.375 Y144.194 E11.31978
G1 X97.354 Y143.879 E11.35532
G1 X96.705 Y143.637 E11.37836
G1 X96.089 Y143.322 E11.40137
G1 X95.502 Y142.93 E11.42485
G1 X94.708 Y142.329 E11.45797
G1 X94.181 Y141.88 E11.481
G1 X93.709 Y141.373 E11.50403
G1 X93.309 Y140.832 E11.52641
G1 X92.74 Y139.963 E11.56096
G1 X92.395 Y139.362 E11.58401
G1 X92.121 Y138.726 E11.60704
G1 X91.926 Y138.076 E11.62961
G1 X91.691 Y137.097 E11.6631
G1 X91.568 Y136.416 E11.68612
G1 X91.525 Y135.624 E11.7125
G1 X91.539 Y134.475 E11.75072
G1 X91.591 Y133.757 E11.77466
G1 X92.504 Y126.893 E12.00497
G1 X92.885 Y121.616 E12.18094
G1 X92.967 Y116.303 E12.35767
G1 X92.749 Y110.977 E12.53496
G1 X92.228 Y105.655 E12.71282
G1 X91.568 Y100.899 E12.87252
G1 X91.512 Y100.209 E12.89554
G1 X91.516 Y99.841 E12.90778
G1 X91.558 Y98.766 E12.94357
G1 X91.625 Y98.076 E12.96662
G1 X91.77 Y97.399 E12.98965
G1 X91.898 Y96.994 E13.00378
G1 X92.241 Y96.027 E13.03791
G1 X92.51 Y95.389 E13.06093
G1 X92.851 Y94.786 E13.08397
G1 X93.266 Y94.217 E13.1074
G1 X93.932 Y93.409 E13.14223
G1 X94.403 Y92.901 E13.16527
M204 S5000
M205 X30 Y30
G0 F3600 X94.696 Y93.173
M204 S500
M205 X20 Y20
G1 F1500 X95.207 Y92.741 E13.18752
G1 X95.729 Y92.394 E13.20837
G1 X96.626 Y91.868 E13.24296
G1 X97.223 Y91.565 E13.26522
G1 X97.851 Y91.335 E13.28747
G1 X98.452 Y91.19 E13.30803
G1 X99.469 Y91.004 E13.34242
G1 X100.133 Y90.924 E13.36466
G1 X100.48 Y90.913 E13.37621
G1 X134.86 Y90.939 E14.51969
G1 X135.528 Y90.979 E14.54195
G1 X136.507 Y91.188 E14.57524
G1 X137.528 Y91.503 E14.61078
G1 X138.154 Y91.738 E14.63302
G1 X138.748 Y92.046 E14.65528
G1 X139.257 Y92.389 E14.67569
G1 X140.051 Y92.99 E14.70881
G1 X140.559 Y93.425 E14.73106
G1 X141.012 Y93.917 E14.7533
G1 X141.356 Y94.387 E14.77267
G1 X141.925 Y95.256 E14.80722
G1 X142.257 Y95.837 E14.82948
G1 X142.518 Y96.453 E14.85173
G1 X142.679 Y96.993 E14.87047
G1 X142.911 Y97.941 E14.90293
G1 X143.031 Y98.599 E14.92518
G1 X143.072 Y99.324 E14.94933
G1 X143.061 Y100.504 E14.98858
G1 X143.012 Y101.19 E15.01145
G1 X142.098 Y108.058 E15.2419
G1 X141.716 Y113.366 E15.4189
G1 X141.632 Y118.707 E15.59656
G1 X141.852 Y124.043 E15.77419
G1 X142.375 Y129.389 E15.95285
G1 X143.036 Y134.156 E16.11291
G1 X143.085 Y135.144 E16.14582
G1 X143.043 Y136.219 E16.1816
G1 X142.977 Y136.884 E16.20382
G1 X142.832 Y137.538 E16.22611
G1 X142.725 Y137.872 E16.23777
G1 X142.382 Y138.839 E16.2719
G1 X142.121 Y139.455 E16.29415
G1 X141.788 Y140.036 E16.31642
G1 X141.425 Y140.529 E16.33678
G1 X140.759 Y141.337 E16.37161
G1 X140.304 Y141.827 E16.39385
G1 X139.793 Y142.259 E16.41611
G1 X139.268 Y142.607 E16.43706
G1 X138.37 Y143.133 E16.47167
G1 X137.774 Y143.436 E16.49391
G1 X137.041 Y143.696 E16.51977
G1 X136.545 Y143.834 E16.5369
G1 X135.891 Y143.975 E16.55915
G1 X135.048 Y144.039 E16.58727
G1 X100.148 Y144.061 E17.74805
G1 X99.48 Y144.021 E17.77031
G1 X98.821 Y143.903 E17.79257
G1 X98.493 Y143.812 E17.80389
G1 X97.472 Y143.497 E17.83943
G1 X96.846 Y143.262 E17.86167
G1 X96.252 Y142.954 E17.88393
G1 X95.743 Y142.611 E17.90434
G1 X94.949 Y142.01 E17.93746
G1 X94.441 Y141.575 E17.95971
G1 X93.988 Y141.083 E17.98195
G1 X93.644 Y140.613 E18.00132
G1 X93.075 Y139.744 E18.03587
G1 X92.743 Y139.163 E18.05813
G1 X92.482 Y138.547 E18.08038
G1 X92.315 Y137.983 E18.09994
G1 X92.08 Y137.004 E18.13343
G1 X91.963 Y136.345 E18.15569
G1 X91.925 Y135.629 E18.17954
G1 X91.939 Y134.48 E18.21776
G1 X91.988 Y133.81 E18.2401
G1 X92.902 Y126.942 E18.47054
G1 X93.284 Y121.634 E18.64755
G1 X93.368 Y116.293 E18.82521
G1 X93.148 Y110.956 E19.00287
G1 X92.625 Y105.61 E19.18153
G1 X91.964 Y100.844 E19.34156
G1 X91.915 Y99.856 E19.37446
G1 X91.957 Y98.781 E19.41025
G1 X92.023 Y98.116 E19.43247
G1 X92.168 Y97.462 E19.45475
G1 X92.275 Y97.128 E19.46642
G1 X92.618 Y96.161 E19.50054
G1 X92.879 Y95.545 E19.5228
G1 X93.212 Y94.964 E19.54507
G1 X93.575 Y94.471 E19.56543
G1 X94.241 Y93.663 E19.60026
G1 X94.696 Y93.173 E19.6225
M204 S5000
M205 X30 Y30
G0 F3600 X94.989 Y93.446
M204 S500
M205 X20 Y20
G1 F1500 X95.484 Y93.033 E19.64394
G1 X95.932 Y92.739 E19.66176
G1 X96.829 Y92.213 E19.69635
G1 X97.404 Y91.922 E19.71778
G1 X98.011 Y91.705 E19.73922
G1 X98.523 Y91.584 E19.75672
G1 X99.54 Y91.398 E19.79111
G1 X100.48 Y91.313 E19.8225
G1 X134.86 Y91.339 E20.96598
G1 X135.503 Y91.379 E20.98741
G1 X136.389 Y91.57 E21.01756
G1 X137.41 Y91.885 E21.05309
G1 X138.013 Y92.113 E21.07454
G1 X138.583 Y92.414 E21.09598
G1 X139.015 Y92.708 E21.11336
G1 X139.809 Y93.309 E21.14648
G1 X140.298 Y93.729 E21.16792
G1 X140.731 Y94.206 E21.18934
G1 X141.021 Y94.606 E21.20578
G1 X141.59 Y95.475 E21.24032
G1 X141.909 Y96.036 E21.26179
G1 X142.157 Y96.631 E21.28323
G1 X142.291 Y97.088 E21.29907
G1 X142.523 Y98.036 E21.33153
G1 X142.637 Y98.67 E21.35295
G1 X142.672 Y99.32 E21.3746
G1 X142.661 Y100.5 E21.41385
G1 X142.616 Y101.138 E21.43513
G1 X141.702 Y108.012 E21.66577
G1 X141.315 Y113.366 E21.84431
G1 X141.232 Y118.7 E22.02174
G1 X141.453 Y124.08 E22.20083
G1 X141.977 Y129.433 E22.37972
G1 X142.64 Y134.211 E22.54016
G1 X142.685 Y135.128 E22.5707
G1 X142.643 Y136.203 E22.60648
G1 X142.578 Y136.844 E22.62791
G1 X142.348 Y137.738 E22.65861
G1 X142.005 Y138.705 E22.69274
G1 X141.752 Y139.298 E22.71418
G1 X141.428 Y139.856 E22.73564
G1 X141.117 Y140.274 E22.75297
G1 X140.451 Y141.082 E22.7878
G1 X140.011 Y141.554 E22.80926
G1 X139.516 Y141.967 E22.8307
G1 X139.066 Y142.262 E22.8486
G1 X138.168 Y142.788 E22.88321
G1 X137.593 Y143.079 E22.90464
G1 X136.934 Y143.311 E22.92788
G1 X136.438 Y143.449 E22.94501
G1 X135.807 Y143.583 E22.96646
G1 X135.047 Y143.639 E22.99181
G1 X100.147 Y143.661 E24.15259
G1 X99.504 Y143.621 E24.17401
G1 X98.611 Y143.43 E24.20439
G1 X97.59 Y143.115 E24.23992
G1 X96.987 Y142.887 E24.26137
G1 X96.417 Y142.586 E24.28281
G1 X95.985 Y142.292 E24.30019
G1 X95.191 Y141.691 E24.33331
G1 X94.702 Y141.271 E24.35475
G1 X94.269 Y140.794 E24.37617
G1 X93.979 Y140.394 E24.39261
G1 X93.41 Y139.525 E24.42715
G1 X93.091 Y138.964 E24.44862
G1 X92.843 Y138.369 E24.47006
G1 X92.704 Y137.89 E24.48665
G1 X92.469 Y136.911 E24.52013
G1 X92.357 Y136.276 E24.54158
G1 X92.325 Y135.634 E24.56296
G1 X92.339 Y134.485 E24.60118
G1 X92.384 Y133.862 E24.62195
G1 X93.298 Y126.988 E24.8526
G1 X93.685 Y121.634 E25.03113
G1 X93.768 Y116.3 E25.20857
G1 X93.547 Y110.919 E25.38769
G1 X93.023 Y105.566 E25.56658
G1 X92.36 Y100.789 E25.72699
G1 X92.315 Y99.872 E25.75752
G1 X92.357 Y98.797 E25.79331
G1 X92.422 Y98.156 E25.81474
G1 X92.652 Y97.262 E25.84544
G1 X92.995 Y96.295 E25.87956
G1 X93.248 Y95.702 E25.90101
G1 X93.572 Y95.144 E25.92247
G1 X93.883 Y94.726 E25.9398
G1 X94.549 Y93.918 E25.97462
G1 X94.989 Y93.446 E25.99609
M204 S5000
M205 X30 Y30
G1 F3600 E15.99609
;MESH:Z-SpacerBottom_v2.STL
G0 F3600 X100.407 Y95.842
G0 X100.519 Y97.119
G0 X117.102 Y101.831
G0 X117.118 Y101.929
M204 S500
M205 X20 Y20
;TYPE:WALL-INNER
G1 F3600 E25.99609
G1 F1500 X116.709 Y102.037 E26.01016
G1 X116.273 Y102.238 E26.02612
G1 X115.787 Y102.576 E26.04581
G1 X115.222 Y103.138 E26.07232
G1 X114.629 Y103.959 E26.106
G1 X114.088 Y104.957 E26.14376
G1 X113.601 Y106.12 E26.1857
G1 X113.167 Y107.433 E26.23169
G1 X112.792 Y108.881 E26.28144
G1 X112.478 Y110.446 E26.33453
G1 X112.23 Y112.107 E26.39039
G1 X112.049 Y113.841 E26.44837
G1 X111.938 Y115.626 E26.50786
G1 X111.9 Y117.436 E26.56807
G1 X111.933 Y119.249 E26.62838
G1 X112.039 Y121.035 E26.68789
G1 X112.214 Y122.774 E26.74602
G1 X112.459 Y124.441 E26.80206
G1 X112.768 Y126.013 E26.85535
G1 X113.14 Y127.47 E26.90536
G1 X113.568 Y128.793 E26.95161
G1 X114.053 Y129.965 E26.9938
G1 X114.589 Y130.976 E27.03186
G1 X115.179 Y131.811 E27.06586
G1 X115.752 Y132.395 E27.09307
G1 X116.242 Y132.744 E27.11308
G1 X116.68 Y132.952 E27.12921
G1 X117.092 Y133.066 E27.14343
G1 X117.491 Y133.103 E27.15676
G1 X117.89 Y133.069 E27.17007
G1 X118.299 Y132.96 E27.18415
G1 X118.737 Y132.757 E27.20021
G1 X119.225 Y132.415 E27.22003
G1 X119.792 Y131.845 E27.24677
G1 X120.384 Y131.019 E27.28057
G1 X120.923 Y130.017 E27.31841
G1 X121.411 Y128.852 E27.36042
G1 X121.842 Y127.534 E27.40654
G1 X122.216 Y126.084 E27.45635
G1 X122.528 Y124.515 E27.50956
G1 X122.775 Y122.853 E27.56544
G1 X122.954 Y121.117 E27.62349
G1 X123.064 Y119.331 E27.683
G1 X123.1 Y117.521 E27.74321
G1 X123.065 Y115.71 E27.80346
G1 X122.958 Y113.924 E27.86297
G1 X122.781 Y112.186 E27.92107
G1 X122.535 Y110.521 E27.97705
G1 X122.224 Y108.951 E28.03029
G1 X121.851 Y107.497 E28.08021
G1 X121.421 Y106.178 E28.12636
G1 X120.936 Y105.007 E28.16851
G1 X120.397 Y104.002 E28.20644
G1 X119.807 Y103.173 E28.24028
G1 X119.237 Y102.595 E28.26728
G1 X118.748 Y102.249 E28.28721
G1 X118.309 Y102.043 E28.30334
G1 X117.898 Y101.933 E28.31749
G1 X117.502 Y101.898 E28.33071
G1 X117.118 Y101.929 E28.34352
M204 S5000
M205 X30 Y30
G0 F3600 X117.102 Y101.831
G0 X117.904 Y101.894
G0 X118.322 Y102.006
G0 X118.768 Y102.215
G0 X119.262 Y102.565
G0 X119.837 Y103.148
G0 X120.43 Y103.981
G0 X120.972 Y104.99
G0 X121.458 Y106.165
G0 X121.889 Y107.486
G0 X122.263 Y108.943
G0 X122.366 Y109.543
G0 X135.064 Y131.827
G0 X135.141 Y131.764
M204 S500
M205 X20 Y20
G1 F1500 X136.129 Y132.788 E28.39085
G1 X136.457 Y133.266 E28.41013
G1 X136.701 Y133.799 E28.42963
G1 X136.848 Y134.362 E28.44898
G1 X136.9 Y134.952 E28.46868
G1 X136.9 Y135.481 E28.48628
G1 X136.862 Y135.917 E28.50083
G1 X136.754 Y136.32 E28.51471
G1 X136.581 Y136.692 E28.52835
G1 X136.332 Y137.046 E28.54275
G1 X136.046 Y137.332 E28.5562
G1 X135.692 Y137.581 E28.5706
G1 X135.32 Y137.754 E28.58424
G1 X134.917 Y137.862 E28.59812
G1 X134.481 Y137.9 E28.61268
G1 X100.519 Y137.9 E29.74226
G1 X100.083 Y137.862 E29.75681
G1 X99.68 Y137.754 E29.77069
G1 X99.308 Y137.581 E29.78434
G1 X98.954 Y137.332 E29.79873
G1 X98.668 Y137.046 E29.81218
G1 X98.419 Y136.692 E29.82658
G1 X98.246 Y136.32 E29.84022
G1 X98.138 Y135.917 E29.8541
G1 X98.1 Y135.481 E29.86866
G1 X98.1 Y134.952 E29.88625
G1 X98.152 Y134.362 E29.90595
G1 X98.299 Y133.799 E29.9253
G1 X98.543 Y133.266 E29.9448
G1 X98.869 Y132.79 E29.96399
G1 X99.743 Y131.902 E30.00543
G1 X100.336 Y131.098 E30.03866
G1 X100.879 Y130.11 E30.07616
G1 X101.37 Y128.958 E30.11781
G1 X101.807 Y127.654 E30.16355
G1 X102.187 Y126.214 E30.21308
G1 X102.504 Y124.656 E30.26596
G1 X102.757 Y123 E30.32168
G1 X102.942 Y121.27 E30.37955
G1 X103.057 Y119.488 E30.43894
G1 X103.1 Y117.679 E30.49913
G1 X103.071 Y115.867 E30.5594
G1 X102.97 Y114.077 E30.61903
G1 X102.799 Y112.334 E30.67728
G1 X102.559 Y110.663 E30.73343
G1 X102.254 Y109.083 E30.78695
G1 X101.886 Y107.618 E30.83719
G1 X101.46 Y106.287 E30.88367
G1 X100.98 Y105.104 E30.92614
G1 X100.446 Y104.081 E30.96452
G1 X99.859 Y103.236 E30.99874
G1 X98.871 Y102.212 E31.04606
G1 X98.543 Y101.734 E31.06535
G1 X98.299 Y101.201 E31.08484
